; generated by PrusaSlicer 2.9.2 on 2025-04-29 at 14:49:06 UTC


;
;
; 

; external perimeters extrusion width = 0.45mm
; perimeters extrusion width = 0.45mm
; infill extrusion width = 0.45mm
; solid infill extrusion width = 0.45mm
; top infill extrusion width = 0.40mm
; support material extrusion width = 0.35mm
; first layer extrusion width = 0.42mm

; external perimeters extrusion width = 0.45mm
; perimeters extrusion width = 0.45mm
; infill extrusion width = 0.45mm
; solid infill extrusion width = 0.45mm
; top infill extrusion width = 0.40mm
; support material extrusion width = 0.35mm
; first layer extrusion width = 0.42mm

M73 P0 R42
M73 Q0 S42
M201 X1000 Y1000 Z200 E5000 ; sets maximum accelerations, mm/sec^2
M203 X200 Y200 Z12 E120 ; sets maximum feedrates, mm / sec
M204 S1250 T1250 ; sets acceleration (S) and retract acceleration (R), mm/sec^2
M205 X8.00 Y8.00 Z0.40 E4.50 ; sets the jerk limits, mm/sec
M205 S0 T0 ; sets the minimum extruding and travel feed rate, mm/sec

; printing object robot_painter_02-Gripper_Assembly-gen-pt2.STL id:0 copy 0
; stop printing object robot_painter_02-Gripper_Assembly-gen-pt2.STL id:0 copy 0
; printing object robot_painter_02-Gripper_Assembly-gen-pt4.STL id:1 copy 0
; stop printing object robot_painter_02-Gripper_Assembly-gen-pt4.STL id:1 copy 0

;TYPE:Custom
M862.3 P "MK3S" ; printer model check
M862.1 P0.4 ; nozzle diameter check
M115 U3.14.1 ; tell printer latest fw version
G90 ; use absolute coordinates
M83 ; extruder relative mode
M104 S215 ; set extruder temp
M140 S60 ; set bed temp
M190 S60 ; wait for bed temp
M109 S215 ; wait for extruder temp
G28 W ; home all without mesh bed level
G80 X84.451 Y72.4208 W84.245 H64.9504 ; mesh bed levelling

G1 Z0.2 F720
G1 Y-3 F1000 ; go outside print area
G92 E0
G1 X60 E9 F1000 ; intro line
G1 X100 E12.5 F1000 ; intro line

G92 E0
M221 S95

; Don't change E values below. Excessive value can damage the printer.
M907 E430 ; set extruder motor current
G21 ; set units to millimeters
G90 ; use absolute coordinates
M83 ; use relative distances for extrusion

M900 K0.05 ; Filament gcode LA 1.5
M900 K30 ; Filament gcode LA 1.0




M107
;LAYER_CHANGE
;Z:0.2
;HEIGHT:0.2
G1 E-.8 F2100
G1 Z.6 F720
G1 X101.998 Y75.848 F10800
G1 Z.2 F720
G1 E.8 F2100
M204 S800
;TYPE:Skirt/Brim
;WIDTH:0.42
G1 F1200
G1 X103.154 Y74.783 E.04928
G1 X104.545 Y74.054 E.04924
G1 X105.802 Y73.729 E.04071
G1 X114.29 Y72.609 E.26844
G1 X127.098 Y72.609 E.40159
G1 X128.338 Y72.994 E.04071
G1 X165.252 Y98.372 E1.40455
G1 X165.969 Y99.197 E.03427
M73 P0 R41
G1 X168.276 Y103.811 E.16174
G1 X168.507 Y104.79 E.03154
G1 X168.507 Y122.212 E.54625
G1 X168.276 Y123.191 E.03154
G1 X165.969 Y127.805 E.16174
G1 X164.704 Y128.903 E.05252
G1 X157.353 Y131.306 E.24249
G1 X108.829 Y137.167 E1.53249
G1 X94.724 Y137.183 E.44225
G1 X93.476 Y136.792 E.04101
G1 X92.963 Y136.294 E.02242
G1 X87.749 Y129.23 E.27529
G1 X86.492 Y127.143 E.07639
G1 X85.603 Y125.08 E.07043
G1 X84.997 Y122.924 E.07022
G1 X84.676 Y120.701 E.07042
G1 X84.639 Y118.745 E.06134
G1 X84.719 Y117.363 E.0434
G1 X85.185 Y114.963 E.07666
G1 X85.782 Y113.151 E.05982
G1 X101.156 Y77.172 E1.22677
G1 X101.966 Y75.899 E.04731
M204 S1000
;WIPE_START
G1 F8640
G1 X101.998 Y75.848 E-.0139
G1 X103.154 Y74.783 E-.36293
G1 X104.545 Y74.054 E-.36262
G1 X104.799 Y73.988 E-.06055
;WIPE_END
G1 Z.6 F720
; printing object robot_painter_02-Gripper_Assembly-gen-pt2.STL id:0 copy 0
G1 X160.741 Y123.883 F10800
G1 Z.2 F720
G1 E.8 F2100
M204 S800
;TYPE:Support material interface
;WIDTH:0.35
G1 F1200
G1 X161.068 Y123.883 E.00835
G1 X161.068 Y121.576 E.05891
G1 X160.588 Y121.576 E.01226
G1 X160.588 Y123.883 E.05891
G1 X160.081 Y123.883 E.01295
G1 X160.081 Y121.576 E.05891
G1 X159.927 Y121.576 E.00393
G1 X159.976 Y121.876 E.00776
M204 S1000
G1 X159.835 Y122.109 F10800
M204 S800
G1 F1200
G1 X159.574 Y122.208 E.00713
G1 X159.574 Y123.883 E.04277
G1 X159.067 Y123.883 E.01295
G1 X159.067 Y122.236 E.04205
G1 X158.761 Y122.199 E.00787
G1 X158.761 Y123.883 E.043
G1 X158.559 Y123.883 E.00516
G1 X158.559 Y126.19 E.05891
G1 X158.052 Y126.19 E.01295
G1 X158.052 Y123.883 E.05891
G1 X157.545 Y123.883 E.01295
G1 X157.545 Y126.19 E.05891
G1 X157.038 Y126.19 E.01295
G1 X157.038 Y124.669 E.03884
G1 X156.531 Y124.661 E.01295
G1 X156.531 Y126.19 E.03904
M204 S1000
;WIPE_START
G1 F8640
G1 X156.531 Y124.661 E-.35305
G1 X157.038 Y124.669 E-.11708
G1 X157.038 Y126.098 E-.32987
;WIPE_END
G1 Z.6 F720
G1 X154.936 Y123.306 F10800
G1 Z.2 F720
G1 E.8 F2100
M204 S800
;TYPE:Support material
;WIDTH:0.42
G1 F1200
G1 X155.48 Y123.911 E.02551
G1 X156.091 Y124.267 E.02217
G1 X156.091 Y126.554 E.07171
G1 X157.676 Y126.554 E.0497
G1 X157.595 Y126.826 E.0089
G1 X157.091 Y126.826 E.0158
G1 X157.091 Y129.133 E.07233
G1 X151.495 Y129.133 E.17546
G1 X150.931 Y126.964 E.07027
G1 X151.513 Y126.878 E.01845
G1 X153.151 Y126.422 E.05331
G1 X153.727 Y126.181 E.01958
G1 X153.934 Y125.722 E.01579
G1 X154.04 Y125.223 E.01599
G1 X154.047 Y124.686 E.01684
G1 X153.946 Y124.109 E.01837
G1 X153.677 Y123.513 E.0205
G1 X154.716 Y122.962 E.03687
G1 X154.905 Y123.258 E.01101
M204 S1000
G1 X156.645 Y128.964 F10800
M204 S800
G1 F1200
G1 X156.645 Y126.893 E.06493
G1 X156.226 Y126.893 E.01314
G1 X156.226 Y128.794 E.0596
G1 X155.807 Y128.794 E.01314
G1 X155.751 Y124.491 E.13493
G1 X155.388 Y124.26 E.01349
G1 X155.388 Y128.794 E.14216
G1 X154.969 Y128.794 E.01314
G1 X154.969 Y123.905 E.15329
G1 X154.604 Y123.417 E.01911
G1 X154.55 Y123.448 E.00195
G1 X154.55 Y128.794 E.16762
G1 X154.131 Y128.794 E.01314
G1 X154.131 Y126.178 E.08202
G1 X153.977 Y126.417 E.00891
G1 X153.712 Y126.598 E.01006
M73 Q1 S42
G1 X153.712 Y128.794 E.06885
G1 X153.293 Y128.794 E.01314
G1 X153.293 Y126.733 E.06462
M73 P1 R41
G1 X152.874 Y126.852 E.01366
G1 X152.874 Y128.794 E.06089
G1 X152.455 Y128.794 E.01314
G1 X152.455 Y126.968 E.05725
G1 X152.036 Y127.085 E.01364
G1 X152.036 Y128.794 E.05358
G1 X151.757 Y128.794 E.00875
G1 X151.617 Y128.255 E.01746
G1 X151.617 Y127.026 E.03853
M204 S1000
;WIPE_START
G1 F8640
G1 X151.617 Y128.255 E-.28378
G1 X151.757 Y128.794 E-.12859
G1 X152.036 Y128.794 E-.06442
G1 X152.036 Y127.394 E-.32321
;WIPE_END
G1 Z.6 F720
G1 X154.131 Y124.145 F10800
G1 Z.2 F720
G1 E.8 F2100
M204 S800
G1 F1200
G1 X154.131 Y123.478 E.02091
M204 S1000
;WIPE_START
G1 F8640
G1 X154.131 Y124.145 E-.15401
;WIPE_END
G1 E-.64599 F2100
G1 Z.6 F720
G1 X157.474 Y121.334 F10800
G1 Z.2 F720
G1 E.8 F2100
M204 S800
G1 F1200
G1 X157.722 Y121.553 E.01037
G1 X158.398 Y121.862 E.0233
G1 X158.398 Y123.519 E.05195
G1 X157.059 Y123.519 E.04198
G1 X156.921 Y122.905 E.01973
G1 X156.71 Y122.417 E.01667
G1 X156.252 Y121.84 E.0231
G1 X157.162 Y121.044 E.03791
G1 X157.432 Y121.296 E.01158
M204 S1000
G1 X157.902 Y123.35 F10800
M204 S800
G1 F1200
G1 X157.902 Y122.032 E.04132
G1 X157.483 Y121.799 E.01503
G1 X157.483 Y123.18 E.0433
G1 X157.338 Y123.18 E.00455
G1 X157.064 Y122.378 E.02657
G1 X157.064 Y121.376 E.03142
M204 S1000
;WIPE_START
G1 F8640
G1 X157.064 Y122.378 E-.23136
G1 X157.338 Y123.18 E-.19569
G1 X157.483 Y123.18 E-.03348
G1 X157.483 Y121.799 E-.31888
G1 X157.561 Y121.842 E-.02059
;WIPE_END
G1 Z.6 F720
G1 X161.46 Y119.185 F10800
G1 Z.2 F720
G1 E.8 F2100
M204 S800
;TYPE:Support material interface
;WIDTH:0.35
G1 F1200
G1 X161.109 Y119.269 E.00922
G1 X161.602 Y119.269 E.01259
G1 X161.602 Y119.127 E.00363
G1 X161.856 Y119.023 E.00701
G1 X161.906 Y118.885 E.00375
M204 S1000
G1 X161.587 Y118.698 F10800
M204 S800
;TYPE:Support material
;WIDTH:0.42
G1 F1200
G1 X161.559 Y118.741 E.00161
M204 S1000
;WIPE_START
G1 F8640
G1 X161.587 Y118.698 E-.01185
;WIPE_END
G1 E-.78815 F2100
G1 Z.6 F720
G1 X161.095 Y116.136 F10800
G1 Z.2 F720
G1 E.8 F2100
M204 S800
;TYPE:Support material interface
;WIDTH:0.35
G1 F1200
G1 X161.095 Y117.258 E.02865
G1 X161.602 Y117.87 E.02029
G1 X161.602 Y116.112 E.04489
G1 X162.109 Y116.005 E.01323
G1 X162.109 Y119.269 E.08334
G1 X162.616 Y119.269 E.01295
G1 X162.616 Y115.797 E.08865
G1 X162.879 Y115.611 E.00823
M204 S1000
G1 X162.743 Y115.258 F10800
M204 S800
;TYPE:Support material
;WIDTH:0.42
G1 F1200
G1 X162.747 Y115.21 E.00151
M204 S1000
G1 X163.123 Y115.116 F10800
M204 S800
;TYPE:Support material interface
;WIDTH:0.35
G1 F1200
G1 X163.123 Y119.269 E.10604
G1 X163.375 Y119.269 E.00643
G1 X163.375 Y114.655 E.11781
G1 X163.123 Y114.655 E.00643
G1 X163.123 Y115.079 E.01083
G1 X162.812 Y114.655 E.01343
G1 X162.97 Y114.655 E.00403
M204 S1000
;WIPE_START
G1 F8640
G1 X162.812 Y114.655 E-.03648
G1 X163.123 Y115.079 E-.12142
G1 X163.123 Y114.655 E-.0979
G1 X163.375 Y114.655 E-.05819
G1 X163.375 Y116.76 E-.48601
;WIPE_END
G1 Z.6 F720
G1 X162.97 Y112.347 F10800
M73 Q1 S41
G1 Z.2 F720
G1 E.8 F2100
M204 S800
G1 F1200
G1 X162.772 Y112.347 E.00506
G1 X163.123 Y112.053 E.01169
G1 X163.123 Y112.347 E.00751
G1 X163.375 Y112.347 E.00643
G1 X163.375 Y111.761 E.01496
G1 X163.224 Y111.936 E.0059
M204 S1000
G1 X163.04 Y111.538 F10800
M204 S800
;TYPE:Support material
;WIDTH:0.42
G1 F1200
G1 X163.028 Y111.578 E.00131
M204 S1000
G1 X163.241 Y111.232 F10800
M204 S800
;TYPE:Support material interface
;WIDTH:0.35
G1 F1200
G1 X163.375 Y111.345 E.00448
G1 X163.375 Y107.733 E.09223
G1 X163.123 Y107.733 E.00643
G1 X163.123 Y111.134 E.08684
G1 X162.616 Y110.8 E.0155
G1 X162.616 Y108.291 E.06406
G1 X162.762 Y107.969 E.00903
G1 X162.662 Y107.733 E.00654
M204 S1000
G1 X162.344 Y107.916 F10800
M204 S800
;TYPE:Support material
;WIDTH:0.42
G1 F1200
G1 X162.353 Y107.966 E.00159
M204 S1000
G1 X162.549 Y108.428 F10800
M204 S800
;TYPE:Support material interface
;WIDTH:0.35
G1 F1200
G1 X162.109 Y108.99 E.01822
G1 X162.109 Y110.586 E.04075
G1 X161.602 Y110.47 E.01328
G1 X161.602 Y109.378 E.02788
G1 X161.095 Y109.635 E.01451
G1 X161.095 Y110.443 E.02063
M204 S1000
G1 X160.705 Y110.764 F10800
M204 S800
;TYPE:Support material
;WIDTH:0.42
G1 F1200
G1 X160.61 Y110.775 E.003
G1 X160.4 Y109.56 E.03866
G1 X160.705 Y109.481 E.00988
G1 X160.705 Y110.708 E.03847
M204 S1000
;WIPE_START
G1 F8640
G1 X160.705 Y109.481 E-.28332
G1 X160.4 Y109.56 E-.07275
G1 X160.61 Y110.775 E-.28471
G1 X160.705 Y110.764 E-.02208
;WIPE_END
G1 E-.13714 F2100
G1 Z.6 F720
G1 X160.69 Y115.824 F10800
G1 Z.2 F720
G1 E.8 F2100
M204 S800
G1 F1200
G1 X160.705 Y117.29 E.04597
G1 X159.855 Y116.871 E.02971
G1 X160.253 Y115.714 E.03836
G1 X160.635 Y115.81 E.01235
M204 S1000
;WIPE_START
G1 F8640
G1 X160.253 Y115.714 E-.09095
G1 X159.855 Y116.871 E-.28252
G1 X160.705 Y117.29 E-.21882
G1 X160.696 Y116.391 E-.20771
;WIPE_END
G1 Z.6 F720
G1 X160.997 Y105.426 F10800
G1 Z.2 F720
G1 E.8 F2100
M204 S800
;TYPE:Support material interface
;WIDTH:0.35
G1 F1200
G1 X161.068 Y105.426 E.00181
G1 X161.068 Y105.2 E.00577
G1 X160.968 Y105.415 E.00605
M204 S1000
G1 X160.804 Y104.575 F10800
M204 S800
;TYPE:Support material
;WIDTH:0.42
G1 F1200
G1 X160.824 Y104.621 E.00157
M204 S1000
G1 X160.734 Y104.196 F10800
M204 S800
;TYPE:Support material interface
;WIDTH:0.35
G1 F1200
G1 X160.995 Y104.227 E.00671
G1 X161.068 Y104.322 E.00306
G1 X161.068 Y103.119 E.03072
G1 X160.588 Y103.119 E.01226
G1 X160.588 Y104.148 E.02627
G1 X160.081 Y104.118 E.01297
G1 X160.081 Y103.119 E.02551
G1 X159.574 Y103.119 E.01295
G1 X159.574 Y104.174 E.02694
G1 X159.067 Y104.316 E.01344
G1 X159.067 Y103.119 E.03056
G1 X158.761 Y103.119 E.00781
G1 X158.761 Y102.884 E.006
G1 X158.666 Y103.119 E.00647
G1 X158.761 Y103.119 E.00243
G1 X158.761 Y104.438 E.03368
G1 X158.922 Y104.369 E.00447
M204 S1000
;WIPE_START
G1 F8640
G1 X158.761 Y104.438 E-.04045
G1 X158.761 Y103.119 E-.30456
G1 X158.666 Y103.119 E-.02194
G1 X158.761 Y102.884 E-.05853
G1 X158.761 Y103.119 E-.05426
G1 X159.067 Y103.119 E-.07066
G1 X159.067 Y104.2 E-.2496
;WIPE_END
G1 Z.6 F720
G1 X158.398 Y103.483 F10800
G1 Z.2 F720
G1 E.8 F2100
M204 S800
;TYPE:Support material
;WIDTH:0.42
G1 F1200
G1 X158.398 Y104.801 E.04132
G1 X158.709 Y104.801 E.00975
G1 X158.339 Y105.065 E.01425
G1 X157.58 Y104.112 E.0382
G1 X158.191 Y103.483 E.02749
G1 X158.341 Y103.483 E.0047
M204 S1000
G1 X158.545 Y101.735 F10800
M204 S800
G1 F1200
G1 X158.502 Y101.701 E.00172
M204 S1000
G1 X158.694 Y101.378 F10800
M204 S800
;TYPE:Support material interface
;WIDTH:0.35
G1 F1200
G1 X158.761 Y101.44 E.00233
G1 X158.761 Y100.812 E.01604
G1 X158.559 Y100.812 E.00516
G1 X158.559 Y101.334 E.01333
G1 X158.052 Y101.373 E.01298
G1 X158.052 Y100.812 E.01432
G1 X157.545 Y100.812 E.01295
G1 X157.545 Y101.486 E.01721
G1 X157.038 Y101.707 E.01412
G1 X157.038 Y100.812 E.02285
G1 X156.531 Y100.812 E.01295
G1 X156.531 Y102.042 E.03141
M204 S1000
;WIPE_START
G1 F8640
G1 X156.531 Y100.812 E-.28401
G1 X157.038 Y100.812 E-.11707
G1 X157.038 Y101.707 E-.20666
G1 X157.545 Y101.486 E-.12771
G1 X157.545 Y101.206 E-.06455
;WIPE_END
G1 Z.6 F720
G1 X159.091 Y100.176 F10800
G1 Z.2 F720
G1 E.8 F2100
M204 S800
;TYPE:Support material
;WIDTH:0.42
G1 F1200
G1 X164.012 Y100.176 E.15429
G1 X164.012 Y104.79 E.14467
G1 X166.319 Y104.79 E.07233
G1 X166.319 Y122.212 E.54625
G1 X164.012 Y122.212 E.07233
G1 X164.012 Y126.826 E.14467
G1 X158.432 Y126.826 E.17496
G1 X158.432 Y126.554 E.00853
G1 X159.125 Y126.554 E.02173
G1 X159.125 Y124.247 E.07233
G1 X161.432 Y124.247 E.07233
G1 X161.432 Y121.212 E.09516
G1 X159.64 Y121.212 E.05619
G1 X159.25 Y120.408 E.02802
G1 X158.901 Y119.979 E.01734
G1 X158.373 Y119.589 E.02058
G1 X159.041 Y118.572 E.03815
G1 X159.721 Y118.93 E.0241
G1 X160.705 Y119.075 E.03119
G1 X160.705 Y119.632 E.01746
G1 X163.739 Y119.632 E.09513
G1 X163.739 Y114.291 E.16746
G1 X161.98 Y114.291 E.05515
G1 X161.336 Y113.977 E.02246
G1 X160.617 Y113.871 E.02279
G1 X160.714 Y112.662 E.03803
G1 X161.451 Y112.655 E.02311
G1 X161.995 Y112.503 E.01771
G1 X162.041 Y112.711 E.00668
G1 X163.739 Y112.711 E.05324
G1 X163.739 Y107.37 E.16746
G1 X162.003 Y107.37 E.05443
G1 X161.937 Y107.596 E.00738
G1 X161.045 Y107.474 E.02823
G1 X160.518 Y107.523 E.01659
G1 X159.835 Y107.777 E.02285
G1 X159.329 Y106.651 E.03871
G1 X160 Y106.266 E.02426
G1 X160.45 Y105.79 E.02054
G1 X161.432 Y105.79 E.03079
G1 X161.432 Y102.756 E.09513
G1 X159.125 Y102.756 E.07233
G1 X159.125 Y100.448 E.07237
G1 X156.091 Y100.448 E.09513
G1 X156.091 Y102.706 E.0708
G1 X155.247 Y102.066 E.03321
G1 X155.637 Y101.422 E.02361
G1 X155.838 Y100.558 E.02781
G1 X155.819 Y99.939 E.01942
G1 X155.646 Y99.468 E.01573
G1 X154.926 Y99.011 E.02674
G1 X153.569 Y98.463 E.04589
G1 X153.695 Y97.869 E.01904
G1 X159.091 Y97.869 E.16919
G1 X159.091 Y100.119 E.07055
M204 S1000
;WIPE_START
G1 F8640
G1 X159.091 Y97.869 E-.51953
G1 X157.876 Y97.869 E-.28047
;WIPE_END
G1 Z.6 F720
G1 X165.862 Y122.042 F10800
G1 Z.2 F720
G1 E.8 F2100
M204 S800
G1 F1200
G1 X165.862 Y105.129 E.5303
G1 X165.443 Y105.129 E.01314
G1 X165.443 Y121.873 E.525
G1 X165.024 Y121.873 E.01314
G1 X165.024 Y105.129 E.525
G1 X164.605 Y105.129 E.01314
G1 X164.605 Y121.873 E.525
G1 X164.186 Y121.873 E.01314
G1 X164.186 Y105.129 E.525
G1 X163.767 Y105.129 E.01314
G1 X163.767 Y107.03 E.0596
G1 X163.348 Y107.03 E.01314
G1 X163.348 Y100.515 E.20427
G1 X162.929 Y100.515 E.01314
G1 X162.929 Y107.03 E.20427
G1 X162.51 Y107.03 E.01314
G1 X162.51 Y100.515 E.20427
G1 X162.091 Y100.515 E.01314
G1 X162.091 Y107.03 E.20427
G1 X161.749 Y107.03 E.01072
G1 X161.672 Y107.19 E.00557
G1 X161.672 Y100.515 E.20929
G1 X161.253 Y100.515 E.01314
G1 X161.253 Y102.416 E.0596
G1 X160.834 Y102.416 E.01314
G1 X160.834 Y100.515 E.0596
G1 X160.415 Y100.515 E.01314
G1 X160.415 Y102.416 E.0596
G1 X159.997 Y102.416 E.01311
G1 X159.997 Y100.515 E.0596
G1 X159.578 Y100.515 E.01314
G1 X159.578 Y102.586 E.06493
M204 S1000
;WIPE_START
G1 F8640
G1 X159.578 Y100.515 E-.4782
G1 X159.997 Y100.515 E-.09675
G1 X159.997 Y101.49 E-.22505
;WIPE_END
G1 Z.6 F720
G1 X163.767 Y126.657 F10800
G1 Z.2 F720
G1 E.8 F2100
M204 S800
G1 F1200
G1 X163.767 Y119.972 E.2096
G1 X163.348 Y119.972 E.01314
G1 X163.348 Y126.487 E.20427
G1 X162.929 Y126.487 E.01314
M73 Q2 S41
G1 X162.929 Y119.972 E.20427
M73 P2 R41
G1 X162.51 Y119.972 E.01314
G1 X162.51 Y126.487 E.20427
G1 X162.091 Y126.487 E.01314
G1 X162.091 Y119.972 E.20427
G1 X161.672 Y119.972 E.01314
G1 X161.672 Y126.487 E.20427
G1 X161.253 Y126.487 E.01314
G1 X161.253 Y124.586 E.0596
