; generated by PrusaSlicer 2.9.2 on 2025-04-29 at 14:43:47 UTC


;
;
; 

; external perimeters extrusion width = 0.45mm
; perimeters extrusion width = 0.45mm
; infill extrusion width = 0.45mm
; solid infill extrusion width = 0.45mm
; top infill extrusion width = 0.40mm
; support material extrusion width = 0.35mm
; first layer extrusion width = 0.42mm

; external perimeters extrusion width = 0.45mm
; perimeters extrusion width = 0.45mm
; infill extrusion width = 0.45mm
; solid infill extrusion width = 0.45mm
; top infill extrusion width = 0.40mm
; support material extrusion width = 0.35mm
; first layer extrusion width = 0.42mm

M73 P0 R107
M73 Q0 S108
M201 X1000 Y1000 Z200 E5000 ; sets maximum accelerations, mm/sec^2
M203 X200 Y200 Z12 E120 ; sets maximum feedrates, mm / sec
M204 S1250 T1250 ; sets acceleration (S) and retract acceleration (R), mm/sec^2
M205 X8.00 Y8.00 Z0.40 E4.50 ; sets the jerk limits, mm/sec
M205 S0 T0 ; sets the minimum extruding and travel feed rate, mm/sec

; printing object robot_painter_02-Gripper_Assembly-finger_pt1.STL id:1 copy 0
; stop printing object robot_painter_02-Gripper_Assembly-finger_pt1.STL id:1 copy 0
; printing object robot_painter_02-Gripper_Assembly-finger_pt2.STL id:0 copy 0
; stop printing object robot_painter_02-Gripper_Assembly-finger_pt2.STL id:0 copy 0

;TYPE:Custom
M862.3 P "MK3S" ; printer model check
M862.1 P0.4 ; nozzle diameter check
M115 U3.14.1 ; tell printer latest fw version
G90 ; use absolute coordinates
M83 ; extruder relative mode
M104 S215 ; set extruder temp
M140 S60 ; set bed temp
M190 S60 ; wait for bed temp
M109 S215 ; wait for extruder temp
G28 W ; home all without mesh bed level
G80 X79.6808 Y62.4568 W85.7582 H84.7213 ; mesh bed levelling

G1 Z0.2 F720
G1 Y-3 F1000 ; go outside print area
G92 E0
G1 X60 E9 F1000 ; intro line
G1 X100 E12.5 F1000 ; intro line

G92 E0
M221 S95

; Don't change E values below. Excessive value can damage the printer.
M907 E430 ; set extruder motor current
G21 ; set units to millimeters
G90 ; use absolute coordinates
M83 ; use relative distances for extrusion

M900 K0.05 ; Filament gcode LA 1.5
M900 K30 ; Filament gcode LA 1.0




M107
;LAYER_CHANGE
;Z:0.2
;HEIGHT:0.2
G1 E-.8 F2100
M73 P0 R106
M73 Q0 S107
G1 Z.6 F720
G1 X80.26 Y65.893 F10800
G1 Z.2 F720
G1 E.8 F2100
M204 S800
;TYPE:Skirt/Brim
;WIDTH:0.42
G1 F1200
G1 X81.079 Y65.183 E.03399
G1 X85.693 Y62.876 E.16174
G1 X86.672 Y62.645 E.03154
G1 X99.489 Y62.645 E.40187
G1 X160.764 Y62.899 E1.92125
G1 X162.302 Y63.54 E.05224
G1 X164.609 Y65.847 E.1023
G1 X165.25 Y67.395 E.05253
G1 X165.25 Y84.817 E.54625
G1 X165.191 Y85.324 E.016
G1 X153.656 Y133.773 E1.56155
G1 X153.484 Y134.244 E.01572
G1 X151.04 Y139.094 E.17028
G1 X146.426 Y146.015 E.26081
G1 X145.409 Y146.837 E.041
G1 X144.605 Y146.99 E.02566
G1 X134.104 Y146.99 E.32925
G1 X100.498 Y146.736 E1.05372
G1 X99.253 Y146.335 E.04101
G1 X98.694 Y145.761 E.02512
G1 X93.943 Y138.605 E.26932
G1 X91.636 Y133.991 E.16174
G1 X91.464 Y133.519 E.01575
G1 X79.929 Y85.07 E1.56155
G1 X79.869 Y84.563 E.01601
G1 X79.869 Y67.141 E.54625
G1 X80.242 Y65.95 E.03913
M204 S1000
;WIPE_START
G1 F8640
G1 X80.26 Y65.893 E-.0138
G1 X81.079 Y65.183 E-.25028
G1 X83.155 Y64.145 E-.53592
;WIPE_END
G1 Z.6 F720
; printing object robot_painter_02-Gripper_Assembly-finger_pt2.STL id:0 copy 0
G1 X100.24 Y107.574 F10800
G1 Z.2 F720
G1 E.8 F2100
M204 S800
;TYPE:Support material interface
;WIDTH:0.35
G1 F1200
G1 X100.381 Y108.571 E.02571
G1 X100.528 Y111.638 E.0784
G1 X100.383 Y114.708 E.07848
M204 S1000
;WIPE_START
G1 F8640
G1 X100.528 Y111.638 E-.70966
G1 X100.509 Y111.247 E-.09034
;WIPE_END
G1 Z.6 F720
G1 X99.825 Y118.273 F10800
G1 Z.2 F720
G1 E.8 F2100
M204 S800
G1 F1200
G1 X100.086 Y116.788 E.0385
G1 X100.086 Y106.489 E.26297
G1 X99.825 Y104.982 E.03905
M204 S1000
;WIPE_START
G1 F8640
G1 X100.086 Y106.489 E-.35315
G1 X100.086 Y108.424 E-.44685
;WIPE_END
G1 Z.6 F720
G1 X99.318 Y102.804 F10800
G1 Z.2 F720
G1 E.8 F2100
M204 S800
G1 F1200
G1 X99.579 Y103.925 E.02939
G1 X99.579 Y119.295 E.39245
G1 X99.318 Y120.383 E.02857
M204 S1000
M204 S800
G1 X99.23 Y120.748 E.00959
M204 S1000
;WIPE_START
G1 F8640
G1 X99.318 Y120.383 E-.08669
;WIPE_END
G1 E-.71331 F2100
G1 Z.6 F720
G1 X98.811 Y121.822 F10800
G1 Z.2 F720
G1 E.8 F2100
M204 S800
G1 F1200
G1 X99.072 Y121.152 E.01836
G1 X99.072 Y101.96 E.49004
G1 X98.811 Y101.152 E.02168
M204 S1000
G1 X98.565 Y100.391 F10800
M204 S800
G1 F1200
G1 X98.565 Y104.691 E.1098
G1 X98.058 Y104.691 E.01295
G1 X98.058 Y99.01 E.14506
G1 X97.797 Y98.523 E.01411
M204 S1000
G1 X98.143 Y98.108 F10800
M204 S800
;TYPE:Support material
;WIDTH:0.42
G1 F1200
G1 X98.664 Y98.443 E.01942
G1 X98.514 Y98.594 E.00667
G1 X98.813 Y99.303 E.02413
G1 X99.017 Y99.54 E.0098
G1 X99.723 Y101.713 E.07164
G1 X99.473 Y102.017 E.01234
G1 X98.492 Y99.039 E.09831
G1 X98.004 Y98.105 E.03304
G1 X98.105 Y98.067 E.00338
M204 S1000
G1 X97.551 Y97.977 F10800
M204 S800
;TYPE:Support material interface
;WIDTH:0.35
G1 F1200
G1 X97.551 Y104.691 E.17143
G1 X97.044 Y104.691 E.01295
G1 X97.044 Y96.318 E.21379
G1 X96.837 Y96.353 E.00536
G1 X96.782 Y96.224 E.00358
M204 S1000
;WIPE_START
G1 F8640
G1 X96.837 Y96.353 E-.03238
G1 X97.044 Y96.318 E-.04848
G1 X97.044 Y99.432 E-.71914
;WIPE_END
G1 Z.6 F720
G1 X96.275 Y95.057 F10800
G1 Z.2 F720
G1 E.8 F2100
M204 S800
G1 F1200
G1 X96.537 Y95.65 E.01655
G1 X96.537 Y104.691 E.23085
G1 X96.89 Y104.691 E.00901
M204 S1000
;WIPE_START
G1 F8640
G1 X96.537 Y104.691 E-.08151
G1 X96.537 Y101.579 E-.71849
;WIPE_END
G1 Z.6 F720
G1 X99.919 Y102.324 F10800
G1 Z.2 F720
G1 E.8 F2100
M204 S800
;TYPE:Support material
;WIDTH:0.42
G1 F1200
G1 X100.628 Y105.382 E.09842
G1 X101.016 Y108.092 E.08584
G1 X101.214 Y111.628 E.11104
G1 X101.059 Y114.836 E.1007
G1 X100.623 Y117.9 E.09704
G1 X99.894 Y120.92 E.09741
G1 X99.776 Y121.169 E.00864
G1 X99.456 Y121.169 E.01003
G1 X100.305 Y117.832 E.10796
G1 X100.746 Y114.743 E.09784
G1 X100.892 Y111.638 E.09746
G1 X100.743 Y108.536 E.09737
G1 X100.305 Y105.44 E.09804
G1 X99.485 Y102.054 E.10923
G1 X99.833 Y102.054 E.01091
G1 X99.902 Y102.27 E.00711
M204 S1000
;WIPE_START
G1 F8640
G1 X99.833 Y102.054 E-.05236
G1 X99.485 Y102.054 E-.08035
G1 X100.165 Y104.863 E-.66729
;WIPE_END
G1 Z.6 F720
G1 X98.699 Y98.045 F10800
G1 Z.2 F720
G1 E.8 F2100
M204 S800
;TYPE:Support material interface
;WIDTH:0.35
G1 F1200
G1 X98.844 Y98.127 E.00425
G1 X98.844 Y93.786 E.11084
G1 X98.565 Y93.925 E.00796
G1 X98.565 Y97.969 E.10326
G1 X98.149 Y97.576 E.01461
G1 X98.058 Y97.636 E.00278
G1 X98.058 Y94.395 E.08275
G1 X97.798 Y94.768 E.01161
G1 X97.551 Y95.515 E.02009
G1 X97.551 Y97.967 E.06261
M204 S1000
;WIPE_START
G1 F8640
G1 X97.551 Y95.515 E-.56617
G1 X97.798 Y94.768 E-.18167
G1 X97.927 Y94.583 E-.05216
;WIPE_END
G1 Z.6 F720
G1 X96.03 Y94.514 F10800
G1 Z.2 F720
G1 E.8 F2100
M204 S800
G1 F1200
G1 X96.03 Y97.769 E.08311
G1 X95.523 Y97.769 E.01295
G1 X95.523 Y93.496 E.10911
G1 X95.015 Y92.612 E.02603
G1 X95.015 Y97.769 E.13168
G1 X94.508 Y97.769 E.01295
G1 X94.508 Y91.729 E.15422
G1 X94.001 Y90.879 E.02527
G1 X94.001 Y93.155 E.05811
G1 X93.494 Y93.155 E.01295
G1 X93.494 Y90.094 E.07816
G1 X92.987 Y89.309 E.02386
G1 X92.987 Y93.155 E.0982
G1 X92.48 Y93.155 E.01295
G1 X92.48 Y88.523 E.11827
G1 X91.973 Y87.776 E.02305
G1 X91.973 Y93.155 E.13735
M204 S1000
;WIPE_START
G1 F8640
G1 X91.973 Y89.69 E-.8
;WIPE_END
G1 Z.6 F720
G1 X93.885 Y89.439 F10800
G1 Z.2 F720
G1 E.8 F2100
M204 S800
;TYPE:Support material
;WIDTH:0.42
G1 F1200
G1 X94.697 Y90.682 E.04655
G1 X96.329 Y93.515 E.10251
G1 X96.596 Y94.324 E.02671
G1 X97.081 Y95.234 E.03233
G1 X97.242 Y95.224 E.00506
G1 X97.152 Y95.932 E.02238
G1 X97.059 Y95.947 E.00295
G1 X96.066 Y93.713 E.07665
G1 X94.488 Y90.963 E.09941
G1 X92.71 Y88.212 E.1027
G1 X93.091 Y88.212 E.01195
G1 X93.854 Y89.392 E.04406
M204 S1000
;WIPE_START
G1 F8640
G1 X93.091 Y88.212 E-.32446
G1 X92.71 Y88.212 E-.08797
G1 X93.621 Y89.622 E-.38757
;WIPE_END
G1 Z.6 F720
G1 X91.886 Y87.649 F10800
G1 Z.2 F720
G1 E.8 F2100
M204 S800
;TYPE:Support material interface
;WIDTH:0.35
G1 F1200
G1 X91.466 Y87.033 E.01904
G1 X91.466 Y90.848 E.09741
G1 X90.959 Y90.848 E.01295
G1 X90.959 Y86.29 E.11638
G1 X90.452 Y85.546 E.02299
G1 X90.452 Y90.848 E.13538
G1 X89.945 Y90.848 E.01295
G1 X89.945 Y84.803 E.15435
G1 X89.438 Y84.06 E.02297
G1 X89.438 Y86.234 E.05551
G1 X88.931 Y86.234 E.01295
G1 X88.931 Y83.317 E.07448
G1 X88.423 Y82.573 E.023
G1 X88.423 Y86.234 E.09348
G1 X87.916 Y86.234 E.01295
G1 X87.916 Y81.632 E.11751
G1 X87.654 Y81.128 E.0145
M204 S1000
G1 X87.308 Y80.924 F10800
M204 S800
G1 F1200
G1 X87.308 Y80.394 E.01353
G1 X87.409 Y80.626 E.00646
G1 X87.409 Y86.234 E.14319
G1 X87.763 Y86.234 E.00904
M204 S1000
;WIPE_START
G1 F8640
G1 X87.409 Y86.234 E-.08174
G1 X87.409 Y83.123 E-.71826
;WIPE_END
G1 Z.6 F720
G1 X88.803 Y81.73 F10800
G1 Z.2 F720
G1 E.8 F2100
M204 S800
;TYPE:Support material
;WIDTH:0.42
G1 F1200
G1 X92.252 Y86.928 E.19559
G1 X92.252 Y87.54 E.01919
G1 X88.672 Y82.292 E.19919
G1 X87.504 Y79.932 E.08256
G1 X88.77 Y81.684 E.06777
M204 S1000
;WIPE_START
G1 F8640
G1 X87.504 Y79.932 E-.49911
G1 X88.082 Y81.1 E-.30089
;WIPE_END
G1 Z.6 F720
G1 X94.573 Y74.007 F10800
G1 Z.2 F720
G1 E.8 F2100
M204 S800
G1 F1200
G1 X95.255 Y74.862 E.03429
G1 X95.5 Y75.929 E.03433
G1 X95.255 Y76.995 E.0343
G1 X94.573 Y77.849 E.03427
G1 X93.588 Y78.324 E.03429
G1 X92.494 Y78.324 E.0343
G1 X91.509 Y77.849 E.03429
G1 X90.826 Y76.996 E.03426
G1 X90.582 Y75.929 E.03432
G1 X90.826 Y74.862 E.03432
G1 X91.509 Y74.007 E.03431
G1 X92.494 Y73.532 E.03429
G1 X93.588 Y73.532 E.0343
G1 X94.522 Y73.982 E.03251
M204 S1000
G1 X94.861 Y77.217 F10800
M204 S800
G1 F1200
G1 X94.861 Y74.912 E.07227
G1 X94.442 Y74.387 E.02106
G1 X94.442 Y77.47 E.09667
G1 X94.023 Y77.738 E.01559
G1 X94.023 Y74.118 E.1135
G1 X93.604 Y73.916 E.01458
G1 X93.604 Y77.94 E.12617
G1 X93.185 Y77.985 E.01321
G1 X93.185 Y73.871 E.12899
G1 X92.766 Y73.871 E.01314
G1 X92.766 Y77.985 E.12899
G1 X92.347 Y77.877 E.01357
G1 X92.347 Y73.979 E.12222
G1 X91.928 Y74.181 E.01458
G1 X91.928 Y77.674 E.10952
G1 X91.726 Y77.577 E.00703
G1 X91.509 Y77.306 E.01089
G1 X91.509 Y74.55 E.08641
G1 X91.139 Y75.013 E.01858
G1 X91.09 Y75.229 E.00694
G1 X91.09 Y77.054 E.05722
M204 S1000
;WIPE_START
G1 F8640
G1 X91.09 Y75.229 E-.4214
G1 X91.139 Y75.013 E-.05114
G1 X91.509 Y74.55 E-.13685
G1 X91.509 Y75.376 E-.19061
;WIPE_END
G1 Z.6 F720
G1 X99.48 Y67.141 F10800
G1 Z.2 F720
G1 E.8 F2100
M204 S800
G1 F1200
G1 X101.787 Y67.141 E.07233
G1 X101.787 Y69.448 E.07233
G1 X104.094 Y69.448 E.07233
G1 X104.094 Y76.369 E.217
G1 X106.401 Y76.369 E.07233
G1 X106.401 Y80.983 E.14467
G1 X108.708 Y80.983 E.07233
G1 X108.708 Y83.291 E.07237
G1 X111.016 Y83.291 E.07237
G1 X111.016 Y105.327 E.69092
G1 X106.929 Y105.327 E.12815
G1 X106.929 Y91.667 E.4283
G1 X106.809 Y90.407 E.03969
G1 X106.486 Y89.202 E.03912
G1 X105.992 Y88.098 E.03792
G1 X105.4 Y87.09 E.03665
G1 X102.855 Y83.478 E.13854
G1 X101.696 Y81.7 E.06655
G1 X100.752 Y79.851 E.06509
G1 X100.138 Y77.921 E.0635
G1 X99.98 Y76.938 E.03122
G1 X99.766 Y74.411 E.07952
G1 X99.301 Y73.039 E.04542
G1 X98.528 Y71.752 E.04707
G1 X97.494 Y70.664 E.04706
G1 X96.251 Y69.824 E.04704
G1 X94.801 Y69.261 E.04877
G1 X93.319 Y69.04 E.04698
G1 X91.819 Y69.141 E.04714
G1 X90.379 Y69.566 E.04708
G1 X89.109 Y70.263 E.04542
G1 X87.977 Y71.249 E.04707
G1 X87.085 Y72.456 E.04706
G1 X86.474 Y73.826 E.04703
G1 X86.175 Y75.298 E.0471
G1 X86.201 Y76.796 E.04698
G1 X86.358 Y77.584 E.02519
G1 X87.227 Y79.431 E.064
G1 X86.945 Y79.496 E.00907
G1 X86.945 Y86.598 E.22268
G1 X89.252 Y86.598 E.07233
G1 X89.252 Y91.212 E.14467
G1 X91.559 Y91.212 E.07233
G1 X91.559 Y93.519 E.07233
G1 X93.866 Y93.519 E.07233
G1 X93.866 Y98.133 E.14467
G1 X96.173 Y98.133 E.07233
G1 X96.173 Y105.054 E.217
G1 X98.48 Y105.054 E.07233
G1 X98.48 Y118.169 E.41121
G1 X96.173 Y118.169 E.07233
G1 X96.173 Y121.169 E.09406
G1 X93.593 Y121.169 E.08089
G1 X93.593 Y105.327 E.49671
G1 X91.286 Y105.327 E.07233
G1 X91.286 Y100.713 E.14467
G1 X88.979 Y100.713 E.07233
G1 X88.979 Y96.099 E.14467
G1 X86.672 Y96.099 E.07233
G1 X86.672 Y91.484 E.1447
G1 X84.365 Y91.484 E.07233
G1 X84.365 Y84.563 E.217
G1 X82.058 Y84.563 E.07233
G1 X82.058 Y67.141 E.54625
G1 X86.672 Y67.141 E.14467
G1 X86.672 Y64.834 E.07233
G1 X99.48 Y64.834 E.40159
G1 X99.48 Y67.084 E.07055
M204 S1000
;WIPE_START
G1 F8640
G1 X99.48 Y64.834 E-.51953
G1 X98.265 Y64.834 E-.28047
;WIPE_END
G1 Z.6 F720
G1 X110.363 Y105.157 F10800
G1 Z.2 F720
G1 E.8 F2100
M204 S800
G1 F1200
G1 X110.363 Y83.63 E.67496
G1 X109.944 Y83.63 E.01314
G1 X109.944 Y104.988 E.66967
G1 X109.525 Y104.988 E.01314
G1 X109.525 Y83.63 E.66967
G1 X109.106 Y83.63 E.01314
G1 X109.106 Y104.988 E.66967
G1 X108.687 Y104.988 E.01314
M73 P1 R106
M73 Q1 S107
G1 X108.687 Y83.63 E.66967
G1 X108.369 Y83.63 E.00997
M73 Q1 S106
G1 X108.369 Y81.323 E.07233
G1 X108.268 Y81.323 E.00317
G1 X108.268 Y104.988 E.742
M73 P1 R105
G1 X107.849 Y104.988 E.01314
G1 X107.849 Y81.323 E.742
G1 X107.43 Y81.323 E.01314
G1 X107.43 Y104.988 E.742
G1 X107.269 Y104.988 E.00505
G1 X107.268 Y91.663 E.4178
G1 X107.152 Y90.396 E.03989
G1 X107.011 Y89.846 E.0178
G1 X107.011 Y81.323 E.26723
G1 X106.592 Y81.323 E.01314
G1 X106.592 Y88.608 E.22842
G1 X106.173 Y87.735 E.03036
G1 X106.173 Y81.323 E.20104
G1 X106.062 Y81.323 E.00348
G1 X106.062 Y76.709 E.14467
G1 X105.754 Y76.709 E.00966
G1 X105.754 Y87.021 E.32333
G1 X105.335 Y86.399 E.02351
G1 X105.335 Y76.709 E.30382
G1 X104.916 Y76.709 E.01314
G1 X104.916 Y85.793 E.28482
G1 X104.497 Y85.186 E.02313
G1 X104.497 Y76.709 E.26579
G1 X104.078 Y76.709 E.01314
G1 X104.078 Y84.598 E.24735
G1 X103.659 Y84.015 E.02251
G1 X103.659 Y69.787 E.44611
G1 X103.24 Y69.787 E.01314
G1 X103.24 Y83.433 E.42786
G1 X102.821 Y82.806 E.02364
G1 X102.821 Y69.787 E.4082
G1 X102.402 Y69.787 E.01314
G1 X102.402 Y82.164 E.38807
G1 X101.983 Y81.516 E.02419
G1 X101.983 Y69.787 E.36775
G1 X101.564 Y69.787 E.01314
G1 X101.564 Y80.694 E.34198
G1 X101.145 Y79.874 E.02887
G1 X101.145 Y67.48 E.38861
G1 X100.726 Y67.48 E.01314
G1 X100.726 Y78.801 E.35496
G1 X100.47 Y77.85 E.03088
G1 X100.319 Y76.906 E.02997
G1 X100.307 Y67.48 E.29555
G1 X99.889 Y67.48 E.01311
G1 X99.889 Y73.715 E.19549
G1 X99.47 Y72.651 E.03585
G1 X99.47 Y67.48 E.16213
G1 X99.141 Y67.48 E.01032
G1 X99.141 Y65.173 E.07233
G1 X99.051 Y65.173 E.00282
G1 X99.051 Y71.959 E.21277
G1 X98.632 Y71.361 E.02289
G1 X98.632 Y65.173 E.19402
G1 X98.213 Y65.173 E.01314
G1 X98.213 Y70.924 E.18032
G1 X97.794 Y70.487 E.01898
G1 X97.794 Y65.173 E.16662
G1 X97.375 Y65.173 E.01314
G1 X97.375 Y70.169 E.15665
G1 X96.956 Y69.888 E.01582
G1 X96.956 Y65.173 E.14784
G1 X96.537 Y65.173 E.01314
G1 X96.537 Y69.607 E.13902
G1 X96.118 Y69.402 E.01463
G1 X96.118 Y65.173 E.1326
G1 X95.699 Y65.173 E.01314
G1 X95.699 Y69.239 E.12749
G1 X95.28 Y69.076 E.0141
G1 X95.28 Y65.173 E.12238
G1 X94.861 Y65.173 E.01314
G1 X94.861 Y68.927 E.1177
G1 X94.442 Y68.863 E.01329
G1 X94.442 Y65.173 E.1157
G1 X94.023 Y65.173 E.01314
G1 X94.023 Y68.799 E.11369
G1 X93.604 Y68.734 E.01329
G1 X93.604 Y65.173 E.11165
G1 X93.185 Y65.173 E.01314
G1 X93.185 Y68.708 E.11084
G1 X92.766 Y68.735 E.01316
G1 X92.766 Y65.173 E.11168
G1 X92.347 Y65.173 E.01314
G1 X92.347 Y68.762 E.11253
G1 X91.928 Y68.788 E.01316
G1 X91.928 Y65.173 E.11335
G1 X91.509 Y65.173 E.01314
G1 X91.509 Y68.878 E.11617
G1 X91.09 Y69 E.01368
G1 X91.09 Y65.173 E.11999
G1 X90.671 Y65.173 E.01314
G1 X90.671 Y69.122 E.12382
G1 X90.252 Y69.251 E.01375
G1 X90.252 Y65.173 E.12786
G1 X89.833 Y65.173 E.01314
G1 X89.833 Y69.479 E.13501
G1 X89.414 Y69.709 E.01499
G1 X89.414 Y65.173 E.14222
G1 X88.995 Y65.173 E.01314
G1 X88.995 Y69.939 E.14943
G1 X88.576 Y70.272 E.01678
G1 X88.576 Y65.173 E.15988
G1 X88.157 Y65.173 E.01314
G1 X88.157 Y70.64 E.17141
G1 X87.738 Y71.008 E.01749
G1 X87.738 Y65.173 E.18295
G1 X87.319 Y65.173 E.01314
G1 X87.319 Y71.563 E.20035
G1 X86.9 Y72.134 E.02221
G1 X86.9 Y67.48 E.14592
G1 X86.481 Y67.48 E.01314
G1 X86.481 Y72.97 E.17214
G1 X86.156 Y73.706 E.02523
G1 X86.062 Y74.126 E.01349
G1 X86.062 Y67.48 E.20838
G1 X85.643 Y67.48 E.01314
G1 X85.643 Y91.145 E.742
G1 X86.062 Y91.145 E.01314
