; generated by PrusaSlicer 2.9.2 on 2025-04-17 at 13:55:02 UTC


;
;
; 

; external perimeters extrusion width = 0.45mm
; perimeters extrusion width = 0.45mm
; infill extrusion width = 0.45mm
; solid infill extrusion width = 0.45mm
; top infill extrusion width = 0.40mm
; support material extrusion width = 0.35mm
; first layer extrusion width = 0.42mm

; external perimeters extrusion width = 0.45mm
; perimeters extrusion width = 0.45mm
; infill extrusion width = 0.45mm
; solid infill extrusion width = 0.45mm
; top infill extrusion width = 0.40mm
; support material extrusion width = 0.35mm
; first layer extrusion width = 0.42mm

M73 P0 R132
M73 Q0 S133
M201 X1000 Y1000 Z200 E5000 ; sets maximum accelerations, mm/sec^2
M203 X200 Y200 Z12 E120 ; sets maximum feedrates, mm / sec
M204 S1250 T1250 ; sets acceleration (S) and retract acceleration (R), mm/sec^2
M205 X8.00 Y8.00 Z0.40 E4.50 ; sets the jerk limits, mm/sec
M205 S0 T0 ; sets the minimum extruding and travel feed rate, mm/sec

; printing object robot_painter_02-a1_2_painter-1-solid1.STL id:0 copy 0
; stop printing object robot_painter_02-a1_2_painter-1-solid1.STL id:0 copy 0
; printing object robot_painter_02-a1_painter-1-solid1.STL id:1 copy 0
; stop printing object robot_painter_02-a1_painter-1-solid1.STL id:1 copy 0

;TYPE:Custom
M862.3 P "MK3S" ; printer model check
M862.1 P0.4 ; nozzle diameter check
M115 U3.14.1 ; tell printer latest fw version
G90 ; use absolute coordinates
M83 ; extruder relative mode
M104 S215 ; set extruder temp
M140 S60 ; set bed temp
M190 S60 ; wait for bed temp
M109 S215 ; wait for extruder temp
G28 W ; home all without mesh bed level
G80 X29.9669 Y51.5739 W106.82 H129.136 ; mesh bed levelling

G1 Z0.2 F720
G1 Y-3 F1000 ; go outside print area
G92 E0
G1 X60 E9 F1000 ; intro line
G1 X100 E12.5 F1000 ; intro line

G92 E0
M221 S95

; Don't change E values below. Excessive value can damage the printer.
M907 E430 ; set extruder motor current
G21 ; set units to millimeters
G90 ; use absolute coordinates
M83 ; use relative distances for extrusion

M900 K0.05 ; Filament gcode LA 1.5
M900 K30 ; Filament gcode LA 1.0




M107
;LAYER_CHANGE
;Z:0.2
;HEIGHT:0.2
G1 E-.8 F2100
G1 Z.6 F720
G1 X35.979 Y54.301 F10800
G1 Z.2 F720
G1 E.8 F2100
M204 S800
;TYPE:Skirt/Brim
;WIDTH:0.42
G1 F1200
G1 X40.594 Y51.993 E.16179
G1 X41.572 Y51.762 E.03151
G1 X56.788 Y51.765 E.47709
G1 X125.282 Y54.906 E2.14984
G1 X126.16 Y55.135 E.02845
G1 X130.774 Y57.442 E.16174
G1 X131.343 Y57.852 E.02199
G1 X135.957 Y62.466 E.20459
G1 X136.598 Y64.013 E.0525
G1 X136.598 Y169.105 E3.29509
G1 X136.367 Y170.083 E.03151
G1 X134.06 Y174.698 E.16177
G1 X133.65 Y175.266 E.02196
G1 X131.343 Y177.573 E.1023
G1 X130.774 Y177.983 E.02199
G1 X126.16 Y180.291 E.16176
G1 X125.181 Y180.522 E.03154
G1 X110.066 Y180.522 E.47392
G1 X41.472 Y177.378 E2.15297
G1 X40.594 Y177.149 E.02845
M73 P0 R131
G1 X35.979 Y174.842 E.16177
G1 X35.411 Y174.432 E.02196
G1 X33.104 Y172.125 E.1023
G1 X32.694 Y171.556 E.02199
G1 X30.386 Y166.942 E.16176
G1 X30.155 Y165.964 E.03151
G1 X30.155 Y60.872 E3.29509
G1 X30.796 Y59.325 E.0525
G1 X35.411 Y54.711 E.20461
G1 X35.931 Y54.336 E.0201
M204 S1000
;WIPE_START
G1 F8640
G1 X35.979 Y54.301 E-.01372
G1 X39.024 Y52.778 E-.78628
;WIPE_END
G1 Z.6 F720
; printing object robot_painter_02-a1_2_painter-1-solid1.STL id:0 copy 0
G1 X56.688 Y56.258 F10800
G1 Z.2 F720
G1 E.8 F2100
M204 S800
;TYPE:Support material
G1 F1200
G1 X61.302 Y56.258 E.14467
G1 X61.302 Y58.565 E.07233
G1 X63.609 Y58.565 E.07233
G1 X63.609 Y63.179 E.14467
G1 X65.916 Y63.179 E.07233
G1 X65.916 Y168.271 E3.29509
G1 X63.609 Y168.271 E.07233
G1 X63.609 Y170.578 E.07233
G1 X61.302 Y170.578 E.07233
G1 X61.302 Y172.885 E.07233
G1 X56.688 Y172.885 E.14467
G1 X56.688 Y175.192 E.07233
G1 X41.572 Y175.192 E.47395
G1 X41.572 Y172.885 E.07233
G1 X36.958 Y172.885 E.14467
G1 X36.958 Y170.578 E.07233
G1 X34.651 Y170.578 E.07233
G1 X34.651 Y165.964 E.14467
G1 X32.344 Y165.964 E.07233
G1 X32.344 Y60.872 E3.29509
G1 X34.651 Y60.872 E.07233
G1 X34.651 Y58.565 E.07233
G1 X36.958 Y58.565 E.07233
G1 X36.958 Y56.258 E.07233
G1 X41.572 Y56.258 E.14467
G1 X41.572 Y53.951 E.07233
G1 X56.688 Y53.951 E.47395
G1 X56.688 Y56.201 E.07055
M204 S1000
G1 X48.447 Y58.746 F10800
M204 S800
G1 F1200
G1 X51.705 Y59.136 E.10288
G1 X54.69 Y60.34 E.10092
G1 X57.216 Y62.233 E.09897
G1 X59.244 Y64.812 E.10287
G1 X60.503 Y67.775 E.10094
M73 Q0 S132
G1 X60.951 Y70.915 E.09945
G1 X61.965 Y157.972 E2.7298
G1 X61.576 Y161.151 E.10042
G1 X60.402 Y164.081 E.09897
G1 X58.435 Y166.707 E.10287
G1 X55.899 Y168.69 E.10094
G1 X52.998 Y169.932 E.09894
G1 X49.813 Y170.397 E.10092
G1 X46.555 Y170.007 E.10288
G1 X43.625 Y168.833 E.09897
G1 X41.044 Y166.91 E.10092
G1 X39.016 Y164.33 E.10289
G1 X37.757 Y161.368 E.10091
G1 X37.308 Y158.228 E.09945
G1 X36.295 Y71.171 E2.7298
G1 X36.684 Y67.992 E.10042
G1 X37.858 Y65.062 E.09897
G1 X39.781 Y62.481 E.10092
G1 X41.844 Y60.778 E.08388
G1 X42.372 Y60.448 E.01952
G1 X45.262 Y59.211 E.09857
G1 X48.391 Y58.754 E.09915
M204 S1000
;WIPE_START
G1 F8640
G1 X45.262 Y59.211 E-.73016
G1 X44.984 Y59.33 E-.06984
;WIPE_END
G1 Z.6 F720
G1 X65.47 Y168.101 F10800
G1 Z.2 F720
G1 E.8 F2100
M204 S800
G1 F1200
G1 X65.47 Y63.519 E3.2791
G1 X65.051 Y63.519 E.01314
G1 X65.051 Y167.931 E3.27376
G1 X64.632 Y167.931 E.01314
G1 X64.632 Y63.519 E3.27376
G1 X64.213 Y63.519 E.01314
G1 X64.213 Y167.931 E3.27376
G1 X63.794 Y167.931 E.01314
M73 P1 R131
M73 Q1 S132
G1 X63.794 Y63.519 E3.27376
G1 X63.375 Y63.519 E.01314
M73 P1 R130
G1 X63.375 Y167.931 E3.27376
G1 X63.269 Y167.931 E.00332
G1 X63.269 Y170.238 E.07233
G1 X62.956 Y170.238 E.00981
G1 X62.956 Y58.904 E3.4908
G1 X62.537 Y58.904 E.01314
G1 X62.537 Y170.238 E3.4908
G1 X62.118 Y170.238 E.01314
G1 X62.118 Y159.546 E.33524
G1 X61.926 Y161.152 E.05071
G1 X61.699 Y161.756 E.02023
G1 X61.699 Y170.238 E.26595
G1 X61.28 Y170.238 E.01314
G1 X61.28 Y162.801 E.23318
G1 X60.861 Y163.847 E.03533
G1 X60.861 Y172.545 E.27272
G1 X60.442 Y172.545 E.01314
G1 X60.442 Y164.607 E.24889
G1 X60.023 Y165.166 E.0219
G1 X60.023 Y172.545 E.23136
G1 X59.604 Y172.545 E.01314
G1 X59.604 Y165.726 E.2138
G1 X59.185 Y166.285 E.0219
G1 X59.185 Y172.545 E.19628
G1 X58.766 Y172.545 E.01314
G1 X58.766 Y166.845 E.17872
G1 X58.347 Y167.208 E.01738
M73 Q1 S131
G1 X58.347 Y172.545 E.16734
G1 X57.928 Y172.545 E.01314
G1 X57.928 Y167.537 E.15702
G1 X57.509 Y167.866 E.0167
G1 X57.509 Y172.545 E.14671
G1 X57.09 Y172.545 E.01314
G1 X57.09 Y168.196 E.13636
G1 X56.671 Y168.525 E.0167
G1 X56.671 Y172.545 E.12604
G1 X56.348 Y172.545 E.01013
G1 X56.348 Y174.852 E.07233
G1 X56.253 Y174.852 E.00298
G1 X56.253 Y168.854 E.18806
G1 X55.834 Y169.087 E.01503
G1 X55.834 Y174.852 E.18076
G1 X55.415 Y174.852 E.01314
G1 X55.415 Y169.267 E.17511
G1 X54.996 Y169.446 E.01429
G1 X54.996 Y174.852 E.1695
G1 X54.577 Y174.852 E.01314
G1 X54.577 Y169.625 E.16389
G1 X54.158 Y169.804 E.01429
G1 X54.158 Y174.852 E.15828
G1 X53.739 Y174.852 E.01314
G1 X53.739 Y169.984 E.15263
G1 X53.32 Y170.163 E.01429
G1 X53.32 Y174.852 E.14702
G1 X52.901 Y174.852 E.01314
G1 X52.901 Y170.297 E.14282
G1 X52.482 Y170.357 E.01327
G1 X52.482 Y174.852 E.14094
G1 X52.063 Y174.852 E.01314
G1 X52.063 Y170.417 E.13906
G1 X51.644 Y170.477 E.01327
G1 X51.644 Y174.852 E.13718
G1 X51.225 Y174.852 E.01314
G1 X51.225 Y170.537 E.13529
G1 X50.806 Y170.597 E.01327
G1 X50.806 Y174.852 E.13341
G1 X50.387 Y174.852 E.01314
G1 X50.387 Y170.658 E.1315
G1 X49.968 Y170.718 E.01327
G1 X49.968 Y174.852 E.12962
G1 X49.549 Y174.852 E.01314
G1 X49.549 Y170.716 E.12968
G1 X49.13 Y170.665 E.01323
G1 X49.13 Y174.852 E.13128
G1 X48.711 Y174.852 E.01314
G1 X48.711 Y170.615 E.13285
G1 X48.292 Y170.565 E.01323
G1 X48.292 Y174.852 E.13442
G1 X47.873 Y174.852 E.01314
G1 X47.873 Y170.515 E.13598
G1 X47.454 Y170.465 E.01323
G1 X47.454 Y174.852 E.13755
G1 X47.035 Y174.852 E.01314
G1 X47.035 Y170.415 E.13912
G1 X46.616 Y170.364 E.01323
G1 X46.616 Y174.852 E.14072
G1 X46.197 Y174.852 E.01314
G1 X46.197 Y170.229 E.14495
G1 X45.778 Y170.061 E.01415
G1 X45.778 Y174.852 E.15022
G1 X45.359 Y174.852 E.01314
G1 X45.359 Y169.894 E.15545
G1 X44.94 Y169.726 E.01415
G1 X44.94 Y174.852 E.16072
G1 X44.521 Y174.852 E.01314
G1 X44.521 Y169.558 E.16599
G1 X44.102 Y169.39 E.01415
G1 X44.102 Y174.852 E.17126
G1 X43.683 Y174.852 E.01314
G1 X43.683 Y169.222 E.17652
G1 X43.264 Y168.997 E.01491
G1 X43.264 Y174.852 E.18358
G1 X42.845 Y174.852 E.01314
G1 X42.845 Y168.684 E.19339
G1 X42.426 Y168.37 E.01642
G1 X42.426 Y174.852 E.20324
G1 X42.007 Y174.852 E.01314
G1 X42.007 Y168.056 E.21308
G1 X41.588 Y167.742 E.01642
G1 X41.588 Y172.545 E.15059
G1 X41.169 Y172.545 E.01314
G1 X41.169 Y167.428 E.16044
G1 X40.75 Y167.098 E.01672
G1 X40.75 Y172.545 E.17079
G1 X40.331 Y172.545 E.01314
G1 X40.331 Y166.567 E.18744
G1 X39.912 Y166.034 E.02126
G1 X39.912 Y172.545 E.20415
G1 X39.493 Y172.545 E.01314
G1 X39.493 Y165.501 E.22086
G1 X39.074 Y164.968 E.02126
G1 X39.074 Y172.545 E.23757
G1 X38.655 Y172.545 E.01314
G1 X38.655 Y164.351 E.25692
G1 X38.236 Y163.372 E.03339
G1 X38.236 Y172.545 E.28761
G1 X37.818 Y172.545 E.01311
G1 X37.818 Y162.393 E.31831
G1 X37.399 Y161.259 E.03791
G1 X37.399 Y172.545 E.35386
G1 X37.298 Y172.545 E.00317
G1 X37.298 Y170.238 E.07233
G1 X36.98 Y170.238 E.00997
G1 X36.98 Y158.34 E.37305
G1 X36.561 Y123.222 E1.10118
G1 X36.561 Y170.238 E1.47415
G1 X36.142 Y170.238 E.01314
G1 X36.142 Y87.308 E2.60021
G1 X35.954 Y71.195 E.50525
G1 X36.142 Y69.597 E.05045
G1 X36.142 Y58.904 E.33527
G1 X36.561 Y58.904 E.01314
G1 X36.561 Y67.387 E.26598
G1 X36.98 Y66.341 E.03533
G1 X36.98 Y58.904 E.23318
G1 X37.298 Y58.904 E.00997
G1 X37.298 Y56.597 E.07233
G1 X37.399 Y56.597 E.00317
G1 X37.399 Y65.296 E.27275
G1 X37.551 Y64.915 E.01286
G1 X37.818 Y64.536 E.01454
G1 X37.818 Y56.597 E.24892
G1 X38.237 Y56.597 E.01314
G1 X38.237 Y63.976 E.23136
G1 X38.655 Y63.417 E.02189
G1 X38.655 Y56.597 E.21384
G1 X39.074 Y56.597 E.01314
G1 X39.074 Y62.857 E.19628
G1 X39.493 Y62.298 E.0219
G1 X39.493 Y56.597 E.17875
G1 X39.912 Y56.597 E.01314
G1 X39.912 Y61.935 E.16737
G1 X40.331 Y61.591 E.017
G1 X40.331 Y56.597 E.15658
G1 X40.75 Y56.597 E.01314
G1 X40.75 Y61.244 E.1457
G1 X41.169 Y60.897 E.01706
G1 X41.169 Y56.597 E.13482
G1 X41.588 Y56.597 E.01314
G1 X41.588 Y60.55 E.12394
G1 X42.007 Y60.273 E.01575
G1 X42.007 Y54.29 E.18759
G1 X42.426 Y54.29 E.01314
G1 X42.426 Y60.056 E.18079
G1 X42.845 Y59.876 E.0143
G1 X42.845 Y54.29 E.17515
G1 X43.264 Y54.29 E.01314
G1 X43.264 Y59.697 E.16953
G1 X43.683 Y59.518 E.01429
G1 X43.683 Y54.29 E.16392
G1 X44.102 Y54.29 E.01314
G1 X44.102 Y59.338 E.15828
G1 X44.521 Y59.159 E.01429
G1 X44.521 Y54.29 E.15266
G1 X44.94 Y54.29 E.01314
G1 X44.94 Y58.98 E.14705
G1 X45.359 Y58.846 E.01379
G1 X45.359 Y54.29 E.14285
G1 X45.778 Y54.29 E.01314
G1 X45.778 Y58.786 E.14097
G1 X46.197 Y58.726 E.01327
G1 X46.197 Y54.29 E.13909
G1 X46.616 Y54.29 E.01314
G1 X46.616 Y58.666 E.13721
G1 X47.035 Y58.605 E.01328
G1 X47.035 Y54.29 E.13529
G1 X47.454 Y54.29 E.01314
G1 X47.454 Y58.545 E.13341
G1 X47.873 Y58.485 E.01327
G1 X47.873 Y54.29 E.13153
G1 X48.292 Y54.29 E.01314
G1 X48.292 Y58.425 E.12965
G1 X48.711 Y58.427 E.01314
M73 P1 R129
G1 X48.711 Y54.29 E.12971
G1 X49.13 Y54.29 E.01314
G1 X49.13 Y58.477 E.13128
G1 X49.549 Y58.527 E.01323
G1 X49.549 Y54.29 E.13285
G1 X49.968 Y54.29 E.01314
G1 X49.968 Y58.578 E.13445
G1 X50.387 Y58.628 E.01323
G1 X50.387 Y54.29 E.13601
G1 X50.806 Y54.29 E.01314
G1 X50.806 Y58.678 E.13758
G1 X51.225 Y58.728 E.01323
G1 X51.225 Y54.29 E.13915
G1 X51.644 Y54.29 E.01314
G1 X51.644 Y58.778 E.14072
G1 X52.063 Y58.914 E.01381
G1 X52.063 Y54.29 E.14498
G1 X52.482 Y54.29 E.01314
G1 X52.482 Y59.081 E.15022
G1 X52.901 Y59.249 E.01415
G1 X52.901 Y54.29 E.15549
G1 X53.32 Y54.29 E.01314
G1 X53.32 Y59.417 E.16075
G1 X53.739 Y59.585 E.01415
G1 X53.739 Y54.29 E.16602
G1 X54.158 Y54.29 E.01314
G1 X54.158 Y59.753 E.17129
G1 X54.577 Y59.921 E.01415
G1 X54.577 Y54.29 E.17656
G1 X54.996 Y54.29 E.01314
G1 X54.996 Y60.145 E.18358
G1 X55.415 Y60.459 E.01642
G1 X55.415 Y54.29 E.19342
G1 X55.834 Y54.29 E.01314
G1 X55.834 Y60.773 E.20327
G1 X56.253 Y61.087 E.01642
G1 X56.253 Y54.29 E.21312
G1 X56.348 Y54.29 E.00298
G1 X56.348 Y56.597 E.07233
G1 X56.671 Y56.597 E.01013
G1 X56.671 Y61.401 E.15063
G1 X57.09 Y61.714 E.0164
G1 X57.09 Y56.597 E.16044
G1 X57.509 Y56.597 E.01314
G1 X57.509 Y62.045 E.17082
G1 X57.928 Y62.576 E.02121
G1 X57.928 Y56.597 E.18747
G1 X58.347 Y56.597 E.01314
G1 X58.347 Y63.109 E.20418
G1 X58.766 Y63.642 E.02126
G1 X58.766 Y56.597 E.22089
G1 X59.185 Y56.597 E.01314
G1 X59.185 Y64.175 E.2376
G1 X59.604 Y64.792 E.02338
G1 X59.604 Y56.597 E.25695
G1 X60.023 Y56.597 E.01314
G1 X60.023 Y65.771 E.28764
G1 X60.442 Y66.75 E.03339
G1 X60.442 Y56.597 E.31834
G1 X60.861 Y56.597 E.01314
G1 X60.861 Y67.883 E.35386
G1 X61.28 Y70.802 E.09246
G1 X61.28 Y58.904 E.37305
G1 X61.699 Y58.904 E.01314
G1 X61.699 Y105.92 E1.47415
G1 X62.118 Y141.835 E1.12617
G1 X62.118 Y58.735 E2.60554
M204 S1000
;WIPE_START
G1 F8640
M73 P2 R129
M73 Q2 S131
G1 X62.118 Y62.2 E-.8
;WIPE_END
G1 Z.6 F720
G1 X35.723 Y170.408 F10800
G1 Z.2 F720
G1 E.8 F2100
M204 S800
G1 F1200
G1 X35.723 Y58.904 E3.49613
G1 X35.304 Y58.904 E.01314
M73 Q2 S130
G1 X35.304 Y170.238 E3.4908
G1 X34.99 Y170.238 E.00985
G1 X34.99 Y165.624 E.14467
G1 X34.885 Y165.624 E.00329
G1 X34.885 Y61.212 E3.27376
G1 X34.466 Y61.212 E.01314
G1 X34.466 Y165.624 E3.27376
G1 X34.047 Y165.624 E.01314
G1 X34.047 Y61.212 E3.27376
G1 X33.628 Y61.212 E.01314
G1 X33.628 Y165.624 E3.27376
G1 X33.209 Y165.624 E.01314
G1 X33.209 Y61.212 E3.27376
G1 X32.79 Y61.212 E.01314
G1 X32.79 Y165.794 E3.2791
M204 S1000
;WIPE_START
G1 F8640
M73 P2 R128
G1 X32.79 Y162.329 E-.8
;WIPE_END
G1 Z.6 F720
G1 X42.656 Y121.722 F10800
G1 Z.2 F720
G1 E.8 F2100
M204 S800
G1 F1200
G1 X43.027 Y122.145 E.01764
G1 X54.805 Y143.799 E.77288
G1 X54.96 Y144.391 E.01919
G1 X54.811 Y144.974 E.01887
G1 X54.394 Y145.401 E.01871
G1 X53.756 Y145.58 E.02078
G1 X42.29 Y145.714 E.35953
G1 X41.797 Y145.622 E.01572
G1 X41.418 Y145.374 E.0142
G1 X41.162 Y145.001 E.01418
G1 X41.059 Y144.511 E.0157
G1 X40.804 Y122.724 E.68316
G1 X40.922 Y122.174 E.01764
G1 X41.23 Y121.77 E.01593
G1 X41.682 Y121.537 E.01594
G1 X42.19 Y121.52 E.01594
G1 X42.604 Y121.699 E.01414
M204 S1000
G1 X45.152 Y138.279 F10800
M204 S800
G1 F1200
G1 X46.186 Y138.279 E.03242
G1 X46.186 Y141.62 E.10475
G1 X45.152 Y141.62 E.03242
G1 X45.152 Y138.335 E.103
M204 S1000
;WIPE_START
G1 F8640
G1 X45.152 Y141.62 E-.75852
G1 X45.332 Y141.62 E-.04148
;WIPE_END
G1 Z.6 F720
G1 X54.577 Y144.971 F10800
G1 Z.2 F720
G1 E.8 F2100
M204 S800
G1 F1200
G1 X54.577 Y144.267 E.02207
G1 X54.487 Y143.924 E.01112
G1 X54.158 Y143.318 E.02162
G1 X54.158 Y145.115 E.05634
G1 X53.739 Y145.232 E.01364
G1 X53.739 Y142.548 E.08415
G1 X53.32 Y141.778 E.02749
G1 X53.32 Y145.246 E.10874
G1 X52.901 Y145.25 E.01314
G1 X52.901 Y141.007 E.13304
G1 X52.482 Y140.237 E.02749
G1 X52.482 Y145.255 E.15734
G1 X52.063 Y145.26 E.01314
G1 X52.063 Y139.467 E.18164
G1 X51.644 Y138.697 E.02749
G1 X51.644 Y145.265 E.20594
G1 X51.225 Y145.27 E.01314
G1 X51.225 Y137.926 E.23027
G1 X50.806 Y137.156 E.02749
G1 X50.806 Y145.275 E.25457
G1 X50.387 Y145.28 E.01314
G1 X50.387 Y136.386 E.27887
G1 X49.968 Y135.616 E.02749
G1 X49.968 Y145.285 E.30316
G1 X49.549 Y145.29 E.01314
G1 X49.549 Y134.845 E.3275
G1 X49.13 Y134.075 E.02749
G1 X49.13 Y145.294 E.35176
G1 X48.711 Y145.299 E.01314
G1 X48.711 Y133.305 E.37606
G1 X48.292 Y132.535 E.02749
G1 X48.292 Y145.304 E.40036
G1 X47.873 Y145.309 E.01314
G1 X47.873 Y131.764 E.42469
G1 X47.454 Y130.994 E.02749
G1 X47.454 Y145.314 E.44899
G1 X47.035 Y145.319 E.01314
G1 X47.035 Y130.224 E.47329
G1 X46.616 Y129.454 E.02749
G1 X46.616 Y145.324 E.49759
G1 X46.197 Y145.329 E.01314
G1 X46.197 Y141.959 E.10566
G1 X45.778 Y141.959 E.01314
G1 X45.778 Y145.333 E.10579
G1 X45.359 Y145.338 E.01314
G1 X45.359 Y141.79 E.11125
M204 S1000
;WIPE_START
G1 F8640
G1 X45.359 Y145.255 E-.8
;WIPE_END
G1 Z.6 F720
G1 X46.197 Y138.109 F10800
G1 Z.2 F720
G1 E.8 F2100
M204 S800
G1 F1200
G1 X46.197 Y128.683 E.29555
G1 X45.778 Y127.913 E.02749
G1 X45.778 Y137.939 E.31436
