; generated by PrusaSlicer 2.9.2 on 2025-05-06 at 09:04:30 UTC


;
;
; 

; external perimeters extrusion width = 0.45mm
; perimeters extrusion width = 0.45mm
; infill extrusion width = 0.45mm
; solid infill extrusion width = 0.45mm
; top infill extrusion width = 0.40mm
; support material extrusion width = 0.35mm
; first layer extrusion width = 0.42mm

M73 P0 R56
M73 Q0 S56
M201 X1000 Y1000 Z200 E5000 ; sets maximum accelerations, mm/sec^2
M203 X200 Y200 Z12 E120 ; sets maximum feedrates, mm / sec
M204 S1250 T1250 ; sets acceleration (S) and retract acceleration (R), mm/sec^2
M205 X8.00 Y8.00 Z0.40 E4.50 ; sets the jerk limits, mm/sec
M205 S0 T0 ; sets the minimum extruding and travel feed rate, mm/sec

; printing object gripper_wrist.STL id:0 copy 0
; stop printing object gripper_wrist.STL id:0 copy 0

;TYPE:Custom
M862.3 P "MK3S" ; printer model check
M862.1 P0.4 ; nozzle diameter check
M115 U3.14.1 ; tell printer latest fw version
G90 ; use absolute coordinates
M83 ; extruder relative mode
M104 S215 ; set extruder temp
M140 S60 ; set bed temp
M190 S60 ; wait for bed temp
M109 S215 ; wait for extruder temp
G28 W ; home all without mesh bed level
G80 X64.0486 Y110.389 W47.5543 H52.1685 ; mesh bed levelling

G1 Z0.2 F720
G1 Y-3 F1000 ; go outside print area
G92 E0
G1 X60 E9 F1000 ; intro line
G1 X100 E12.5 F1000 ; intro line

G92 E0
M221 S95

; Don't change E values below. Excessive value can damage the printer.
M907 E430 ; set extruder motor current
G21 ; set units to millimeters
G90 ; use absolute coordinates
M83 ; use relative distances for extrusion

M900 K0.05 ; Filament gcode LA 1.5
M900 K30 ; Filament gcode LA 1.0




M107
;LAYER_CHANGE
;Z:0.2
;HEIGHT:0.2
G1 E-.8 F2100
G1 Z.6 F720
G1 X67.185 Y111.218 F10800
G1 Z.2 F720
G1 E.8 F2100
M204 S800
;TYPE:Skirt/Brim
;WIDTH:0.42
G1 F1200
G1 X68.733 Y110.577 E.05253
G1 X106.919 Y110.577 E1.1973
G1 X108.466 Y111.218 E.0525
G1 X110.773 Y113.525 E.1023
G1 X111.414 Y115.073 E.05253
G1 X111.414 Y157.873 E1.34196
G1 X110.773 Y159.42 E.0525
G1 X108.466 Y161.727 E.1023
G1 X106.919 Y162.368 E.0525
G1 X68.733 Y162.368 E1.1973
G1 X67.185 Y161.727 E.05253
G1 X64.878 Y159.42 E.1023
G1 X64.237 Y157.873 E.0525
G1 X64.237 Y115.073 E1.34196
G1 X64.878 Y113.525 E.05253
G1 X67.143 Y111.261 E.10041
M204 S1000
;WIPE_START
G1 F8640
G1 X67.185 Y111.218 E-.01388
G1 X68.733 Y110.577 E-.38687
G1 X70.462 Y110.577 E-.39925
;WIPE_END
G1 Z.6 F720
; printing object gripper_wrist.STL id:0 copy 0
G1 X106.919 Y115.073 F10800
G1 Z.2 F720
G1 E.8 F2100
M204 S800
;TYPE:Support material
G1 F1200
G1 X109.226 Y115.073 E.07233
G1 X109.226 Y157.873 E1.34196
G1 X106.919 Y157.873 E.07233
G1 X106.919 Y160.18 E.07233
G1 X68.733 Y160.18 E1.1973
G1 X68.733 Y157.873 E.07233
G1 X66.426 Y157.873 E.07233
G1 X66.426 Y115.073 E1.34196
G1 X68.733 Y115.073 E.07233
G1 X68.733 Y112.766 E.07233
G1 X106.919 Y112.766 E1.1973
G1 X106.919 Y115.016 E.07055
M204 S1000
G1 X74.103 Y116.893 F10800
M204 S800
G1 F1200
G1 X101.548 Y116.893 E.86052
G1 X101.725 Y116.966 E.006
G1 X104.333 Y119.574 E.11564
G1 X104.406 Y119.75 E.00597
G1 X104.406 Y153.195 E1.04864
G1 X104.333 Y153.372 E.006
G1 X101.725 Y155.98 E.11564
G1 X101.548 Y156.053 E.006
G1 X74.103 Y156.053 E.86052
G1 X73.927 Y155.98 E.00597
G1 X71.319 Y153.372 E.11564
G1 X71.246 Y153.195 E.006
G1 X71.246 Y119.75 E1.04864
G1 X71.319 Y119.574 E.00597
M73 Q1 S56
G1 X74.051 Y116.914 E.11956
M204 S1000
;WIPE_START
G1 F8640
G1 X71.568 Y119.331 E-.8
;WIPE_END
G1 Z.6 F720
G1 X108.775 Y157.703 F10800
G1 Z.2 F720
M73 P1 R56
G1 E.8 F2100
M204 S800
G1 F1200
G1 X108.775 Y115.412 E1.326
G1 X108.356 Y115.412 E.01314
G1 X108.356 Y157.533 E1.32067
G1 X107.937 Y157.533 E.01314
M73 P1 R55
G1 X107.937 Y115.412 E1.32067
G1 X107.518 Y115.412 E.01314
G1 X107.518 Y157.533 E1.32067
G1 X107.099 Y157.533 E.01314
G1 X107.099 Y115.412 E1.32067
G1 X106.68 Y115.412 E.01314
G1 X106.68 Y157.533 E1.32067
G1 X106.579 Y157.533 E.00317
G1 X106.579 Y159.841 E.07237
G1 X106.261 Y159.841 E.00997
G1 X106.261 Y113.105 E1.46537
G1 X105.842 Y113.105 E.01314
G1 X105.842 Y159.841 E1.46537
G1 X105.423 Y159.841 E.01314
M73 Q1 S55
G1 X105.423 Y113.105 E1.46537
G1 X105.004 Y113.105 E.01314
G1 X105.004 Y159.841 E1.46537
G1 X104.585 Y159.841 E.01314
G1 X104.585 Y113.105 E1.46537
G1 X104.166 Y113.105 E.01314
G1 X104.166 Y118.927 E.18254
G1 X103.747 Y118.508 E.01858
G1 X103.747 Y113.105 E.16941
G1 X103.328 Y113.105 E.01314
G1 X103.328 Y118.089 E.15627
G1 X102.909 Y117.67 E.01858
G1 X102.909 Y113.105 E.14313
G1 X102.49 Y113.105 E.01314
G1 X102.49 Y117.251 E.12999
G1 X102.071 Y116.832 E.01858
G1 X102.071 Y113.105 E.11686
G1 X101.652 Y113.105 E.01314
G1 X101.652 Y116.568 E.10858
G1 X101.233 Y116.553 E.01315
G1 X101.233 Y113.105 E.10811
G1 X100.814 Y113.105 E.01314
G1 X100.814 Y116.553 E.10811
G1 X100.395 Y116.553 E.01314
G1 X100.395 Y113.105 E.10811
G1 X99.976 Y113.105 E.01314
G1 X99.976 Y116.553 E.10811
G1 X99.557 Y116.553 E.01314
G1 X99.557 Y113.105 E.10811
G1 X99.138 Y113.105 E.01314
G1 X99.138 Y116.553 E.10811
G1 X98.719 Y116.553 E.01314
G1 X98.719 Y113.105 E.10811
G1 X98.3 Y113.105 E.01314
G1 X98.3 Y116.553 E.10811
G1 X97.881 Y116.553 E.01314
G1 X97.881 Y113.105 E.10811
G1 X97.462 Y113.105 E.01314
G1 X97.462 Y116.553 E.10811
G1 X97.043 Y116.553 E.01314
G1 X97.043 Y113.105 E.10811
G1 X96.624 Y113.105 E.01314
G1 X96.624 Y116.553 E.10811
G1 X96.205 Y116.553 E.01314
G1 X96.205 Y113.105 E.10811
G1 X95.786 Y113.105 E.01314
G1 X95.786 Y116.553 E.10811
G1 X95.367 Y116.553 E.01314
G1 X95.367 Y113.105 E.10811
G1 X94.948 Y113.105 E.01314
G1 X94.948 Y116.553 E.10811
G1 X94.529 Y116.553 E.01314
G1 X94.529 Y113.105 E.10811
G1 X94.11 Y113.105 E.01314
G1 X94.11 Y116.553 E.10811
G1 X93.691 Y116.553 E.01314
G1 X93.691 Y113.105 E.10811
G1 X93.272 Y113.105 E.01314
G1 X93.272 Y116.553 E.10811
G1 X92.853 Y116.553 E.01314
G1 X92.853 Y113.105 E.10811
G1 X92.435 Y113.105 E.01311
G1 X92.435 Y116.553 E.10811
G1 X92.016 Y116.553 E.01314
G1 X92.016 Y113.105 E.10811
G1 X91.597 Y113.105 E.01314
G1 X91.597 Y116.553 E.10811
G1 X91.178 Y116.553 E.01314
G1 X91.178 Y113.105 E.10811
G1 X90.759 Y113.105 E.01314
G1 X90.759 Y116.553 E.10811
G1 X90.34 Y116.553 E.01314
G1 X90.34 Y113.105 E.10811
G1 X89.921 Y113.105 E.01314
G1 X89.921 Y116.553 E.10811
G1 X89.502 Y116.553 E.01314
G1 X89.502 Y113.105 E.10811
G1 X89.083 Y113.105 E.01314
G1 X89.083 Y116.553 E.10811
G1 X88.664 Y116.553 E.01314
M73 Q2 S55
G1 X88.664 Y113.105 E.10811
G1 X88.245 Y113.105 E.01314
G1 X88.245 Y116.553 E.10811
G1 X87.826 Y116.553 E.01314
M73 P2 R55
G1 X87.826 Y113.105 E.10811
G1 X87.407 Y113.105 E.01314
G1 X87.407 Y116.553 E.10811
G1 X86.988 Y116.553 E.01314
G1 X86.988 Y113.105 E.10811
G1 X86.569 Y113.105 E.01314
G1 X86.569 Y116.553 E.10811
G1 X86.15 Y116.553 E.01314
G1 X86.15 Y113.105 E.10811
G1 X85.731 Y113.105 E.01314
G1 X85.731 Y116.553 E.10811
G1 X85.312 Y116.553 E.01314
G1 X85.312 Y113.105 E.10811
G1 X84.893 Y113.105 E.01314
G1 X84.893 Y116.553 E.10811
G1 X84.474 Y116.553 E.01314
G1 X84.474 Y113.105 E.10811
G1 X84.055 Y113.105 E.01314
G1 X84.055 Y116.553 E.10811
G1 X83.636 Y116.553 E.01314
G1 X83.636 Y113.105 E.10811
G1 X83.217 Y113.105 E.01314
G1 X83.217 Y116.553 E.10811
G1 X82.798 Y116.553 E.01314
G1 X82.798 Y113.105 E.10811
G1 X82.379 Y113.105 E.01314
G1 X82.379 Y116.553 E.10811
G1 X81.96 Y116.553 E.01314
G1 X81.96 Y113.105 E.10811
G1 X81.541 Y113.105 E.01314
G1 X81.541 Y116.553 E.10811
G1 X81.122 Y116.553 E.01314
G1 X81.122 Y113.105 E.10811
G1 X80.703 Y113.105 E.01314
G1 X80.703 Y116.553 E.10811
G1 X80.284 Y116.553 E.01314
G1 X80.284 Y113.105 E.10811
G1 X79.865 Y113.105 E.01314
G1 X79.865 Y116.553 E.10811
G1 X79.446 Y116.553 E.01314
G1 X79.446 Y113.105 E.10811
G1 X79.027 Y113.105 E.01314
G1 X79.027 Y116.553 E.10811
G1 X78.608 Y116.553 E.01314
G1 X78.608 Y113.105 E.10811
G1 X78.189 Y113.105 E.01314
G1 X78.189 Y116.553 E.10811
G1 X77.77 Y116.553 E.01314
G1 X77.77 Y113.105 E.10811
G1 X77.351 Y113.105 E.01314
G1 X77.351 Y116.553 E.10811
G1 X76.932 Y116.553 E.01314
G1 X76.932 Y113.105 E.10811
G1 X76.513 Y113.105 E.01314
G1 X76.513 Y116.553 E.10811
G1 X76.094 Y116.553 E.01314
G1 X76.094 Y113.105 E.10811
G1 X75.675 Y113.105 E.01314
G1 X75.675 Y116.553 E.10811
G1 X75.256 Y116.553 E.01314
G1 X75.256 Y113.105 E.10811
G1 X74.837 Y113.105 E.01314
G1 X74.837 Y116.553 E.10811
G1 X74.419 Y116.553 E.01311
G1 X74.419 Y113.105 E.10811
G1 X74 Y113.105 E.01314
G1 X74 Y116.568 E.10858
G1 X73.581 Y116.832 E.01553
G1 X73.581 Y113.105 E.11686
G1 X73.162 Y113.105 E.01314
G1 X73.162 Y117.251 E.12999
G1 X72.743 Y117.67 E.01858
G1 X72.743 Y113.105 E.14313
G1 X72.324 Y113.105 E.01314
G1 X72.324 Y118.089 E.15627
G1 X71.905 Y118.508 E.01858
G1 X71.905 Y113.105 E.16941
G1 X71.486 Y113.105 E.01314
G1 X71.486 Y119.167 E.19007
M204 S1000
;WIPE_START
G1 F8640
G1 X71.486 Y115.702 E-.8
;WIPE_END
G1 Z.6 F720
G1 X104.166 Y160.01 F10800
G1 Z.2 F720
G1 E.8 F2100
M204 S800
G1 F1200
G1 X104.166 Y154.019 E.18784
G1 X103.747 Y154.438 E.01858
G1 X103.747 Y159.841 E.16941
G1 X103.328 Y159.841 E.01314
G1 X103.328 Y154.857 E.15627
G1 X102.909 Y155.276 E.01858
G1 X102.909 Y159.841 E.14313
G1 X102.49 Y159.841 E.01314
G1 X102.49 Y155.695 E.12999
G1 X102.071 Y156.114 E.01858
G1 X102.071 Y159.841 E.11686
G1 X101.652 Y159.841 E.01314
G1 X101.652 Y156.377 E.10861
G1 X101.233 Y156.392 E.01315
G1 X101.233 Y159.841 E.10814
G1 X100.814 Y159.841 E.01314
G1 X100.814 Y156.392 E.10814
G1 X100.395 Y156.392 E.01314
G1 X100.395 Y159.841 E.10814
G1 X99.976 Y159.841 E.01314
G1 X99.976 Y156.392 E.10814
G1 X99.557 Y156.392 E.01314
G1 X99.557 Y159.841 E.10814
G1 X99.138 Y159.841 E.01314
G1 X99.138 Y156.392 E.10814
G1 X98.719 Y156.392 E.01314
G1 X98.719 Y159.841 E.10814
G1 X98.3 Y159.841 E.01314
G1 X98.3 Y156.392 E.10814
G1 X97.881 Y156.392 E.01314
G1 X97.881 Y159.841 E.10814
G1 X97.462 Y159.841 E.01314
G1 X97.462 Y156.392 E.10814
G1 X97.043 Y156.392 E.01314
G1 X97.043 Y159.841 E.10814
G1 X96.624 Y159.841 E.01314
G1 X96.624 Y156.392 E.10814
G1 X96.205 Y156.392 E.01314
G1 X96.205 Y159.841 E.10814
G1 X95.786 Y159.841 E.01314
G1 X95.786 Y156.392 E.10814
G1 X95.367 Y156.392 E.01314
G1 X95.367 Y159.841 E.10814
G1 X94.948 Y159.841 E.01314
G1 X94.948 Y156.392 E.10814
G1 X94.529 Y156.392 E.01314
G1 X94.529 Y159.841 E.10814
G1 X94.11 Y159.841 E.01314
G1 X94.11 Y156.392 E.10814
G1 X93.691 Y156.392 E.01314
G1 X93.691 Y159.841 E.10814
G1 X93.272 Y159.841 E.01314
G1 X93.272 Y156.392 E.10814
G1 X92.853 Y156.392 E.01314
G1 X92.853 Y159.841 E.10814
G1 X92.435 Y159.841 E.01311
G1 X92.435 Y156.392 E.10814
G1 X92.016 Y156.392 E.01314
G1 X92.016 Y159.841 E.10814
G1 X91.597 Y159.841 E.01314
G1 X91.597 Y156.392 E.10814
G1 X91.178 Y156.392 E.01314
G1 X91.178 Y159.841 E.10814
G1 X90.759 Y159.841 E.01314
G1 X90.759 Y156.392 E.10814
G1 X90.34 Y156.392 E.01314
G1 X90.34 Y159.841 E.10814
G1 X89.921 Y159.841 E.01314
G1 X89.921 Y156.392 E.10814
G1 X89.502 Y156.392 E.01314
G1 X89.502 Y159.841 E.10814
G1 X89.083 Y159.841 E.01314
G1 X89.083 Y156.392 E.10814
G1 X88.664 Y156.392 E.01314
G1 X88.664 Y159.841 E.10814
G1 X88.245 Y159.841 E.01314
G1 X88.245 Y156.392 E.10814
G1 X87.826 Y156.392 E.01314
G1 X87.826 Y159.841 E.10814
G1 X87.407 Y159.841 E.01314
G1 X87.407 Y156.392 E.10814
G1 X86.988 Y156.392 E.01314
G1 X86.988 Y159.841 E.10814
G1 X86.569 Y159.841 E.01314
G1 X86.569 Y156.392 E.10814
G1 X86.15 Y156.392 E.01314
G1 X86.15 Y159.841 E.10814
G1 X85.731 Y159.841 E.01314
G1 X85.731 Y156.392 E.10814
G1 X85.312 Y156.392 E.01314
G1 X85.312 Y159.841 E.10814
G1 X84.893 Y159.841 E.01314
G1 X84.893 Y156.392 E.10814
G1 X84.474 Y156.392 E.01314
G1 X84.474 Y159.841 E.10814
G1 X84.055 Y159.841 E.01314
G1 X84.055 Y156.392 E.10814
G1 X83.636 Y156.392 E.01314
G1 X83.636 Y159.841 E.10814
G1 X83.217 Y159.841 E.01314
G1 X83.217 Y156.392 E.10814
G1 X82.798 Y156.392 E.01314
G1 X82.798 Y159.841 E.10814
G1 X82.379 Y159.841 E.01314
G1 X82.379 Y156.392 E.10814
G1 X81.96 Y156.392 E.01314
G1 X81.96 Y159.841 E.10814
G1 X81.541 Y159.841 E.01314
G1 X81.541 Y156.392 E.10814
G1 X81.122 Y156.392 E.01314
G1 X81.122 Y159.841 E.10814
G1 X80.703 Y159.841 E.01314
G1 X80.703 Y156.392 E.10814
G1 X80.284 Y156.392 E.01314
G1 X80.284 Y159.841 E.10814
G1 X79.865 Y159.841 E.01314
G1 X79.865 Y156.392 E.10814
G1 X79.446 Y156.392 E.01314
G1 X79.446 Y159.841 E.10814
G1 X79.027 Y159.841 E.01314
G1 X79.027 Y156.392 E.10814
G1 X78.608 Y156.392 E.01314
G1 X78.608 Y159.841 E.10814
G1 X78.189 Y159.841 E.01314
G1 X78.189 Y156.392 E.10814
G1 X77.77 Y156.392 E.01314
G1 X77.77 Y159.841 E.10814
G1 X77.351 Y159.841 E.01314
G1 X77.351 Y156.392 E.10814
G1 X76.932 Y156.392 E.01314
G1 X76.932 Y159.841 E.10814
G1 X76.513 Y159.841 E.01314
G1 X76.513 Y156.392 E.10814
G1 X76.094 Y156.392 E.01314
G1 X76.094 Y159.841 E.10814
G1 X75.675 Y159.841 E.01314
G1 X75.675 Y156.392 E.10814
G1 X75.256 Y156.392 E.01314
G1 X75.256 Y159.841 E.10814
G1 X74.837 Y159.841 E.01314
G1 X74.837 Y156.392 E.10814
G1 X74.419 Y156.392 E.01311
G1 X74.419 Y159.841 E.10814
G1 X74 Y159.841 E.01314
G1 X74 Y156.377 E.10861
G1 X73.581 Y156.114 E.01551
G1 X73.581 Y159.841 E.11686
G1 X73.162 Y159.841 E.01314
G1 X73.162 Y155.695 E.12999
G1 X72.743 Y155.276 E.01858
G1 X72.743 Y159.841 E.14313
G1 X72.324 Y159.841 E.01314
G1 X72.324 Y154.857 E.15627
G1 X71.905 Y154.438 E.01858
G1 X71.905 Y159.841 E.16941
G1 X71.486 Y159.841 E.01314
G1 X71.486 Y153.779 E.19007
M204 S1000
G1 X71.067 Y160.01 F10800
M204 S800
G1 F1200
G1 X71.067 Y113.105 E1.47067
G1 X70.648 Y113.105 E.01314
G1 X70.648 Y159.841 E1.46537
G1 X70.229 Y159.841 E.01314
M73 P2 R54
G1 X70.229 Y113.105 E1.46537
G1 X69.81 Y113.105 E.01314
M73 P3 R54
M73 Q3 S55
G1 X69.81 Y159.841 E1.46537
G1 X69.391 Y159.841 E.01314
G1 X69.391 Y113.105 E1.46537
G1 X69.072 Y113.105 E.01
G1 X69.072 Y115.412 E.07233
G1 X68.972 Y115.412 E.00314
G1 X68.972 Y157.533 E1.32067
G1 X68.553 Y157.533 E.01314
G1 X68.553 Y115.412 E1.32067
G1 X68.134 Y115.412 E.01314
M73 Q3 S54
G1 X68.134 Y157.533 E1.32067
G1 X67.715 Y157.533 E.01314
G1 X67.715 Y115.412 E1.32067
G1 X67.296 Y115.412 E.01314
G1 X67.296 Y157.533 E1.32067
G1 X66.877 Y157.533 E.01314
G1 X66.877 Y115.242 E1.326
M204 S1000
;WIPE_START
G1 F8640
G1 X66.877 Y118.707 E-.8
;WIPE_END
G1 Z.6 F720
G1 X99.81 Y154.149 F10800
G1 Z.2 F720
G1 E.8 F2100
M204 S800
;TYPE:Perimeter
;WIDTH:0.590476
G1 F1200
G1 X99.663 Y154.111 E.00691
;WIDTH:0.549942
G1 X99.579 Y154.066 E.00402
;WIDTH:0.506628
G1 X99.496 Y154.022 E.00362
;WIDTH:0.463314
G1 X99.412 Y153.977 E.00333
;WIDTH:0.419999
G1 X98.665 Y153.777 E.02425
G1 X98.411 Y153.63 E.0092
G1 X97.668 Y152.887 E.03295
G1 X97.522 Y152.634 E.00916
G1 X97.25 Y151.619 E.03295
G1 X97.25 Y151.326 E.00919
G1 X97.522 Y150.312 E.03292
G1 X97.668 Y150.058 E.00919
G1 X98.411 Y149.315 E.03295
G1 X98.601 Y149.19 E.00713
G1 X99.679 Y148.897 E.03503
G1 X99.972 Y148.897 E.00919
G1 X100.987 Y149.169 E.03295
G1 X101.24 Y149.315 E.00916
G1 X101.983 Y150.058 E.03295
G1 X102.13 Y150.312 E.0092
G1 X102.33 Y151.059 E.02425
;WIDTH:0.464633
G1 X102.372 Y151.141 E.00323
;WIDTH:0.509267
G1 X102.414 Y151.223 E.00357
;WIDTH:0.553901
G1 X102.456 Y151.305 E.00391
;WIDTH:0.598534
G1 X102.499 Y151.387 E.00428
G1 X102.5 Y151.586 E.00919
;WIDTH:0.597481
G1 X102.42 Y151.801 E.01058
;WIDTH:0.553111
G1 X102.34 Y152.016 E.00973
;WIDTH:0.50874
G1 X102.26 Y152.231 E.00889
;WIDTH:0.46437
G1 X102.18 Y152.446 E.00804
;WIDTH:0.419999
G1 X102.046 Y152.812 E.01222
G1 X101.983 Y152.887 E.00307
G1 X101.24 Y153.63 E.03295
G1 X100.987 Y153.777 E.00917
;WIDTH:0.466887
G1 X100.655 Y153.89 E.01236
;WIDTH:0.513775
G1 X100.323 Y154.003 E.01373
;WIDTH:0.560663
G1 X99.99 Y154.116 E.01514
;WIDTH:0.590476
G1 X99.869 Y154.143 E.00564
M204 S1000
G1 X99.823 Y153.672 F10800
M204 S800
;TYPE:External perimeter
;WIDTH:0.419999
G1 F1200
G1 X98.762 Y153.412 E.03425
G1 X98.678 Y153.363 E.00305
G1 X97.935 Y152.621 E.03292
G1 X97.886 Y152.536 E.00308
G1 X97.614 Y151.522 E.03292
G1 X97.614 Y151.424 E.00307
G1 X97.886 Y150.409 E.03295
G1 X97.935 Y150.325 E.00305
G1 X98.679 Y149.581 E.03299
G1 X98.762 Y149.533 E.00301
G1 X99.777 Y149.261 E.03295
G1 X99.875 Y149.261 E.00307
G1 X100.889 Y149.533 E.03292
G1 X100.974 Y149.582 E.00308
