; generated by PrusaSlicer 2.9.2 on 2025-05-06 at 10:23:04 UTC


;
;
; 

; external perimeters extrusion width = 0.45mm
; perimeters extrusion width = 0.45mm
; infill extrusion width = 0.45mm
; solid infill extrusion width = 0.45mm
; top infill extrusion width = 0.40mm
; support material extrusion width = 0.35mm
; first layer extrusion width = 0.42mm

M73 P0 R84
M73 Q0 S84
M201 X1000 Y1000 Z200 E5000 ; sets maximum accelerations, mm/sec^2
M203 X200 Y200 Z12 E120 ; sets maximum feedrates, mm / sec
M204 S1250 T1250 ; sets acceleration (S) and retract acceleration (R), mm/sec^2
M205 X8.00 Y8.00 Z0.40 E4.50 ; sets the jerk limits, mm/sec
M205 S0 T0 ; sets the minimum extruding and travel feed rate, mm/sec

; printing object gripper_lower_palm.STL id:0 copy 0
; stop printing object gripper_lower_palm.STL id:0 copy 0

;TYPE:Custom
M862.3 P "MK3S" ; printer model check
M862.1 P0.4 ; nozzle diameter check
M115 U3.14.1 ; tell printer latest fw version
G90 ; use absolute coordinates
M83 ; extruder relative mode
M104 S215 ; set extruder temp
M140 S60 ; set bed temp
M190 S60 ; wait for bed temp
M109 S215 ; wait for extruder temp
G28 W ; home all without mesh bed level
G80 X69.0338 Y45.2863 W75.2393 H61.3968 ; mesh bed levelling

G1 Z0.2 F720
G1 Y-3 F1000 ; go outside print area
G92 E0
G1 X60 E9 F1000 ; intro line
G1 X100 E12.5 F1000 ; intro line

G92 E0
M221 S95

; Don't change E values below. Excessive value can damage the printer.
M907 E430 ; set extruder motor current
G21 ; set units to millimeters
G90 ; use absolute coordinates
M83 ; use relative distances for extrusion

M900 K0.05 ; Filament gcode LA 1.5
M900 K30 ; Filament gcode LA 1.0




M107
;LAYER_CHANGE
;Z:0.2
;HEIGHT:0.2
G1 E-.8 F2100
M73 P0 R83
G1 Z.6 F720
G1 X78.739 Y46.578 F10800
G1 Z.2 F720
G1 E.8 F2100
M204 S800
;TYPE:Skirt/Brim
;WIDTH:0.42
G1 F1200
G1 X79.698 Y45.688 E.04102
G1 X80.639 Y45.475 E.03025
G1 X137.282 Y45.475 E1.776
G1 X138.53 Y45.866 E.04101
G1 X139.358 Y46.971 E.04329
G1 X143.972 Y60.814 E.45751
G1 X144.085 Y61.506 E.02198
G1 X144.085 Y88.156 E.83559
G1 X143.854 Y89.135 E.03154
G1 X141.546 Y93.749 E.16176
G1 X141.136 Y94.318 E.02199
G1 X131.908 Y103.546 E.40918
G1 X131.339 Y103.956 E.02199
G1 X126.725 Y106.264 E.16176
G1 X125.746 Y106.495 E.03154
G1 X89.868 Y106.495 E1.12493
G1 X88.889 Y106.264 E.03154
G1 X84.275 Y103.956 E.16176
G1 X83.706 Y103.546 E.02199
G1 X69.863 Y89.704 E.6138
G1 X69.222 Y88.156 E.05253
G1 X69.222 Y63.813 E.76326
G1 X69.511 Y62.727 E.03524
G1 X78.709 Y46.63 E.5813
M204 S1000
;WIPE_START
G1 F8640
G1 X78.739 Y46.578 E-.01386
G1 X79.698 Y45.688 E-.3021
G1 X80.639 Y45.475 E-.22278
G1 X81.77 Y45.475 E-.26126
;WIPE_END
G1 Z.6 F720
; printing object gripper_lower_palm.STL id:0 copy 0
G1 X125.746 Y51.005 F10800
G1 Z.2 F720
G1 E.8 F2100
M204 S800
;TYPE:Support material
G1 F1200
G1 X115.245 Y51.005 E.32925
G1 X115.245 Y47.663 E.10479
G1 X125.746 Y47.663 E.32925
G1 X125.746 Y50.948 E.103
M204 S1000
G1 X125.088 Y50.835 F10800
M204 S800
G1 F1200
G1 X125.088 Y48.003 E.0888
G1 X124.669 Y48.003 E.01314
G1 X124.669 Y50.665 E.08347
G1 X124.25 Y50.665 E.01314
G1 X124.25 Y48.003 E.08347
G1 X123.832 Y48.003 E.01311
G1 X123.832 Y50.665 E.08347
G1 X123.413 Y50.665 E.01314
G1 X123.413 Y48.003 E.08347
G1 X122.994 Y48.003 E.01314
G1 X122.994 Y50.665 E.08347
G1 X122.575 Y50.665 E.01314
G1 X122.575 Y48.003 E.08347
G1 X122.156 Y48.003 E.01314
G1 X122.156 Y50.665 E.08347
G1 X121.737 Y50.665 E.01314
G1 X121.737 Y48.003 E.08347
G1 X121.318 Y48.003 E.01314
G1 X121.318 Y50.665 E.08347
G1 X120.899 Y50.665 E.01314
G1 X120.899 Y48.003 E.08347
G1 X120.48 Y48.003 E.01314
G1 X120.48 Y50.665 E.08347
G1 X120.061 Y50.665 E.01314
G1 X120.061 Y48.003 E.08347
G1 X119.642 Y48.003 E.01314
G1 X119.642 Y50.665 E.08347
G1 X119.223 Y50.665 E.01314
G1 X119.223 Y48.003 E.08347
G1 X118.804 Y48.003 E.01314
G1 X118.804 Y50.665 E.08347
G1 X118.385 Y50.665 E.01314
G1 X118.385 Y48.003 E.08347
G1 X117.966 Y48.003 E.01314
G1 X117.966 Y50.665 E.08347
G1 X117.547 Y50.665 E.01314
G1 X117.547 Y48.003 E.08347
G1 X117.128 Y48.003 E.01314
G1 X117.128 Y50.665 E.08347
G1 X116.709 Y50.665 E.01314
G1 X116.709 Y48.003 E.08347
G1 X116.29 Y48.003 E.01314
G1 X116.29 Y50.665 E.08347
G1 X115.871 Y50.665 E.01314
G1 X115.871 Y47.833 E.0888
M204 S1000
;WIPE_START
G1 F8640
G1 X115.871 Y50.665 E-.65392
G1 X116.29 Y50.665 E-.09675
G1 X116.29 Y50.451 E-.04933
;WIPE_END
G1 Z.6 F720
G1 X102.676 Y51.005 F10800
G1 Z.2 F720
G1 E.8 F2100
M204 S800
G1 F1200
G1 X92.175 Y51.005 E.32925
G1 X92.175 Y47.663 E.10479
G1 X102.676 Y47.663 E.32925
G1 X102.676 Y50.948 E.103
M204 S1000
G1 X102.045 Y50.835 F10800
M204 S800
G1 F1200
G1 X102.045 Y48.003 E.0888
G1 X101.626 Y48.003 E.01314
G1 X101.626 Y50.665 E.08347
G1 X101.207 Y50.665 E.01314
G1 X101.207 Y48.003 E.08347
G1 X100.788 Y48.003 E.01314
G1 X100.788 Y50.665 E.08347
G1 X100.369 Y50.665 E.01314
G1 X100.369 Y48.003 E.08347
G1 X99.95 Y48.003 E.01314
G1 X99.95 Y50.665 E.08347
G1 X99.531 Y50.665 E.01314
G1 X99.531 Y48.003 E.08347
G1 X99.112 Y48.003 E.01314
G1 X99.112 Y50.665 E.08347
G1 X98.693 Y50.665 E.01314
G1 X98.693 Y48.003 E.08347
G1 X98.274 Y48.003 E.01314
G1 X98.274 Y50.665 E.08347
G1 X97.855 Y50.665 E.01314
G1 X97.855 Y48.003 E.08347
G1 X97.436 Y48.003 E.01314
G1 X97.436 Y50.665 E.08347
G1 X97.017 Y50.665 E.01314
G1 X97.017 Y48.003 E.08347
G1 X96.598 Y48.003 E.01314
G1 X96.598 Y50.665 E.08347
G1 X96.179 Y50.665 E.01314
G1 X96.179 Y48.003 E.08347
G1 X95.76 Y48.003 E.01314
G1 X95.76 Y50.665 E.08347
G1 X95.341 Y50.665 E.01314
G1 X95.341 Y48.003 E.08347
G1 X94.922 Y48.003 E.01314
G1 X94.922 Y50.665 E.08347
G1 X94.503 Y50.665 E.01314
G1 X94.503 Y48.003 E.08347
G1 X94.084 Y48.003 E.01314
G1 X94.084 Y50.665 E.08347
G1 X93.665 Y50.665 E.01314
G1 X93.665 Y48.003 E.08347
G1 X93.246 Y48.003 E.01314
G1 X93.246 Y50.665 E.08347
G1 X92.827 Y50.665 E.01314
G1 X92.827 Y47.833 E.0888
M204 S1000
;WIPE_START
G1 F8640
G1 X92.827 Y50.665 E-.65392
G1 X93.246 Y50.665 E-.09675
G1 X93.246 Y50.451 E-.04933
;WIPE_END
G1 Z.6 F720
G1 X88.833 Y51.005 F10800
G1 Z.2 F720
G1 E.8 F2100
M204 S800
G1 F1200
G1 X84.831 Y51.005 E.12548
G1 X84.55 Y51.286 E.01246
G1 X84.55 Y61.008 E.30483
G1 X84.467 Y61.46 E.01441
G1 X84.25 Y61.813 E.01299
G1 X83.876 Y62.101 E.0148
G1 X82.261 Y63.146 E.06031
G1 X81.523 Y63.797 E.03086
G1 X80.407 Y64.969 E.05074
G1 X79.889 Y65.353 E.02022
G1 X79.318 Y65.653 E.02022
G1 X77.932 Y66.13 E.04596
G1 X77.23 Y66.514 E.02509
G1 X76.629 Y66.983 E.0239
G1 X76.06 Y67.601 E.02634
G1 X75.644 Y68.239 E.02388
G1 X75.319 Y68.971 E.02511
G1 X75.12 Y69.747 E.02512
G1 X75.05 Y70.555 E.02543
G1 X75.05 Y80.575 E.31417
G1 X75.113 Y81.342 E.02413
G1 X75.305 Y82.118 E.02506
G1 X75.642 Y82.886 E.0263
G1 X76.056 Y83.523 E.02382
G1 X76.468 Y83.977 E.01922
G1 X77.222 Y84.61 E.03087
G1 X77.958 Y85.011 E.02628
G1 X79.706 Y85.677 E.05865
G1 X80.575 Y86.335 E.03418
G1 X81.272 Y87.234 E.03567
G1 X82.663 Y89.303 E.07817
G1 X83.615 Y90.478 E.04742
G1 X84.319 Y91.278 E.03341
G1 X88.211 Y95.115 E.17136
G1 X90.663 Y96.999 E.09695
G1 X92.314 Y97.988 E.06034
G1 X94.075 Y98.822 E.06109
G1 X95.932 Y99.486 E.06184
G1 X97.822 Y99.959 E.06109
G1 X99.749 Y100.243 E.06107
G1 X101.678 Y100.338 E.06056
G1 X115.129 Y100.338 E.42175
G1 X117.058 Y100.243 E.06056
G1 X119.008 Y99.954 E.06181
G1 X120.875 Y99.486 E.06035
G1 X122.71 Y98.831 E.06109
G1 X124.493 Y97.988 E.06184
G1 X126.144 Y96.999 E.06034
G1 X127.709 Y95.839 E.06108
G1 X129.158 Y94.527 E.06129
G1 X132.446 Y91.239 E.1458
G1 X133.758 Y89.79 E.06129
M73 Q0 S83
G1 X134.904 Y88.244 E.06034
G1 X135.907 Y86.574 E.06108
G1 X136.75 Y84.791 E.06184
G1 X137.398 Y82.979 E.06034
G1 X137.873 Y81.089 E.0611
G1 X138.162 Y79.139 E.06181
G1 X138.257 Y77.211 E.06052
G1 X138.257 Y70.842 E.1997
G1 X138.162 Y69.484 E.04268
G1 X137.892 Y68.193 E.04135
G1 X137.438 Y66.918 E.04244
G1 X136.815 Y65.718 E.04239
G1 X136.033 Y64.615 E.04239
G1 X135.083 Y63.606 E.04345
G1 X134.055 Y62.779 E.04137
G1 X132.557 Y61.813 E.05589
G1 X132.34 Y61.46 E.01299
G1 X132.257 Y61.008 E.01441
G1 X132.257 Y51.286 E.30483
G1 X131.975 Y51.005 E.01248
G1 X129.088 Y51.005 E.09052
G1 X129.088 Y47.663 E.10479
G1 X137.282 Y47.663 E.25692
G1 X137.282 Y59.199 E.3617
G1 X139.589 Y59.199 E.07233
G1 X139.589 Y61.506 E.07233
G1 X141.896 Y61.506 E.07233
G1 X141.896 Y88.156 E.83559
G1 X139.589 Y88.156 E.07233
G1 X139.589 Y92.771 E.1447
G1 X137.282 Y92.771 E.07233
G1 X137.282 Y95.078 E.07233
G1 X134.975 Y95.078 E.07233
G1 X134.975 Y97.385 E.07233
G1 X132.668 Y97.385 E.07233
G1 X132.668 Y99.692 E.07233
G1 X130.361 Y99.692 E.07233
G1 X130.361 Y101.999 E.07233
G1 X125.746 Y101.999 E.1447
G1 X125.746 Y104.306 E.07233
G1 X89.868 Y104.306 E1.12493
G1 X89.868 Y101.999 E.07233
G1 X85.253 Y101.999 E.1447
G1 X85.253 Y99.692 E.07233
G1 X82.946 Y99.692 E.07233
G1 X82.946 Y95.078 E.14467
G1 X78.332 Y95.078 E.14467
G1 X78.332 Y90.464 E.14467
G1 X73.718 Y90.464 E.14467
G1 X73.718 Y88.156 E.07237
G1 X71.411 Y88.156 E.07233
G1 X71.411 Y63.813 E.76326
G1 X73.718 Y63.813 E.07233
G1 X73.718 Y61.506 E.07233
G1 X76.025 Y61.506 E.07233
G1 X76.025 Y59.199 E.07233
G1 X80.639 Y59.199 E.14467
G1 X80.639 Y47.663 E.3617
G1 X88.833 Y47.663 E.25692
G1 X88.833 Y50.948 E.103
M204 S1000
;WIPE_START
G1 F8640
M73 P1 R83
M73 Q1 S83
G1 X88.833 Y47.663 E-.75852
G1 X88.653 Y47.663 E-.04148
;WIPE_END
G1 Z.6 F720
G1 X141.429 Y87.987 F10800
G1 Z.2 F720
G1 E.8 F2100
M204 S800
G1 F1200
G1 X141.429 Y61.845 E.81966
G1 X141.01 Y61.845 E.01314
G1 X141.01 Y87.817 E.81433
G1 X140.591 Y87.817 E.01314
G1 X140.591 Y61.845 E.81433
G1 X140.172 Y61.845 E.01314
G1 X140.172 Y87.817 E.81433
G1 X139.753 Y87.817 E.01314
G1 X139.753 Y61.845 E.81433
G1 X139.334 Y61.845 E.01314
G1 X139.334 Y87.817 E.81433
G1 X139.25 Y87.817 E.00263
G1 X139.25 Y92.431 E.14467
G1 X138.915 Y92.431 E.0105
G1 X138.915 Y59.538 E1.03134
G1 X138.496 Y59.538 E.01314
G1 X138.496 Y92.431 E1.03134
G1 X138.077 Y92.431 E.01314
G1 X138.077 Y81.672 E.33734
G1 X137.658 Y83.261 E.05152
G1 X137.658 Y92.431 E.28752
G1 X137.239 Y92.431 E.01314
G1 X137.239 Y84.432 E.2508
G1 X136.82 Y85.44 E.03423
M73 P1 R82
G1 X136.82 Y94.738 E.29153
G1 X136.401 Y94.738 E.01314
G1 X136.401 Y86.326 E.26375
G1 X135.982 Y87.109 E.02784
G1 X135.982 Y94.738 E.2392
G1 X135.563 Y94.738 E.01314
G1 X135.563 Y87.808 E.21729
G1 X135.144 Y88.491 E.02512
G1 X135.144 Y94.738 E.19587
G1 X134.725 Y94.738 E.01314
G1 X134.725 Y89.056 E.17816
G1 X134.306 Y89.621 E.02205
G1 X134.306 Y97.045 E.23277
G1 X133.887 Y97.045 E.01314
G1 X133.887 Y90.155 E.21603
G1 X133.468 Y90.617 E.01956
G1 X133.468 Y97.045 E.20155
G1 X133.049 Y97.045 E.01314
G1 X133.049 Y91.079 E.18706
G1 X132.63 Y91.535 E.01942
G1 X132.63 Y97.045 E.17276
G1 X132.328 Y97.045 E.00947
G1 X132.328 Y99.352 E.07233
G1 X132.211 Y99.352 E.00367
G1 X132.211 Y91.954 E.23196
G1 X131.792 Y92.373 E.01858
G1 X131.792 Y99.352 E.21882
G1 X131.373 Y99.352 E.01314
G1 X131.373 Y92.792 E.20568
G1 X130.954 Y93.211 E.01858
G1 X130.954 Y99.352 E.19255
G1 X130.535 Y99.352 E.01314
G1 X130.535 Y93.63 E.17941
G1 X130.116 Y94.049 E.01858
G1 X130.116 Y99.352 E.16627
G1 X130.021 Y99.352 E.00298
G1 X130.021 Y101.66 E.07237
G1 X129.697 Y101.66 E.01016
G1 X129.697 Y94.468 E.2255
G1 X129.278 Y94.876 E.01834
G1 X129.278 Y101.66 E.21271
G1 X128.859 Y101.66 E.01314
G1 X128.859 Y95.256 E.20079
G1 X128.44 Y95.636 E.01774
G1 X128.44 Y101.66 E.18888
G1 X128.021 Y101.66 E.01314
G1 X128.021 Y96.016 E.17696
G1 X127.602 Y96.341 E.01663
G1 X127.602 Y101.66 E.16677
G1 X127.183 Y101.66 E.01314
G1 X127.183 Y96.651 E.15705
G1 X126.764 Y96.962 E.01636
G1 X126.764 Y101.66 E.1473
G1 X126.345 Y101.66 E.01314
G1 X126.345 Y97.272 E.13758
G1 X125.926 Y97.524 E.01533
G1 X125.926 Y101.66 E.12968
G1 X125.507 Y101.66 E.01314
G1 X125.507 Y97.775 E.12181
G1 X125.088 Y98.027 E.01533
G1 X125.088 Y103.967 E.18624
G1 X124.669 Y103.967 E.01314
G1 X124.669 Y98.278 E.17837
G1 X124.25 Y98.479 E.01457
G1 X124.25 Y103.967 E.17207
G1 X123.832 Y103.967 E.01311
G1 X123.832 Y98.677 E.16586
G1 X123.413 Y98.876 E.01454
G1 X123.413 Y103.967 E.15962
G1 X122.994 Y103.967 E.01314
G1 X122.994 Y99.074 E.15342
G1 X122.575 Y99.24 E.01413
G1 X122.575 Y103.967 E.14821
G1 X122.156 Y103.967 E.01314
G1 X122.156 Y99.39 E.14351
G1 X121.737 Y99.54 E.01395
G1 X121.737 Y103.967 E.13881
G1 X121.318 Y103.967 E.01314
G1 X121.318 Y99.69 E.1341
G1 X120.899 Y99.83 E.01385
G1 X120.899 Y103.967 E.12971
G1 X120.48 Y103.967 E.01314
G1 X120.48 Y99.935 E.12642
G1 X120.061 Y100.04 E.01354
G1 X120.061 Y103.967 E.12313
G1 X119.642 Y103.967 E.01314
G1 X119.642 Y100.145 E.11984
G1 X119.223 Y100.25 E.01354
G1 X119.223 Y103.967 E.11654
G1 X118.804 Y103.967 E.01314
G1 X118.804 Y100.329 E.11407
G1 X118.385 Y100.391 E.01328
G1 X118.385 Y103.967 E.11212
G1 X117.966 Y103.967 E.01314
G1 X117.966 Y100.453 E.11018
G1 X117.547 Y100.515 E.01328
G1 X117.547 Y103.967 E.10824
G1 X117.128 Y103.967 E.01314
G1 X117.128 Y100.577 E.10629
G1 X116.709 Y100.6 E.01316
G1 X116.709 Y103.967 E.10557
G1 X116.29 Y103.967 E.01314
G1 X116.29 Y100.621 E.10491
G1 X115.871 Y100.642 E.01315
G1 X115.871 Y103.967 E.10425
G1 X115.452 Y103.967 E.01314
G1 X115.452 Y100.662 E.10363
G1 X115.033 Y100.677 E.01315
G1 X115.033 Y103.967 E.10316
G1 X114.614 Y103.967 E.01314
G1 X114.614 Y100.677 E.10316
G1 X114.195 Y100.677 E.01314
G1 X114.195 Y103.967 E.10316
G1 X113.776 Y103.967 E.01314
G1 X113.776 Y100.677 E.10316
G1 X113.357 Y100.677 E.01314
G1 X113.357 Y103.967 E.10316
G1 X112.938 Y103.967 E.01314
G1 X112.938 Y100.677 E.10316
G1 X112.519 Y100.677 E.01314
G1 X112.519 Y103.967 E.10316
G1 X112.1 Y103.967 E.01314
G1 X112.1 Y100.677 E.10316
G1 X111.681 Y100.677 E.01314
G1 X111.681 Y103.967 E.10316
G1 X111.262 Y103.967 E.01314
G1 X111.262 Y100.677 E.10316
G1 X110.843 Y100.677 E.01314
G1 X110.843 Y103.967 E.10316
G1 X110.424 Y103.967 E.01314
G1 X110.424 Y100.677 E.10316
G1 X110.005 Y100.677 E.01314
G1 X110.005 Y103.967 E.10316
G1 X109.586 Y103.967 E.01314
G1 X109.586 Y100.677 E.10316
G1 X109.167 Y100.677 E.01314
G1 X109.167 Y103.967 E.10316
G1 X108.748 Y103.967 E.01314
G1 X108.748 Y100.677 E.10316
G1 X108.329 Y100.677 E.01314
G1 X108.329 Y103.967 E.10316
G1 X107.91 Y103.967 E.01314
G1 X107.91 Y100.677 E.10316
G1 X107.491 Y100.677 E.01314
G1 X107.491 Y103.967 E.10316
G1 X107.072 Y103.967 E.01314
G1 X107.072 Y100.677 E.10316
G1 X106.653 Y100.677 E.01314
G1 X106.653 Y103.967 E.10316
G1 X106.234 Y103.967 E.01314
G1 X106.234 Y100.677 E.10316
G1 X105.816 Y100.677 E.01311
G1 X105.816 Y103.967 E.10316
G1 X105.397 Y103.967 E.01314
G1 X105.397 Y100.677 E.10316
G1 X104.978 Y100.677 E.01314
G1 X104.978 Y103.967 E.10316
G1 X104.559 Y103.967 E.01314
G1 X104.559 Y100.677 E.10316
G1 X104.14 Y100.677 E.01314
G1 X104.14 Y103.967 E.10316
G1 X103.721 Y103.967 E.01314
G1 X103.721 Y100.677 E.10316
G1 X103.302 Y100.677 E.01314
G1 X103.302 Y103.967 E.10316
G1 X102.883 Y103.967 E.01314
G1 X102.883 Y100.677 E.10316
G1 X102.464 Y100.677 E.01314
G1 X102.464 Y103.967 E.10316
G1 X102.045 Y103.967 E.01314
G1 X102.045 Y100.677 E.10316
G1 X101.626 Y100.675 E.01314
G1 X101.626 Y103.967 E.10322
G1 X101.207 Y103.967 E.01314
G1 X101.207 Y100.655 E.10385
G1 X100.788 Y100.634 E.01315
G1 X100.788 Y103.967 E.1045
G1 X100.369 Y103.967 E.01314
G1 X100.369 Y100.614 E.10513
G1 X99.95 Y100.593 E.01315
G1 X99.95 Y103.967 E.10579
G1 X99.531 Y103.967 E.01314
G1 X99.531 Y100.555 E.10698
G1 X99.112 Y100.493 E.01328
G1 X99.112 Y103.967 E.10892
G1 X98.693 Y103.967 E.01314
G1 X98.693 Y100.431 E.11087
G1 X98.274 Y100.369 E.01328
G1 X98.274 Y103.967 E.11281
G1 X97.855 Y103.967 E.01314
G1 X97.855 Y100.307 E.11476
G1 X97.436 Y100.213 E.01346
G1 X97.436 Y103.967 E.1177
G1 X97.017 Y103.967 E.01314
G1 X97.017 Y100.108 E.121
G1 X96.598 Y100.003 E.01354
G1 X96.598 Y103.967 E.12429
G1 X96.179 Y103.967 E.01314
G1 X96.179 Y99.898 E.12758
G1 X95.76 Y99.787 E.01359
G1 X95.76 Y103.967 E.13106
G1 X95.341 Y103.967 E.01314
G1 X95.341 Y99.637 E.13576
G1 X94.922 Y99.487 E.01395
G1 X94.922 Y103.967 E.14047
G1 X94.503 Y103.967 E.01314
G1 X94.503 Y99.337 E.14517
G1 X94.084 Y99.187 E.01395
G1 X94.084 Y103.967 E.14987
G1 X93.665 Y103.967 E.01314
G1 X93.665 Y99.004 E.15561
G1 X93.246 Y98.806 E.01453
