; generated by PrusaSlicer 2.9.2 on 2025-05-06 at 10:24:30 UTC


;
;
; 

; external perimeters extrusion width = 0.45mm
; perimeters extrusion width = 0.45mm
; infill extrusion width = 0.45mm
; solid infill extrusion width = 0.45mm
; top infill extrusion width = 0.40mm
; support material extrusion width = 0.35mm
; first layer extrusion width = 0.42mm

M73 P0 R8
M73 Q0 S8
M201 X1000 Y1000 Z200 E5000 ; sets maximum accelerations, mm/sec^2
M203 X200 Y200 Z12 E120 ; sets maximum feedrates, mm / sec
M204 S1250 T1250 ; sets acceleration (S) and retract acceleration (R), mm/sec^2
M205 X8.00 Y8.00 Z0.40 E4.50 ; sets the jerk limits, mm/sec
M205 S0 T0 ; sets the minimum extruding and travel feed rate, mm/sec

; printing object gripper_motor_flange.STL id:0 copy 0
; stop printing object gripper_motor_flange.STL id:0 copy 0

;TYPE:Custom
M862.3 P "MK3S" ; printer model check
M862.1 P0.4 ; nozzle diameter check
M115 U3.14.1 ; tell printer latest fw version
G90 ; use absolute coordinates
M83 ; extruder relative mode
M104 S215 ; set extruder temp
M140 S60 ; set bed temp
M190 S60 ; wait for bed temp
M109 S215 ; wait for extruder temp
G28 W ; home all without mesh bed level
G80 X102.244 Y90.521 W26.4862 H26.4851 ; mesh bed levelling

G1 Z0.2 F720
G1 Y-3 F1000 ; go outside print area
G92 E0
G1 X60 E9 F1000 ; intro line
G1 X100 E12.5 F1000 ; intro line

G92 E0
M221 S95

; Don't change E values below. Excessive value can damage the printer.
M907 E430 ; set extruder motor current
G21 ; set units to millimeters
G90 ; use absolute coordinates
M83 ; use relative distances for extrusion

M900 K0.05 ; Filament gcode LA 1.5
M900 K30 ; Filament gcode LA 1.0




M107
;LAYER_CHANGE
;Z:0.2
;HEIGHT:0.2
G1 E-.8 F2100
M73 P1 R7
M73 Q1 S7
G1 Z.6 F720
G1 X105.379 Y95.496 F10800
G1 Z.2 F720
G1 E.8 F2100
M204 S800
;TYPE:Skirt/Brim
;WIDTH:0.42
G1 F1200
G1 X106.878 Y93.945 E.06763
G1 X108.612 Y92.662 E.06763
G1 X110.927 Y91.527 E.08084
G1 X113.004 Y90.943 E.06765
G1 X114.724 Y90.727 E.05435
G1 X116.583 Y90.768 E.0583
G1 X117.301 Y90.832 E.0226
G1 X118.999 Y91.186 E.05438
G1 X121.021 Y91.935 E.06761
G1 X123.237 Y93.253 E.08084
G1 X124.862 Y94.672 E.06764
G1 X126.23 Y96.339 E.06761
G1 X127.119 Y97.828 E.05437
G1 X127.937 Y99.824 E.06763
G1 X128.416 Y101.927 E.06763
G1 X128.525 Y104.503 E.08084
G1 X128.225 Y106.639 E.06763
G1 X127.578 Y108.697 E.06764
G1 X126.818 Y110.255 E.05435
G1 X125.652 Y111.951 E.06453
G1 X124.096 Y113.582 E.07068
G1 X122.363 Y114.866 E.06763
G1 X120.047 Y116 E.08085
M73 Q2 S7
G1 X118.385 Y116.496 E.05438
G1 X116.25 Y116.8 E.06762
G1 X114.094 Y116.748 E.06762
M73 P2 R7
G1 X111.976 Y116.341 E.06762
G1 X109.573 Y115.406 E.08085
G1 X107.737 Y114.274 E.06763
G1 X106.113 Y112.855 E.06762
G1 X104.744 Y111.188 E.06763
G1 X103.669 Y109.318 E.06763
G1 X103.037 Y107.703 E.05438
G1 X102.558 Y105.6 E.06763
G1 X102.45 Y103.024 E.08084
G1 X102.749 Y100.888 E.06763
G1 X103.396 Y98.831 E.06761
G1 X104.156 Y97.272 E.05438
G1 X105.345 Y95.545 E.06574
M204 S1000
G1 X105.655 Y95.759 F10800
M204 S800
G1 F1200
G1 X105.687 Y95.714 E.00173
G1 X107.145 Y94.211 E.06566
G1 X108.831 Y92.968 E.06568
G1 X111.035 Y91.888 E.07696
G1 X113.051 Y91.317 E.0657
G1 X114.771 Y91.101 E.05435
G1 X116.568 Y91.144 E.05636
G1 X117.224 Y91.201 E.02065
G1 X118.922 Y91.555 E.05438
G1 X120.884 Y92.287 E.06566
G1 X122.994 Y93.541 E.07696
G1 X124.574 Y94.916 E.06567
G1 X125.906 Y96.533 E.06569
G1 X126.795 Y98.022 E.05437
G1 X127.586 Y99.961 E.06566
G1 X128.047 Y102.005 E.0657
G1 X128.151 Y104.457 E.07695
G1 X127.938 Y106.178 E.05437
G1 X127.399 Y108.099 E.06256
G1 X126.479 Y110.09 E.06877
G1 X125.288 Y111.813 E.06567
G1 X123.554 Y113.55 E.07696
G1 X121.833 Y114.744 E.06568
G1 X119.939 Y115.639 E.06568
G1 X118.277 Y116.135 E.05438
G1 X116.203 Y116.426 E.06567
G1 X114.109 Y116.371 E.06568
G1 X112.053 Y115.972 E.06567
G1 X110.09 Y115.24 E.06569
G1 X108.275 Y114.195 E.06567
G1 X106.4 Y112.611 E.07696
M73 Q3 S7
G1 X105.068 Y110.994 E.06569
G1 X104.179 Y109.505 E.05437
G1 X103.388 Y107.566 E.06566
M73 P3 R7
G1 X102.927 Y105.523 E.06567
G1 X102.824 Y103.07 E.07698
G1 X103.111 Y100.995 E.06568
G1 X103.735 Y98.996 E.06566
G1 X104.495 Y97.437 E.05438
G1 X105.621 Y95.809 E.06206
M204 S1000
;WIPE_START
G1 F8640
G1 X105.655 Y95.759 E-.01396
G1 X105.687 Y95.714 E-.01275
G1 X107.145 Y94.211 E-.48351
G1 X108.155 Y93.466 E-.28978
;WIPE_END
G1 Z.6 F720
; printing object gripper_motor_flange.STL id:0 copy 0
G1 X116.167 Y99.813 F10800
G1 Z.2 F720
G1 E.8 F2100
M204 S800
;TYPE:Support material
G1 F1200
G1 X117.156 Y100.11 E.03238
G1 X117.981 Y100.615 E.03033
G1 X118.662 Y101.304 E.03037
G1 X119.159 Y102.135 E.03036
G1 X119.442 Y103.061 E.03036
G1 X119.495 Y104.028 E.03037
G1 X119.315 Y104.979 E.03035
G1 X118.913 Y105.86 E.03036
G1 X118.312 Y106.619 E.03036
G1 X117.546 Y107.212 E.03037
G1 X116.661 Y107.605 E.03036
G1 X115.708 Y107.774 E.03035
G1 X114.742 Y107.71 E.03035
G1 X113.819 Y107.417 E.03036
G1 X112.993 Y106.912 E.03036
G1 X112.312 Y106.223 E.03037
G1 X111.816 Y105.392 E.03034
G1 X111.533 Y104.466 E.03036
G1 X111.479 Y103.499 E.03037
G1 X111.659 Y102.548 E.03035
G1 X112.061 Y101.667 E.03036
G1 X112.663 Y100.908 E.03037
G1 X113.428 Y100.315 E.03035
G1 X114.313 Y99.922 E.03036
G1 X115.267 Y99.753 E.03038
G1 X116.111 Y99.809 E.02652
M204 S1000
G1 X115.437 Y99.801 F10800
M204 S800
G1 F1200
G1 X116.701 Y99.973 E.04
G1 X117.776 Y100.508 E.03765
G1 X118.558 Y101.231 E.03339
G1 X119.147 Y102.199 E.03553
G1 X119.447 Y103.361 E.03763
G1 X119.4 Y104.493 E.03552
G1 X119.036 Y105.566 E.03553
G1 X118.431 Y106.442 E.03338
G1 X117.498 Y107.198 E.03765
G1 X116.515 Y107.609 E.03341
G1 X115.39 Y107.743 E.03552
G1 X114.208 Y107.533 E.03764
G1 X113.255 Y107.059 E.03337
G1 X112.417 Y106.296 E.03553
G1 X111.828 Y105.328 E.03553
G1 X111.527 Y104.166 E.03764
G1 X111.562 Y103.102 E.03338
G1 X111.862 Y102.163 E.03091
G1 X112.543 Y101.085 E.03998
G1 X113.476 Y100.329 E.03765
G1 X114.459 Y99.919 E.03339
G1 X115.38 Y99.807 E.02909
M204 S1000
;WIPE_START
G1 F8640
G1 X114.459 Y99.919 E-.21423
G1 X113.476 Y100.329 E-.24593
G1 X112.543 Y101.085 E-.27728
G1 X112.398 Y101.314 E-.06256
;WIPE_END
G1 Z.6 F720
G1 X116.356 Y101.677 F10800
G1 Z.2 F720
G1 E.8 F2100
M204 S800
G1 F1200
G1 X116.977 Y102.059 E.02286
G1 X117.431 Y102.603 E.02222
G1 X117.695 Y103.26 E.0222
G1 X117.742 Y103.967 E.02222
G1 X117.569 Y104.654 E.02221
G1 X117.192 Y105.254 E.02222
G1 X116.648 Y105.707 E.0222
G1 X115.99 Y105.971 E.02223
G1 X115.306 Y106.017 E.02149
M73 Q4 S7
G1 X114.597 Y105.845 E.02287
G1 X113.997 Y105.468 E.02222
G1 X113.543 Y104.924 E.02222
G1 X113.28 Y104.267 E.02219
G1 X113.232 Y103.56 E.02222
G1 X113.406 Y102.873 E.02222
G1 X113.783 Y102.273 E.02222
G1 X114.327 Y101.82 E.0222
G1 X114.984 Y101.556 E.0222
G1 X115.691 Y101.509 E.02222
M73 P4 R7
G1 X116.301 Y101.663 E.01973
M204 S1000
G1 X117.163 Y104.98 F10800
M204 S800
G1 F1200
G1 X117.163 Y102.847 E.06688
G1 X116.751 Y102.318 E.02102
G1 X116.744 Y105.185 E.08989
G1 X116.325 Y105.471 E.01591
G1 X116.325 Y102.05 E.10726
G1 X115.906 Y101.913 E.01382
G1 X115.906 Y105.636 E.11673
G1 X115.487 Y105.665 E.01317
G1 X115.487 Y101.863 E.11921
G1 X115.068 Y101.891 E.01317
G1 X115.068 Y105.614 E.11673
G1 X114.649 Y105.477 E.01382
G1 X114.649 Y102.056 E.10726
G1 X114.23 Y102.342 E.01591
G1 X114.23 Y105.214 E.09005
G1 X113.811 Y104.681 E.02126
G1 X113.811 Y102.547 E.06691
M204 S1000
;WIPE_START
G1 F8640
G1 X113.811 Y104.681 E-.49275
G1 X114.23 Y105.214 E-.15655
G1 X114.23 Y104.561 E-.1507
;WIPE_END
G1 Z.6 F720
G1 X111.607 Y106.769 F10800
G1 Z.2 F720
G1 E.8 F2100
M204 S800
;TYPE:External perimeter
;WIDTH:0.419999
G1 F1200
G1 X111.008 Y105.775 E.03639
G1 X110.677 Y104.71 E.03497
;WIDTH:0.455248
G1 X110.624 Y104.275 E.01502
;WIDTH:0.490497
G1 X110.572 Y103.84 E.0163
G1 X110.558 Y103.412 E.01594
;WIDTH:0.484201
G1 X110.635 Y103.089 E.01218
;WIDTH:0.4521
G1 X110.712 Y102.766 E.0113
;WIDTH:0.419999
G1 X110.814 Y102.255 E.01634
G1 X111.287 Y101.22 E.03568
G1 X112.05 Y100.257 E.03852
G1 X112.95 Y99.559 E.03571
G1 X114.074 Y99.061 E.03855
G1 X115.195 Y98.862 E.0357
G1 X116.236 Y98.925 E.0327
G1 X116.421 Y98.943 E.00583
G1 X117.548 Y99.306 E.03712
G1 X118.519 Y99.901 E.03571
G1 X119.355 Y100.739 E.03711
G1 X119.967 Y101.752 E.03711
G1 X120.298 Y102.817 E.03497
;WIDTH:0.460584
G1 X120.353 Y103.252 E.01523
;WIDTH:0.501169
G1 X120.408 Y103.687 E.01671
G1 X120.419 Y104.116 E.01635
;WIDTH:0.4885
G1 X120.341 Y104.439 E.01231
;WIDTH:0.45425
G1 X120.262 Y104.761 E.01134
;WIDTH:0.419999
G1 X120.16 Y105.272 E.01634
G1 X119.687 Y106.307 E.03568
G1 X118.924 Y107.271 E.03855
G1 X118.024 Y107.968 E.03569
G1 X117.16 Y108.357 E.02971
G1 X116.901 Y108.466 E.00881
G1 X115.78 Y108.665 E.0357
G1 X114.553 Y108.584 E.03856
G1 X113.468 Y108.24 E.03569
G1 X112.456 Y107.626 E.03711
G1 X111.645 Y106.815 E.03596
M204 S1000
;WIPE_START
G1 F8640
G1 X111.607 Y106.769 E-.01378
G1 X111.008 Y105.775 E-.26797
G1 X110.677 Y104.71 E-.25751
G1 X110.624 Y104.275 E-.10119
G1 X110.572 Y103.84 E-.10116
G1 X110.563 Y103.587 E-.05839
;WIPE_END
G1 Z.6 F720
G1 X107.193 Y101.843 F10800
G1 Z.2 F720
G1 E.8 F2100
M204 S800
G1 F1200
G1 X107.95 Y101.678 E.02429
G1 X108.751 Y101.823 E.02552
G1 X109.436 Y102.263 E.02553
G1 X109.9 Y102.931 E.0255
;WIDTH:0.4521
G1 X109.972 Y103.173 E.00859
M73 Q5 S7
;WIDTH:0.484201
G1 X110.043 Y103.414 E.00922
;WIDTH:0.497389
G1 X110.114 Y103.79 E.01446
G1 X110.021 Y104.159 E.01438
;WIDTH:0.458694
G1 X109.928 Y104.528 E.01316
;WIDTH:0.419999
G1 X109.488 Y105.212 E.0255
G1 X108.819 Y105.676 E.02553
G1 X108.024 Y105.849 E.02551
G1 X107.223 Y105.705 E.02552
G1 X106.538 Y105.264 E.02554
;WIDTH:0.422231
G1 X106.182 Y104.758 E.01951
;WIDTH:0.457439
G1 X106.119 Y104.685 E.00332
;WIDTH:0.492647
G1 X106.056 Y104.612 E.00361
M73 P5 R7
;WIDTH:0.527855
G1 X105.993 Y104.538 E.00392
G1 X105.935 Y104.172 E.01494
;WIDTH:0.499221
G1 X105.877 Y103.805 E.0141
;WIDTH:0.498905
G1 X105.935 Y103.397 E.01562
;WIDTH:0.527222
G1 X105.994 Y102.989 E.0166
G1 X106.158 Y102.764 E.01121
;WIDTH:0.491481
G1 X106.322 Y102.539 E.01038
;WIDTH:0.45574
G1 X106.486 Y102.315 E.00953
;WIDTH:0.419999
G1 X107.137 Y101.863 E.02485
M204 S1000
;WIPE_START
G1 F8640
G1 X107.193 Y101.843 E-.01373
G1 X107.95 Y101.678 E-.1789
G1 X108.751 Y101.823 E-.18796
G1 X109.436 Y102.263 E-.18799
G1 X109.9 Y102.931 E-.1878
G1 X109.954 Y103.112 E-.04362
;WIPE_END
G1 Z.6 F720
G1 X125.092 Y103.764 F10800
G1 Z.2 F720
G1 E.8 F2100
M204 S800
;WIDTH:0.498902
G1 F1200
G1 X125.039 Y104.13 E.01402
;WIDTH:0.527218
G1 X124.981 Y104.538 E.0166
G1 X124.817 Y104.763 E.01121
;WIDTH:0.491479
G1 X124.652 Y104.988 E.01041
;WIDTH:0.455739
G1 X124.488 Y105.212 E.00953
;WIDTH:0.419999
G1 X123.819 Y105.676 E.02553
G1 X123.024 Y105.849 E.02551
G1 X122.77 Y105.813 E.00804
G1 X122.223 Y105.705 E.01748
G1 X121.538 Y105.264 E.02554
G1 X121.074 Y104.596 E.0255
;WIDTH:0.45425
G1 X121.002 Y104.355 E.0086
;WIDTH:0.4885
G1 X120.929 Y104.113 E.00937
;WIDTH:0.501169
G1 X120.862 Y103.719 E.01523
G1 X120.954 Y103.359 E.01416
;WIDTH:0.460584
G1 X121.046 Y102.999 E.0129
;WIDTH:0.419999
G1 X121.486 Y102.315 E.0255
G1 X122.155 Y101.851 E.02553
G1 X122.95 Y101.678 E.02551
G1 X123.751 Y101.823 E.02552
G1 X124.436 Y102.263 E.02553
G1 X124.792 Y102.77 E.01942
;WIDTH:0.45595
G1 X124.855 Y102.843 E.00331
;WIDTH:0.491901
G1 X124.918 Y102.916 E.0036
;WIDTH:0.527852
G1 X124.981 Y102.989 E.00389
G1 X125.039 Y103.355 E.01494
;WIDTH:0.499219
G1 X125.095 Y103.705 E.01345
M204 S1000
;WIPE_START
G1 F8640
G1 X125.092 Y103.764 E-.01364
G1 X125.039 Y104.13 E-.08539
G1 X124.981 Y104.538 E-.09516
G1 X124.817 Y104.763 E-.06429
G1 X124.652 Y104.988 E-.06443
G1 X124.488 Y105.212 E-.0641
G1 X123.819 Y105.676 E-.18799
G1 X123.024 Y105.849 E-.18786
G1 X122.865 Y105.827 E-.03714
;WIPE_END
G1 Z.6 F720
G1 X110.298 Y102.926 F10800
G1 Z.2 F720
G1 E.8 F2100
M204 S800
;TYPE:Perimeter
;WIDTH:0.419999
G1 F1200
G1 X110.214 Y102.722 E.00692
G1 X109.95 Y102.327 E.0149
G1 X109.645 Y101.949 E.01523
G1 X109.102 Y101.586 E.02048
G1 X108.825 Y101.453 E.00963
G1 X108.278 Y101.344 E.01749
G1 X107.877 Y101.308 E.01262
G1 X107.412 Y101.4 E.01486
G1 X106.946 Y101.537 E.01523
G1 X106.329 Y101.949 E.02326
G1 X106.173 Y102.105 E.00692
G1 X105.889 Y102.53 E.01603
G1 X105.982 Y101.779 E.02373
G1 X106.438 Y100.242 E.05027
G1 X107.141 Y98.8 E.0503
G1 X108.072 Y97.494 E.05029
G1 X109.205 Y96.359 E.05028
G1 X110.509 Y95.426 E.05027
G1 X111.949 Y94.721 E.05027
G1 X113.486 Y94.262 E.05029
G1 X115.077 Y94.062 E.05028
G1 X116.68 Y94.127 E.0503
G1 X118.25 Y94.455 E.05029
G1 X119.744 Y95.036 E.05026
G1 X121.123 Y95.856 E.0503
G1 X122.347 Y96.891 E.05026
G1 X123.385 Y98.114 E.0503
G1 X124.207 Y99.491 E.05028
G1 X124.791 Y100.985 E.05029
G1 X125.122 Y102.555 E.05031
G1 X125.123 Y102.587 E.001
G1 X124.802 Y102.105 E.01816
G1 X124.645 Y101.949 E.00694
G1 X124.036 Y101.542 E.02297
G1 X123.825 Y101.453 E.00718
G1 X123.098 Y101.308 E.02324
G1 X122.877 Y101.308 E.00693
G1 X122.149 Y101.453 E.02327
G1 X121.946 Y101.537 E.00689
G1 X121.504 Y101.832 E.01666
G1 X121.173 Y102.105 E.01345
G1 X120.695 Y102.866 E.02818
G1 X120.29 Y101.559 E.0429
G1 X120.018 Y101.103 E.01665
G1 X119.623 Y100.473 E.02331
G1 X118.716 Y99.579 E.03993
G1 X117.744 Y98.985 E.03572
G1 X117.62 Y98.928 E.00428
G1 X116.535 Y98.583 E.0357
G1 X116.26 Y98.549 E.00869
G1 X115.129 Y98.491 E.03551
G1 X114.008 Y98.69 E.0357
G1 X113.661 Y98.825 E.01167
G1 X112.72 Y99.261 E.03252
G1 X111.819 Y99.958 E.03572
G1 X111.517 Y100.314 E.01464
G1 X110.944 Y101.063 E.02957
M73 Q6 S7
G1 X110.43 Y102.229 E.03995
G1 X110.309 Y102.867 E.02036
M204 S1000
;WIPE_START
G1 F8640
G1 X110.298 Y102.926 E-.01386
G1 X110.214 Y102.722 E-.05094
G1 X109.95 Y102.327 E-.1097
G1 X109.645 Y101.949 E-.11215
G1 X109.102 Y101.586 E-.15082
G1 X108.825 Y101.453 E-.07095
G1 X108.278 Y101.344 E-.12879
G1 X107.877 Y101.308 E-.09296
G1 X107.58 Y101.367 E-.06983
;WIPE_END
G1 Z.6 F720
G1 X111.315 Y106.995 F10800
M73 P6 R7
G1 Z.2 F720
G1 E.8 F2100
M204 S800
G1 F1200
G1 X111.351 Y107.054 E.00217
G1 X112.259 Y107.948 E.03995
G1 X113.23 Y108.542 E.03569
G1 X113.354 Y108.599 E.00428
G1 X114.439 Y108.944 E.0357
G1 X114.714 Y108.978 E.00869
G1 X115.845 Y109.036 E.03551
G1 X116.967 Y108.837 E.03573
G1 X117.313 Y108.702 E.01165
G1 X118.255 Y108.266 E.03255
G1 X119.155 Y107.569 E.03569
G1 X119.458 Y107.213 E.01466
G1 X120.03 Y106.464 E.02955
G1 X120.544 Y105.298 E.03995
G1 X120.676 Y104.601 E.02224
G1 X120.761 Y104.805 E.00693
G1 X121.025 Y105.2 E.0149
G1 X121.329 Y105.578 E.01521
G1 X121.872 Y105.941 E.02048
G1 X122.149 Y106.074 E.00963
G1 X122.697 Y106.183 E.01752
G1 X123.098 Y106.219 E.01262
G1 X123.562 Y106.127 E.01483
G1 X124.029 Y105.99 E.01526
G1 X124.645 Y105.578 E.02324
G1 X124.802 Y105.422 E.00694
G1 X125.085 Y104.997 E.01601
G1 X124.992 Y105.748 E.02373
G1 X124.536 Y107.285 E.05027
G1 X123.833 Y108.727 E.0503
G1 X122.902 Y110.033 E.05029
G1 X121.769 Y111.168 E.05028
G1 X120.465 Y112.101 E.05027
G1 X119.025 Y112.806 E.05027
G1 X117.488 Y113.265 E.05029
G1 X115.897 Y113.465 E.05028
G1 X114.295 Y113.4 E.05027
G1 X112.725 Y113.073 E.05028
G1 X111.23 Y112.491 E.0503
G1 X109.852 Y111.671 E.05028
G1 X108.627 Y110.636 E.05028
G1 X107.59 Y109.413 E.05028
G1 X106.767 Y108.036 E.0503
G1 X106.183 Y106.542 E.05029
G1 X105.965 Y105.509 E.0331
;WIDTH:0.422231
G1 X105.855 Y104.952 E.01791
G1 X106.173 Y105.422 E.0179
;WIDTH:0.419999
G1 X106.329 Y105.578 E.00692
G1 X106.939 Y105.985 E.02299
G1 X107.149 Y106.074 E.00715
G1 X107.877 Y106.219 E.02327
G1 X108.098 Y106.219 E.00693
G1 X108.825 Y106.074 E.02324
G1 X109.029 Y105.99 E.00692
G1 X109.471 Y105.695 E.01666
G1 X109.802 Y105.422 E.01345
G1 X110.279 Y104.661 E.02816
G1 X110.684 Y105.968 E.0429
G1 X110.956 Y106.425 E.01667
G1 X111.283 Y106.945 E.01926
M204 S1000
;WIPE_START
G1 F8640
G1 X111.315 Y106.995 E-.01371
G1 X111.351 Y107.054 E-.01596
G1 X112.259 Y107.948 E-.29423
G1 X113.23 Y108.542 E-.26283
G1 X113.354 Y108.599 E-.03151
G1 X114.104 Y108.837 E-.18176
;WIPE_END
G1 Z.6 F720
G1 X119.13 Y113.168 F10800
G1 Z.2 F720
G1 E.8 F2100
M204 S800
;TYPE:External perimeter
G1 F1200
G1 X117.566 Y113.636 E.05119
G1 X115.913 Y113.843 E.05223
