; generated by PrusaSlicer 2.9.2 on 2025-05-06 at 10:26:41 UTC


;
;
; 

; external perimeters extrusion width = 0.45mm
; perimeters extrusion width = 0.45mm
; infill extrusion width = 0.45mm
; solid infill extrusion width = 0.45mm
; top infill extrusion width = 0.40mm
; support material extrusion width = 0.35mm
; first layer extrusion width = 0.42mm

M73 P0 R67
M73 Q0 S67
M201 X1000 Y1000 Z200 E5000 ; sets maximum accelerations, mm/sec^2
M203 X200 Y200 Z12 E120 ; sets maximum feedrates, mm / sec
M204 S1250 T1250 ; sets acceleration (S) and retract acceleration (R), mm/sec^2
M205 X8.00 Y8.00 Z0.40 E4.50 ; sets the jerk limits, mm/sec
M205 S0 T0 ; sets the minimum extruding and travel feed rate, mm/sec

; printing object gripper_upper_palm.STL id:0 copy 0
; stop printing object gripper_upper_palm.STL id:0 copy 0

;TYPE:Custom
M862.3 P "MK3S" ; printer model check
M862.1 P0.4 ; nozzle diameter check
M115 U3.14.1 ; tell printer latest fw version
G90 ; use absolute coordinates
M83 ; extruder relative mode
M104 S215 ; set extruder temp
M140 S60 ; set bed temp
M190 S60 ; wait for bed temp
M109 S215 ; wait for extruder temp
G28 W ; home all without mesh bed level
G80 X61.2866 Y64.7725 W70.6251 H61.3968 ; mesh bed levelling

G1 Z0.2 F720
G1 Y-3 F1000 ; go outside print area
G92 E0
G1 X60 E9 F1000 ; intro line
G1 X100 E12.5 F1000 ; intro line
M73 P0 R66

G92 E0
M221 S95

; Don't change E values below. Excessive value can damage the printer.
M907 E430 ; set extruder motor current
G21 ; set units to millimeters
G90 ; use absolute coordinates
M83 ; use relative distances for extrusion

M900 K0.05 ; Filament gcode LA 1.5
M900 K30 ; Filament gcode LA 1.0




M107
;LAYER_CHANGE
;Z:0.2
;HEIGHT:0.2
G1 E-.8 F2100
G1 Z.6 F720
G1 X66.967 Y65.397 F10800
G1 Z.2 F720
G1 E.8 F2100
M204 S800
;TYPE:Skirt/Brim
;WIDTH:0.42
G1 F1200
G1 X68.278 Y64.961 E.04332
G1 X124.92 Y64.961 E1.77597
G1 X126.169 Y65.352 E.04104
G1 X126.997 Y66.457 E.04329
G1 X131.611 Y80.3 E.45751
G1 X131.723 Y80.992 E.02198
G1 X131.723 Y109.95 E.90796
G1 X131.356 Y111.164 E.03977
G1 X126.741 Y118.085 E.26082
G1 X124.161 Y120.726 E.11576
G1 X123.592 Y121.136 E.02199
G1 X114.364 Y125.75 E.32349
G1 X113.385 Y125.981 E.03154
G1 X79.813 Y125.981 E1.05263
G1 X78.835 Y125.75 E.03151
G1 X74.22 Y123.443 E.16177
G1 X73.652 Y123.033 E.02196
G1 X62.116 Y111.497 E.51153
G1 X61.475 Y109.95 E.0525
G1 X61.475 Y80.992 E.90796
G1 X61.587 Y80.3 E.02198
G1 X66.202 Y66.457 E.45752
G1 X66.932 Y65.446 E.0391
M204 S1000
;WIPE_START
G1 F8640
G1 X66.967 Y65.397 E-.0139
G1 X68.278 Y64.961 E-.31902
G1 X70.301 Y64.961 E-.46708
;WIPE_END
G1 Z.6 F720
; printing object gripper_upper_palm.STL id:0 copy 0
G1 X113.385 Y70.491 F10800
G1 Z.2 F720
G1 E.8 F2100
M204 S800
;TYPE:Support material
G1 F1200
G1 X102.884 Y70.491 E.32925
G1 X102.884 Y67.15 E.10475
G1 X113.385 Y67.15 E.32925
G1 X113.385 Y70.434 E.10297
M204 S1000
G1 X112.939 Y70.321 F10800
M204 S800
G1 F1200
G1 X112.939 Y67.489 E.0888
G1 X112.52 Y67.489 E.01314
G1 X112.52 Y70.152 E.0835
G1 X112.101 Y70.152 E.01314
G1 X112.101 Y67.489 E.0835
G1 X111.682 Y67.489 E.01314
G1 X111.682 Y70.152 E.0835
G1 X111.263 Y70.152 E.01314
M73 Q0 S66
G1 X111.263 Y67.489 E.0835
G1 X110.844 Y67.489 E.01314
G1 X110.844 Y70.152 E.0835
G1 X110.425 Y70.152 E.01314
G1 X110.425 Y67.489 E.0835
G1 X110.006 Y67.489 E.01314
G1 X110.006 Y70.152 E.0835
G1 X109.587 Y70.152 E.01314
G1 X109.587 Y67.489 E.0835
G1 X109.168 Y67.489 E.01314
G1 X109.168 Y70.152 E.0835
G1 X108.749 Y70.152 E.01314
G1 X108.749 Y67.489 E.0835
G1 X108.331 Y67.489 E.01311
G1 X108.331 Y70.152 E.0835
G1 X107.912 Y70.152 E.01314
G1 X107.912 Y67.489 E.0835
G1 X107.493 Y67.489 E.01314
G1 X107.493 Y70.152 E.0835
G1 X107.074 Y70.152 E.01314
G1 X107.074 Y67.489 E.0835
G1 X106.655 Y67.489 E.01314
G1 X106.655 Y70.152 E.0835
G1 X106.236 Y70.152 E.01314
G1 X106.236 Y67.489 E.0835
G1 X105.817 Y67.489 E.01314
G1 X105.817 Y70.152 E.0835
G1 X105.398 Y70.152 E.01314
G1 X105.398 Y67.489 E.0835
G1 X104.979 Y67.489 E.01314
G1 X104.979 Y70.152 E.0835
G1 X104.56 Y70.152 E.01314
G1 X104.56 Y67.489 E.0835
G1 X104.141 Y67.489 E.01314
G1 X104.141 Y70.152 E.0835
G1 X103.722 Y70.152 E.01314
G1 X103.722 Y67.489 E.0835
G1 X103.303 Y67.489 E.01314
G1 X103.303 Y70.321 E.0888
M204 S1000
;WIPE_START
G1 F8640
G1 X103.303 Y67.489 E-.65392
G1 X103.722 Y67.489 E-.09675
G1 X103.722 Y67.703 E-.04933
;WIPE_END
G1 Z.6 F720
G1 X90.314 Y70.491 F10800
G1 Z.2 F720
G1 E.8 F2100
M204 S800
G1 F1200
G1 X79.813 Y70.491 E.32925
G1 X79.813 Y67.15 E.10475
G1 X90.314 Y67.15 E.32925
G1 X90.314 Y70.434 E.10297
M204 S1000
G1 X89.896 Y70.321 F10800
M204 S800
G1 F1200
G1 X89.896 Y67.489 E.0888
G1 X89.477 Y67.489 E.01314
G1 X89.477 Y70.152 E.0835
G1 X89.058 Y70.152 E.01314
G1 X89.058 Y67.489 E.0835
G1 X88.639 Y67.489 E.01314
G1 X88.639 Y70.152 E.0835
G1 X88.22 Y70.152 E.01314
G1 X88.22 Y67.489 E.0835
G1 X87.801 Y67.489 E.01314
G1 X87.801 Y70.152 E.0835
G1 X87.382 Y70.152 E.01314
G1 X87.382 Y67.489 E.0835
G1 X86.963 Y67.489 E.01314
G1 X86.963 Y70.152 E.0835
G1 X86.544 Y70.152 E.01314
G1 X86.544 Y67.489 E.0835
G1 X86.125 Y67.489 E.01314
G1 X86.125 Y70.152 E.0835
G1 X85.706 Y70.152 E.01314
G1 X85.706 Y67.489 E.0835
G1 X85.287 Y67.489 E.01314
G1 X85.287 Y70.152 E.0835
G1 X84.868 Y70.152 E.01314
G1 X84.868 Y67.489 E.0835
G1 X84.449 Y67.489 E.01314
G1 X84.449 Y70.152 E.0835
G1 X84.03 Y70.152 E.01314
G1 X84.03 Y67.489 E.0835
G1 X83.611 Y67.489 E.01314
G1 X83.611 Y70.152 E.0835
G1 X83.192 Y70.152 E.01314
G1 X83.192 Y67.489 E.0835
G1 X82.773 Y67.489 E.01314
G1 X82.773 Y70.152 E.0835
G1 X82.354 Y70.152 E.01314
G1 X82.354 Y67.489 E.0835
G1 X81.935 Y67.489 E.01314
G1 X81.935 Y70.152 E.0835
G1 X81.516 Y70.152 E.01314
G1 X81.516 Y67.489 E.0835
G1 X81.097 Y67.489 E.01314
G1 X81.097 Y70.152 E.0835
G1 X80.678 Y70.152 E.01314
G1 X80.678 Y67.489 E.0835
G1 X80.259 Y67.489 E.01314
G1 X80.259 Y70.321 E.0888
M204 S1000
;WIPE_START
G1 F8640
G1 X80.259 Y67.489 E-.65392
G1 X80.678 Y67.489 E-.09675
G1 X80.678 Y67.703 E-.04933
;WIPE_END
G1 Z.6 F720
G1 X76.472 Y70.491 F10800
G1 Z.2 F720
G1 E.8 F2100
M204 S800
G1 F1200
G1 X73.027 Y70.491 E.10802
G1 X72.746 Y70.772 E.01246
G1 X72.746 Y80.494 E.30483
G1 X72.662 Y80.946 E.01441
G1 X72.446 Y81.3 E.013
G1 X70.947 Y82.265 E.0559
G1 X69.92 Y83.093 E.04136
G1 X68.97 Y84.101 E.04343
G1 X68.205 Y85.176 E.04137
G1 X67.577 Y86.374 E.04241
G1 X67.12 Y87.647 E.04241
G1 X66.841 Y88.97 E.04239
G1 X66.746 Y90.328 E.04268
G1 X66.746 Y96.697 E.1997
G1 X66.843 Y98.649 E.06128
G1 X67.13 Y100.576 E.06109
G1 X67.604 Y102.465 E.06106
G1 X68.262 Y104.299 E.06109
G1 X69.096 Y106.06 E.06109
G1 X70.098 Y107.731 E.06109
G1 X71.961 Y110.154 E.09583
G1 X75.813 Y114.062 E.17205
G1 X77.29 Y115.322 E.06087
G1 X78.859 Y116.485 E.06124
G1 X80.531 Y117.485 E.06109
G1 X82.293 Y118.317 E.0611
G1 X84.105 Y118.966 E.06035
G1 X85.994 Y119.44 E.06106
G1 X87.945 Y119.73 E.06184
G1 X89.873 Y119.824 E.06052
G1 X103.325 Y119.824 E.42178
G1 X105.253 Y119.73 E.06052
G1 X107.204 Y119.44 E.06184
G1 X109.071 Y118.973 E.06034
G1 X110.906 Y118.317 E.0611
G1 X112.688 Y117.474 E.06181
G1 X114.339 Y116.485 E.06034
G1 X115.905 Y115.325 E.0611
G1 X117.353 Y114.013 E.06127
G1 X120.642 Y110.725 E.14582
G1 X121.953 Y109.277 E.06124
G1 X123.1 Y107.731 E.06036
G1 X124.103 Y106.06 E.06111
G1 X124.946 Y104.277 E.06184
G1 X125.594 Y102.465 E.06034
G1 X126.069 Y100.576 E.06107
G1 X126.358 Y98.625 E.06184
G1 X126.452 Y96.697 E.06052
G1 X126.452 Y90.328 E.1997
G1 X126.362 Y89.003 E.04164
G1 X126.087 Y87.679 E.0424
G1 X125.621 Y86.374 E.04345
G1 X124.993 Y85.176 E.04241
G1 X124.208 Y84.075 E.0424
G1 X123.279 Y83.093 E.04238
G1 X122.251 Y82.265 E.04139
G1 X120.753 Y81.3 E.05587
G1 X120.536 Y80.946 E.01302
G1 X120.452 Y80.494 E.01441
G1 X120.452 Y70.772 E.30483
G1 X120.171 Y70.491 E.01246
G1 X116.727 Y70.491 E.10798
G1 X116.727 Y67.15 E.10475
G1 X124.92 Y67.15 E.25689
G1 X124.92 Y78.685 E.36167
G1 X127.228 Y78.685 E.07237
M73 P1 R66
M73 Q1 S66
G1 X127.228 Y80.992 E.07233
G1 X129.535 Y80.992 E.07233
G1 X129.535 Y109.95 E.90796
G1 X127.228 Y109.95 E.07233
G1 X127.228 Y112.257 E.07233
G1 X124.92 Y112.257 E.07237
G1 X124.92 Y116.871 E.14467
G1 X122.613 Y116.871 E.07233
G1 X122.613 Y119.178 E.07233
G1 X117.999 Y119.178 E.14467
G1 X117.999 Y121.485 E.07233
G1 X113.385 Y121.485 E.14467
G1 X113.385 Y123.792 E.07233
G1 X79.813 Y123.792 E1.05263
G1 X79.813 Y121.485 E.07233
G1 X75.199 Y121.485 E.14467
G1 X75.199 Y119.178 E.07233
G1 X72.892 Y119.178 E.07233
G1 X72.892 Y114.564 E.14467
G1 X68.278 Y114.564 E.14467
G1 X68.278 Y112.257 E.07233
G1 X65.971 Y112.257 E.07233
G1 X65.971 Y109.95 E.07233
G1 X63.664 Y109.95 E.07233
G1 X63.664 Y80.992 E.90796
G1 X65.971 Y80.992 E.07233
G1 X65.971 Y78.685 E.07233
G1 X68.278 Y78.685 E.07233
G1 X68.278 Y67.15 E.36167
G1 X76.472 Y67.15 E.25692
G1 X76.472 Y70.434 E.10297
M204 S1000
;WIPE_START
G1 F8640
G1 X76.472 Y67.15 E-.75828
G1 X76.291 Y67.15 E-.04172
;WIPE_END
G1 Z.6 F720
G1 X128.86 Y109.78 F10800
G1 Z.2 F720
G1 E.8 F2100
M204 S800
G1 F1200
G1 X128.86 Y81.331 E.892
G1 X128.441 Y81.331 E.01314
G1 X128.441 Y109.61 E.88667
G1 X128.022 Y109.61 E.01314
G1 X128.022 Y81.331 E.88667
G1 X127.603 Y81.331 E.01314
G1 X127.603 Y109.61 E.88667
G1 X127.184 Y109.61 E.01314
G1 X127.184 Y81.331 E.88667
G1 X126.888 Y81.331 E.00928
G1 X126.888 Y79.024 E.07233
G1 X126.766 Y79.024 E.00383
G1 X126.765 Y111.917 E1.03134
G1 X126.347 Y111.917 E.01311
G1 X126.347 Y100.863 E.34659
G1 X125.928 Y102.535 E.05405
G1 X125.928 Y111.917 E.29417
G1 X125.509 Y111.917 E.01314
M73 P1 R65
G1 X125.509 Y103.712 E.25726
G1 X125.09 Y104.77 E.03568
G1 X125.09 Y111.917 E.22409
G1 X124.671 Y111.917 E.01314
G1 X124.671 Y105.655 E.19634
G1 X124.252 Y106.471 E.02876
G1 X124.252 Y116.532 E.31546
G1 X123.833 Y116.532 E.01314
G1 X123.833 Y107.17 E.29354
G1 X123.414 Y107.869 E.02555
G1 X123.414 Y116.532 E.27162
G1 X122.995 Y116.532 E.01314
G1 X122.995 Y108.442 E.25366
G1 X122.576 Y109.007 E.02205
G1 X122.576 Y116.532 E.23594
G1 X122.274 Y116.532 E.00947
G1 X122.274 Y118.839 E.07233
G1 X122.157 Y118.839 E.00367
G1 X122.157 Y109.559 E.29097
G1 X121.738 Y110.021 E.01956
G1 X121.738 Y118.839 E.27648
G1 X121.319 Y118.839 E.01314
G1 X121.319 Y110.484 E.26197
G1 X120.9 Y110.946 E.01956
G1 X120.9 Y118.839 E.24748
G1 X120.481 Y118.839 E.01314
G1 X120.481 Y111.366 E.23431
G1 X120.062 Y111.785 E.01858
G1 X120.062 Y118.839 E.22117
G1 X119.643 Y118.839 E.01314
G1 X119.643 Y112.204 E.20804
G1 X119.224 Y112.623 E.01858
G1 X119.224 Y118.839 E.1949
G1 X118.805 Y118.839 E.01314
G1 X118.805 Y113.042 E.18176
G1 X118.386 Y113.461 E.01858
G1 X118.386 Y118.839 E.16862
G1 X117.967 Y118.839 E.01314
G1 X117.967 Y113.88 E.15549
G1 X117.548 Y114.295 E.01849
G1 X117.548 Y121.146 E.21481
G1 X117.129 Y121.146 E.01314
G1 X117.129 Y114.675 E.20289
G1 X116.71 Y115.055 E.01774
G1 X116.71 Y121.146 E.19098
G1 X116.291 Y121.146 E.01314
G1 X116.291 Y115.435 E.17906
G1 X115.872 Y115.772 E.01686
G1 X115.872 Y121.146 E.1685
G1 X115.453 Y121.146 E.01314
G1 X115.453 Y116.083 E.15875
G1 X115.034 Y116.393 E.01634
G1 X115.034 Y121.146 E.14903
G1 X114.615 Y121.146 E.01314
G1 X114.615 Y116.704 E.13928
G1 X114.196 Y116.966 E.01549
G1 X114.196 Y121.146 E.13106
G1 X113.777 Y121.146 E.01314
G1 X113.777 Y117.217 E.12319
G1 X113.358 Y117.468 E.01531
G1 X113.358 Y121.146 E.11532
G1 X113.046 Y121.146 E.00978
G1 X113.046 Y123.453 E.07233
G1 X112.939 Y123.453 E.00335
G1 X112.939 Y117.72 E.17975
G1 X112.52 Y117.93 E.0147
G1 X112.52 Y123.453 E.17317
G1 X112.101 Y123.453 E.01314
G1 X112.101 Y118.129 E.16693
G1 X111.682 Y118.327 E.01453
G1 X111.682 Y123.453 E.16072
G1 X111.263 Y123.453 E.01314
G1 X111.263 Y118.525 E.15451
G1 X110.844 Y118.7 E.01424
G1 X110.844 Y123.453 E.14903
G1 X110.425 Y123.453 E.01314
G1 X110.425 Y118.85 E.14432
G1 X110.006 Y119 E.01395
G1 X110.006 Y123.453 E.13962
G1 X109.587 Y123.453 E.01314
G1 X109.587 Y119.15 E.13492
G1 X109.168 Y119.298 E.01393
G1 X109.168 Y123.453 E.13028
G1 X108.749 Y123.453 E.01314
G1 X108.749 Y119.403 E.12698
G1 X108.331 Y119.508 E.01351
G1 X108.331 Y123.453 E.12369
G1 X107.912 Y123.453 E.01314
G1 X107.912 Y119.613 E.1204
G1 X107.493 Y119.718 E.01354
G1 X107.493 Y123.453 E.11711
G1 X107.074 Y123.453 E.01314
G1 X107.074 Y119.804 E.11441
G1 X106.655 Y119.866 E.01328
G1 X106.655 Y123.453 E.11247
G1 X106.236 Y123.453 E.01314
G1 X106.236 Y119.928 E.11052
G1 X105.817 Y119.99 E.01328
G1 X105.817 Y123.453 E.10858
G1 X105.398 Y123.453 E.01314
G1 X105.398 Y120.052 E.10664
G1 X104.979 Y120.083 E.01317
G1 X104.979 Y123.453 E.10566
G1 X104.56 Y123.453 E.01314
G1 X104.56 Y120.103 E.10504
G1 X104.141 Y120.124 E.01315
G1 X104.141 Y123.453 E.10438
G1 X103.722 Y123.453 E.01314
G1 X103.722 Y120.145 E.10372
G1 X103.303 Y120.163 E.01315
G1 X103.303 Y123.453 E.10316
G1 X102.884 Y123.453 E.01314
G1 X102.884 Y120.163 E.10316
G1 X102.465 Y120.163 E.01314
G1 X102.465 Y123.453 E.10316
G1 X102.046 Y123.453 E.01314
G1 X102.046 Y120.163 E.10316
G1 X101.627 Y120.163 E.01314
G1 X101.627 Y123.453 E.10316
G1 X101.208 Y123.453 E.01314
G1 X101.208 Y120.163 E.10316
G1 X100.789 Y120.163 E.01314
G1 X100.789 Y123.453 E.10316
G1 X100.37 Y123.453 E.01314
G1 X100.37 Y120.163 E.10316
G1 X99.951 Y120.163 E.01314
G1 X99.951 Y123.453 E.10316
G1 X99.532 Y123.453 E.01314
G1 X99.532 Y120.163 E.10316
G1 X99.113 Y120.163 E.01314
G1 X99.113 Y123.453 E.10316
G1 X98.694 Y123.453 E.01314
M73 P2 R65
M73 Q2 S66
G1 X98.694 Y120.163 E.10316
G1 X98.275 Y120.163 E.01314
G1 X98.275 Y123.453 E.10316
G1 X97.856 Y123.453 E.01314
G1 X97.856 Y120.163 E.10316
G1 X97.437 Y120.163 E.01314
G1 X97.437 Y123.453 E.10316
G1 X97.018 Y123.453 E.01314
G1 X97.018 Y120.163 E.10316
G1 X96.599 Y120.163 E.01314
M73 Q2 S65
G1 X96.599 Y123.453 E.10316
G1 X96.18 Y123.453 E.01314
G1 X96.18 Y120.163 E.10316
G1 X95.761 Y120.163 E.01314
G1 X95.761 Y123.453 E.10316
G1 X95.342 Y123.453 E.01314
G1 X95.342 Y120.163 E.10316
G1 X94.923 Y120.163 E.01314
G1 X94.923 Y123.453 E.10316
G1 X94.504 Y123.453 E.01314
G1 X94.504 Y120.163 E.10316
G1 X94.085 Y120.163 E.01314
G1 X94.085 Y123.453 E.10316
G1 X93.666 Y123.453 E.01314
G1 X93.666 Y120.163 E.10316
G1 X93.247 Y120.163 E.01314
G1 X93.247 Y123.453 E.10316
G1 X92.828 Y123.453 E.01314
G1 X92.828 Y120.163 E.10316
G1 X92.409 Y120.163 E.01314
G1 X92.409 Y123.453 E.10316
G1 X91.99 Y123.453 E.01314
G1 X91.99 Y120.163 E.10316
G1 X91.571 Y120.163 E.01314
G1 X91.571 Y123.453 E.10316
G1 X91.152 Y123.453 E.01314
G1 X91.152 Y120.163 E.10316
G1 X90.733 Y120.163 E.01314
G1 X90.733 Y123.453 E.10316
G1 X90.315 Y123.453 E.01311
G1 X90.315 Y120.163 E.10316
G1 X89.896 Y120.163 E.01314
G1 X89.896 Y123.453 E.10316
G1 X89.477 Y123.453 E.01314
G1 X89.477 Y120.145 E.10372
G1 X89.058 Y120.124 E.01315
G1 X89.058 Y123.453 E.10438
G1 X88.639 Y123.453 E.01314
G1 X88.639 Y120.103 E.10504
G1 X88.22 Y120.083 E.01315
G1 X88.22 Y123.453 E.10566
G1 X87.801 Y123.453 E.01314
G1 X87.801 Y120.052 E.10664
G1 X87.382 Y119.99 E.01328
G1 X87.382 Y123.453 E.10858
G1 X86.963 Y123.453 E.01314
G1 X86.963 Y119.928 E.11052
G1 X86.544 Y119.866 E.01328
G1 X86.544 Y123.453 E.11247
G1 X86.125 Y123.453 E.01314
G1 X86.125 Y119.804 E.11441
G1 X85.706 Y119.718 E.01341
G1 X85.706 Y123.453 E.11711
G1 X85.287 Y123.453 E.01314
G1 X85.287 Y119.613 E.1204
G1 X84.868 Y119.508 E.01354
G1 X84.868 Y123.453 E.12369
G1 X84.449 Y123.453 E.01314
G1 X84.449 Y119.403 E.12698
G1 X84.03 Y119.298 E.01354
G1 X84.03 Y123.453 E.13028
G1 X83.611 Y123.453 E.01314
G1 X83.611 Y119.149 E.13495
G1 X83.192 Y119 E.01394
G1 X83.192 Y123.453 E.13962
G1 X82.773 Y123.453 E.01314
G1 X82.773 Y118.85 E.14432
G1 X82.354 Y118.7 E.01395
G1 X82.354 Y123.453 E.14903
G1 X81.935 Y123.453 E.01314
G1 X81.935 Y118.525 E.15451
G1 X81.516 Y118.327 E.01453
G1 X81.516 Y123.453 E.16072
G1 X81.097 Y123.453 E.01314
G1 X81.097 Y118.129 E.16693
G1 X80.678 Y117.93 E.01454
G1 X80.678 Y123.453 E.17317
G1 X80.259 Y123.453 E.01314
G1 X80.259 Y117.72 E.17975
G1 X79.84 Y117.468 E.01533
G1 X79.84 Y121.146 E.11532
G1 X79.421 Y121.146 E.01314
G1 X79.421 Y117.217 E.12319
G1 X79.002 Y116.966 E.01531
G1 X79.002 Y121.146 E.13106
G1 X78.583 Y121.146 E.01314
G1 X78.583 Y116.704 E.13928
G1 X78.164 Y116.393 E.01636
