; generated by PrusaSlicer 2.9.2 on 2025-05-06 at 10:27:57 UTC


;
;
; 

; external perimeters extrusion width = 0.45mm
; perimeters extrusion width = 0.45mm
; infill extrusion width = 0.45mm
; solid infill extrusion width = 0.45mm
; top infill extrusion width = 0.40mm
; support material extrusion width = 0.35mm
; first layer extrusion width = 0.42mm

M73 P0 R58
M73 Q0 S58
M201 X1000 Y1000 Z200 E5000 ; sets maximum accelerations, mm/sec^2
M203 X200 Y200 Z12 E120 ; sets maximum feedrates, mm / sec
M204 S1250 T1250 ; sets acceleration (S) and retract acceleration (R), mm/sec^2
M205 X8.00 Y8.00 Z0.40 E4.50 ; sets the jerk limits, mm/sec
M205 S0 T0 ; sets the minimum extruding and travel feed rate, mm/sec

; printing object robot_painter_02-Gripper_Assembly-finger_pt1.STL id:0 copy 0
; stop printing object robot_painter_02-Gripper_Assembly-finger_pt1.STL id:0 copy 0

;TYPE:Custom
M862.3 P "MK3S" ; printer model check
M862.1 P0.4 ; nozzle diameter check
M115 U3.14.1 ; tell printer latest fw version
G90 ; use absolute coordinates
M83 ; extruder relative mode
M104 S215 ; set extruder temp
M140 S60 ; set bed temp
M190 S60 ; wait for bed temp
M109 S215 ; wait for extruder temp
G28 W ; home all without mesh bed level
G80 X75.8632 Y144.432 W82.1605 H33.7118 ; mesh bed levelling

G1 Z0.2 F720
G1 Y-3 F1000 ; go outside print area
G92 E0
G1 X60 E9 F1000 ; intro line
G1 X100 E12.5 F1000 ; intro line

G92 E0
M221 S95

; Don't change E values below. Excessive value can damage the printer.
M907 E430 ; set extruder motor current
G21 ; set units to millimeters
G90 ; use absolute coordinates
M83 ; use relative distances for extrusion

M900 K0.05 ; Filament gcode LA 1.5
M900 K30 ; Filament gcode LA 1.0




M107
;LAYER_CHANGE
;Z:0.2
;HEIGHT:0.2
G1 E-.8 F2100
G1 Z.6 F720
G1 X81.307 Y147.569 F10800
G1 Z.2 F720
G1 E.8 F2100
M204 S800
;TYPE:Skirt/Brim
;WIDTH:0.42
G1 F1200
G1 X82.745 Y146.93 E.04934
G1 X128.887 Y144.623 E1.44856
G1 X155.647 Y144.62 E.83904
G1 X156.895 Y145.011 E.04101
G1 X157.697 Y146.044 E.041
G1 X157.835 Y146.809 E.02437
G1 X157.835 Y173.46 E.83562
G1 X157.444 Y174.708 E.04101
G1 X156.411 Y175.51 E.041
G1 X155.728 Y175.647 E.02184
G1 X93.436 Y177.954 E1.95446
G1 X82.854 Y177.955 E.33179
G1 X81.307 Y177.314 E.0525
G1 X76.693 Y172.7 E.20459
G1 X76.052 Y171.153 E.0525
G1 X76.052 Y153.73 E.54629
G1 X76.693 Y152.183 E.0525
G1 X81.264 Y147.611 E.20271
M204 S1000
;WIPE_START
G1 F8640
G1 X81.307 Y147.569 E-.01388
G1 X82.745 Y146.93 E-.36334
G1 X84.574 Y146.839 E-.42278
;WIPE_END
G1 Z.6 F720
; printing object robot_painter_02-Gripper_Assembly-finger_pt1.STL id:0 copy 0
G1 X155.647 Y173.46 F10800
G1 Z.2 F720
G1 E.8 F2100
M204 S800
;TYPE:Support material
G1 F1200
G1 X119.768 Y173.46 E1.12496
G1 X119.768 Y170.229 E.10131
G1 X131.576 Y169.843 E.37043
G1 X131.576 Y170.88 E.03251
G1 X136.917 Y170.88 E.16746
G1 X136.917 Y163.231 E.23983
G1 X131.576 Y163.231 E.16746
G1 X131.576 Y164.381 E.03606
G1 X128.375 Y164.407 E.10037
G1 X124.333 Y164.591 E.12687
G1 X123.341 Y164.48 E.0313
G1 X122.451 Y164.106 E.03027
G1 X121.701 Y163.495 E.03033
G1 X121.153 Y162.697 E.03035
G1 X120.853 Y161.778 E.03031
G1 X120.823 Y160.811 E.03033
G1 X121.067 Y159.875 E.03033
G1 X121.566 Y159.049 E.03026
G1 X122.278 Y158.39 E.03042
G1 X123.144 Y157.963 E.03027
G1 X124.13 Y157.79 E.03139
G1 X130.968 Y157.585 E.2145
G1 X131.576 Y157.443 E.01958
G1 X131.576 Y159.344 E.0596
G1 X134.61 Y159.344 E.09513
G1 X134.61 Y151.696 E.2398
G1 X131.576 Y151.696 E.09513
G1 X131.576 Y152.262 E.01775
G1 X130.795 Y152.088 E.02509
G1 X119.768 Y152.424 E.3459
G1 X119.768 Y149.116 E.10372
G1 X128.996 Y149.116 E.28934
G1 X128.996 Y146.809 E.07233
G1 X155.647 Y146.809 E.83562
G1 X155.647 Y173.403 E.83384
M204 S1000
G1 X154.967 Y173.29 F10800
M73 P0 R57
M204 S800
G1 F1200
G1 X154.967 Y147.148 E.81966
G1 X154.548 Y147.148 E.01314
G1 X154.548 Y173.12 E.81433
G1 X154.129 Y173.12 E.01314
G1 X154.129 Y147.148 E.81433
G1 X153.71 Y147.148 E.01314
G1 X153.71 Y173.12 E.81433
G1 X153.291 Y173.12 E.01314
G1 X153.291 Y147.148 E.81433
G1 X152.872 Y147.148 E.01314
M73 P1 R57
M73 Q1 S58
G1 X152.872 Y173.12 E.81433
G1 X152.453 Y173.12 E.01314
G1 X152.453 Y147.148 E.81433
G1 X152.034 Y147.148 E.01314
G1 X152.034 Y173.12 E.81433
G1 X151.615 Y173.12 E.01314
G1 X151.615 Y147.148 E.81433
G1 X151.196 Y147.148 E.01314
G1 X151.196 Y173.12 E.81433
G1 X150.777 Y173.12 E.01314
G1 X150.777 Y147.148 E.81433
G1 X150.358 Y147.148 E.01314
G1 X150.358 Y173.12 E.81433
G1 X149.939 Y173.12 E.01314
G1 X149.939 Y147.148 E.81433
G1 X149.52 Y147.148 E.01314
G1 X149.52 Y173.12 E.81433
G1 X149.101 Y173.12 E.01314
G1 X149.101 Y147.148 E.81433
G1 X148.682 Y147.148 E.01314
G1 X148.682 Y173.12 E.81433
G1 X148.263 Y173.12 E.01314
M73 Q1 S57
G1 X148.263 Y147.148 E.81433
G1 X147.844 Y147.148 E.01314
G1 X147.844 Y173.12 E.81433
G1 X147.425 Y173.12 E.01314
G1 X147.425 Y147.148 E.81433
G1 X147.006 Y147.148 E.01314
G1 X147.006 Y173.12 E.81433
G1 X146.587 Y173.12 E.01314
G1 X146.587 Y147.148 E.81433
G1 X146.168 Y147.148 E.01314
G1 X146.168 Y173.12 E.81433
G1 X145.749 Y173.12 E.01314
G1 X145.749 Y147.148 E.81433
G1 X145.33 Y147.148 E.01314
G1 X145.33 Y173.12 E.81433
G1 X144.912 Y173.12 E.01311
G1 X144.912 Y147.148 E.81433
G1 X144.493 Y147.148 E.01314
G1 X144.493 Y173.12 E.81433
G1 X144.074 Y173.12 E.01314
G1 X144.074 Y147.148 E.81433
G1 X143.655 Y147.148 E.01314
G1 X143.655 Y173.12 E.81433
G1 X143.236 Y173.12 E.01314
G1 X143.236 Y147.148 E.81433
G1 X142.817 Y147.148 E.01314
G1 X142.817 Y173.12 E.81433
G1 X142.398 Y173.12 E.01314
G1 X142.398 Y147.148 E.81433
G1 X141.979 Y147.148 E.01314
M73 P2 R57
M73 Q2 S57
G1 X141.979 Y173.12 E.81433
G1 X141.56 Y173.12 E.01314
G1 X141.56 Y147.148 E.81433
G1 X141.141 Y147.148 E.01314
G1 X141.141 Y173.12 E.81433
G1 X140.722 Y173.12 E.01314
G1 X140.722 Y147.148 E.81433
G1 X140.303 Y147.148 E.01314
G1 X140.303 Y173.12 E.81433
G1 X139.884 Y173.12 E.01314
G1 X139.884 Y147.148 E.81433
G1 X139.465 Y147.148 E.01314
G1 X139.465 Y173.12 E.81433
G1 X139.046 Y173.12 E.01314
G1 X139.046 Y147.148 E.81433
G1 X138.627 Y147.148 E.01314
G1 X138.627 Y173.12 E.81433
G1 X138.208 Y173.12 E.01314
G1 X138.208 Y147.148 E.81433
G1 X137.789 Y147.148 E.01314
G1 X137.789 Y173.12 E.81433
G1 X137.37 Y173.12 E.01314
G1 X137.37 Y147.148 E.81433
G1 X136.951 Y147.148 E.01314
G1 X136.951 Y162.892 E.49364
G1 X136.532 Y162.892 E.01314
G1 X136.532 Y147.148 E.49364
G1 X136.113 Y147.148 E.01314
G1 X136.113 Y162.892 E.49364
G1 X135.694 Y162.892 E.01314
M73 P2 R56
G1 X135.694 Y147.148 E.49364
G1 X135.275 Y147.148 E.01314
G1 X135.275 Y162.892 E.49364
G1 X134.856 Y162.892 E.01314
G1 X134.856 Y147.148 E.49364
G1 X134.437 Y147.148 E.01314
G1 X134.437 Y151.356 E.13194
G1 X134.018 Y151.356 E.01314
G1 X134.018 Y147.148 E.13194
G1 X133.599 Y147.148 E.01314
G1 X133.599 Y151.356 E.13194
G1 X133.18 Y151.356 E.01314
G1 X133.18 Y147.148 E.13194
G1 X132.761 Y147.148 E.01314
G1 X132.761 Y151.356 E.13194
G1 X132.342 Y151.356 E.01314
G1 X132.342 Y147.148 E.13194
G1 X131.923 Y147.148 E.01314
G1 X131.923 Y151.356 E.13194
G1 X131.504 Y151.356 E.01314
G1 X131.504 Y147.148 E.13194
G1 X131.085 Y147.148 E.01314
G1 X131.085 Y151.779 E.1452
G1 X130.666 Y151.753 E.01316
G1 X130.666 Y147.148 E.14439
G1 X130.247 Y147.148 E.01314
G1 X130.247 Y151.766 E.14479
G1 X129.828 Y151.778 E.01314
G1 X129.828 Y147.148 E.14517
G1 X129.409 Y147.148 E.01314
G1 X129.409 Y151.791 E.14558
G1 X128.99 Y151.804 E.01314
G1 X128.99 Y149.455 E.07365
G1 X128.571 Y149.455 E.01314
G1 X128.571 Y151.817 E.07406
G1 X128.152 Y151.829 E.01314
G1 X128.152 Y149.455 E.07444
G1 X127.733 Y149.455 E.01314
G1 X127.733 Y151.842 E.07484
G1 X127.314 Y151.855 E.01314
G1 X127.314 Y149.455 E.07525
G1 X126.896 Y149.455 E.01311
G1 X126.896 Y151.868 E.07566
G1 X126.477 Y151.88 E.01314
G1 X126.477 Y149.455 E.07603
G1 X126.058 Y149.455 E.01314
G1 X126.058 Y151.893 E.07644
G1 X125.639 Y151.906 E.01314
G1 X125.639 Y149.455 E.07685
G1 X125.22 Y149.455 E.01314
G1 X125.22 Y151.919 E.07726
G1 X124.801 Y151.931 E.01314
G1 X124.801 Y149.455 E.07763
G1 X124.382 Y149.455 E.01314
G1 X124.382 Y151.944 E.07804
G1 X123.963 Y151.957 E.01314
G1 X123.963 Y149.455 E.07845
G1 X123.544 Y149.455 E.01314
G1 X123.544 Y151.97 E.07886
G1 X123.125 Y151.982 E.01314
G1 X123.125 Y149.455 E.07923
G1 X122.706 Y149.455 E.01314
G1 X122.706 Y151.995 E.07964
G1 X122.287 Y152.008 E.01314
G1 X122.287 Y149.455 E.08005
G1 X121.868 Y149.455 E.01314
G1 X121.868 Y152.021 E.08046
G1 X121.449 Y152.033 E.01314
G1 X121.449 Y149.455 E.08083
G1 X121.03 Y149.455 E.01314
G1 X121.03 Y152.046 E.08124
G1 X120.611 Y152.059 E.01314
G1 X120.611 Y149.455 E.08165
G1 X120.192 Y149.455 E.01314
G1 X120.192 Y152.241 E.08735
M204 S1000
;WIPE_START
G1 F8640
G1 X120.192 Y149.455 E-.6433
G1 X120.611 Y149.455 E-.09675
G1 X120.611 Y149.715 E-.05995
;WIPE_END
G1 Z.6 F720
G1 X136.951 Y173.29 F10800
G1 Z.2 F720
G1 E.8 F2100
M204 S800
G1 F1200
G1 X136.951 Y171.219 E.06493
G1 X136.532 Y171.219 E.01314
G1 X136.532 Y173.12 E.0596
G1 X136.113 Y173.12 E.01314
G1 X136.113 Y171.219 E.0596
G1 X135.694 Y171.219 E.01314
G1 X135.694 Y173.12 E.0596
G1 X135.275 Y173.12 E.01314
G1 X135.275 Y171.219 E.0596
G1 X134.856 Y171.219 E.01314
G1 X134.856 Y173.12 E.0596
G1 X134.437 Y173.12 E.01314
G1 X134.437 Y171.219 E.0596
G1 X134.018 Y171.219 E.01314
G1 X134.018 Y173.12 E.0596
G1 X133.599 Y173.12 E.01314
G1 X133.599 Y171.219 E.0596
G1 X133.18 Y171.219 E.01314
G1 X133.18 Y173.12 E.0596
G1 X132.761 Y173.12 E.01314
G1 X132.761 Y171.219 E.0596
G1 X132.342 Y171.219 E.01314
G1 X132.342 Y173.12 E.0596
G1 X131.923 Y173.12 E.01314
G1 X131.923 Y171.219 E.0596
G1 X131.504 Y171.219 E.01314
G1 X131.504 Y173.12 E.0596
G1 X131.085 Y173.12 E.01314
G1 X131.085 Y170.225 E.09077
G1 X130.666 Y170.238 E.01314
G1 X130.666 Y173.12 E.09036
G1 X130.247 Y173.12 E.01314
G1 X130.247 Y170.251 E.08996
G1 X129.828 Y170.263 E.01314
G1 X129.828 Y173.12 E.08958
G1 X129.409 Y173.12 E.01314
G1 X129.409 Y170.276 E.08917
G1 X128.99 Y170.289 E.01314
G1 X128.99 Y173.12 E.08876
G1 X128.571 Y173.12 E.01314
G1 X128.571 Y170.301 E.08839
G1 X128.152 Y170.314 E.01314
G1 X128.152 Y173.12 E.08798
G1 X127.733 Y173.12 E.01314
G1 X127.733 Y170.327 E.08757
G1 X127.314 Y170.34 E.01314
G1 X127.314 Y173.12 E.08716
G1 X126.896 Y173.12 E.01311
G1 X126.896 Y170.352 E.08679
G1 X126.477 Y170.365 E.01314
G1 X126.477 Y173.12 E.08638
G1 X126.058 Y173.12 E.01314
G1 X126.058 Y170.378 E.08597
G1 X125.639 Y170.391 E.01314
G1 X125.639 Y173.12 E.08557
G1 X125.22 Y173.12 E.01314
G1 X125.22 Y170.403 E.08519
G1 X124.801 Y170.416 E.01314
G1 X124.801 Y173.12 E.08478
G1 X124.382 Y173.12 E.01314
G1 X124.382 Y170.429 E.08437
G1 X123.963 Y170.441 E.01314
G1 X123.963 Y173.12 E.084
G1 X123.544 Y173.12 E.01314
G1 X123.544 Y170.454 E.08359
G1 X123.125 Y170.467 E.01314
G1 X123.125 Y173.12 E.08318
G1 X122.706 Y173.12 E.01314
G1 X122.706 Y170.48 E.08278
G1 X122.287 Y170.492 E.01314
G1 X122.287 Y173.12 E.0824
G1 X121.868 Y173.12 E.01314
G1 X121.868 Y170.505 E.08199
G1 X121.449 Y170.518 E.01314
G1 X121.449 Y173.12 E.08158
G1 X121.03 Y173.12 E.01314
M73 Q3 S57
G1 X121.03 Y170.531 E.08118
G1 X120.611 Y170.543 E.01314
M73 P3 R56
G1 X120.611 Y173.12 E.0808
G1 X120.192 Y173.12 E.01314
G1 X120.192 Y170.386 E.08572
M204 S1000
;WIPE_START
G1 F8640
G1 X120.192 Y173.12 E-.63129
G1 X120.611 Y173.12 E-.09675
G1 X120.611 Y172.808 E-.07196
;WIPE_END
G1 Z.6 F720
G1 X134.437 Y163.062 F10800
G1 Z.2 F720
G1 E.8 F2100
M204 S800
G1 F1200
G1 X134.437 Y159.684 E.10591
G1 X134.018 Y159.684 E.01314
G1 X134.018 Y162.892 E.10058
G1 X133.599 Y162.892 E.01314
G1 X133.599 Y159.684 E.10058
G1 X133.18 Y159.684 E.01314
G1 X133.18 Y162.892 E.10058
G1 X132.761 Y162.892 E.01314
G1 X132.761 Y159.684 E.10058
G1 X132.342 Y159.684 E.01314
G1 X132.342 Y162.892 E.10058
G1 X131.923 Y162.892 E.01314
G1 X131.923 Y159.684 E.10058
G1 X131.504 Y159.684 E.01314
G1 X131.504 Y162.892 E.10058
G1 X131.236 Y162.892 E.0084
G1 X131.236 Y163.998 E.03468
G1 X131.085 Y163.997 E.00473
G1 X131.085 Y157.911 E.19082
G1 X130.666 Y157.933 E.01316
G1 X130.666 Y164.008 E.19048
G1 X130.247 Y164.019 E.01314
G1 X130.247 Y157.946 E.19041
G1 X129.828 Y157.959 E.01314
G1 X129.828 Y164.03 E.19035
G1 X129.409 Y164.041 E.01314
G1 X129.409 Y157.971 E.19032
G1 X128.99 Y157.984 E.01314
G1 X128.99 Y164.052 E.19026
G1 X128.571 Y164.063 E.01314
G1 X128.571 Y157.997 E.1902
G1 X128.152 Y158.01 E.01314
M73 Q3 S56
G1 X128.152 Y164.078 E.19026
G1 X127.733 Y164.097 E.01315
G1 X127.733 Y158.022 E.19048
G1 X127.314 Y158.035 E.01314
G1 X127.314 Y164.116 E.19067
G1 X126.896 Y164.135 E.01312
G1 X126.896 Y158.048 E.19085
G1 X126.477 Y158.061 E.01314
G1 X126.477 Y164.154 E.19104
G1 X126.058 Y164.173 E.01315
G1 X126.058 Y158.073 E.19126
G1 X125.639 Y158.086 E.01314
G1 X125.639 Y164.192 E.19145
G1 X125.22 Y164.211 E.01315
G1 X125.22 Y158.098 E.19167
G1 X124.801 Y158.11 E.01314
G1 X124.801 Y164.23 E.19189
G1 X124.382 Y164.249 E.01315
G1 X124.382 Y158.123 E.19208
G1 X123.963 Y158.164 E.0132
G1 X123.963 Y164.207 E.18947
G1 X123.544 Y164.16 E.01322
G1 X123.544 Y158.237 E.18571
G1 X123.125 Y158.351 E.01362
G1 X123.125 Y164.021 E.17778
G1 X122.706 Y163.845 E.01425
G1 X122.706 Y158.558 E.16577
G1 X122.287 Y158.845 E.01592
G1 X122.287 Y163.534 E.14702
G1 X121.868 Y163.138 E.01808
G1 X121.868 Y159.232 E.12247
G1 X121.449 Y159.9 E.02472
G1 X121.449 Y162.829 E.09184
M204 S1000
;WIPE_START
G1 F8640
G1 X121.449 Y159.9 E-.67631
G1 X121.734 Y159.446 E-.12369
;WIPE_END
G1 Z.6 F720
G1 X132.143 Y170.014 F10800
G1 Z.2 F720
G1 E.8 F2100
M204 S800
;TYPE:Support material interface
;WIDTH:0.35
G1 F1200
G1 X131.939 Y170.04 E.00525
G1 X131.939 Y170.516 E.01215
G1 X132.295 Y170.516 E.00909
G1 X132.295 Y169.995 E.0133
G1 X132.802 Y169.88 E.01327
G1 X132.802 Y170.516 E.01624
G1 X133.309 Y170.516 E.01295
G1 X133.309 Y169.606 E.02324
G1 X133.571 Y169.295 E.01038
M204 S1000
;WIPE_START
G1 F8640
G1 X133.309 Y169.606 E-.0939
G1 X133.309 Y170.516 E-.21012
G1 X132.802 Y170.516 E-.11707
G1 X132.802 Y169.88 E-.14685
G1 X132.295 Y169.995 E-.12004
G1 X132.295 Y170.48 E-.11202
;WIPE_END
G1 Z.6 F720
G1 X132.392 Y164.541 F10800
G1 Z.2 F720
G1 E.8 F2100
M204 S800
;TYPE:Support material
;WIDTH:0.42
G1 F1200
G1 X132.996 Y164.815 E.0208
G1 X133.291 Y165.161 E.01426
G1 X133.408 Y168.928 E.11817
G1 X133.137 Y169.286 E.01408
G1 X132.575 Y169.589 E.02002
G1 X132.181 Y169.643 E.01247
G1 X132.837 Y169.3 E.02321
G1 X132.971 Y169.065 E.00848
G1 X132.844 Y165.036 E.12639
G1 X132.678 Y164.802 E.009
G1 X131.96 Y164.512 E.02428
G1 X132.336 Y164.537 E.01182
M204 S1000
G1 X132.142 Y163.595 F10800
M204 S800
;TYPE:Support material interface
;WIDTH:0.35
G1 F1200
G1 X131.939 Y163.595 E.00518
G1 X131.939 Y164.146 E.01407
G1 X132.295 Y164.17 E.00911
G1 X132.295 Y163.595 E.01468
G1 X132.802 Y163.595 E.01295
G1 X132.802 Y164.323 E.01859
G1 X133.309 Y164.61 E.01488
G1 X133.309 Y163.595 E.02592
G1 X133.816 Y163.595 E.01295
G1 X133.816 Y170.516 E.17672
G1 X134.324 Y170.516 E.01297
G1 X134.324 Y163.595 E.17672
G1 X134.831 Y163.595 E.01295
G1 X134.831 Y170.516 E.17672
G1 X135.338 Y170.516 E.01295
G1 X135.338 Y163.595 E.17672
G1 X135.845 Y163.595 E.01295
G1 X135.845 Y170.516 E.17672
G1 X136.352 Y170.516 E.01295
G1 X136.352 Y163.595 E.17672
G1 X136.554 Y163.595 E.00516
G1 X136.554 Y163.977 E.00975
M204 S1000
;WIPE_START
G1 F8640
G1 X136.554 Y163.595 E-.0882
G1 X136.352 Y163.595 E-.04664
G1 X136.352 Y166.476 E-.66516
;WIPE_END
G1 Z.6 F720
G1 X133.202 Y157.047 F10800
G1 Z.2 F720
G1 E.8 F2100
M204 S800
G1 F1200
G1 X133.067 Y157.256 E.00635
G1 X132.802 Y157.434 E.00815
G1 X132.802 Y158.981 E.0395
G1 X132.295 Y158.981 E.01295
G1 X132.295 Y157.697 E.03279
G1 X131.939 Y157.738 E.00915
G1 X131.939 Y158.981 E.03174
G1 X132.142 Y158.981 E.00518
M204 S1000
;WIPE_START
G1 F8640
G1 X131.939 Y158.981 E-.04687
G1 X131.939 Y157.738 E-.28701
G1 X132.295 Y157.697 E-.08274
G1 X132.295 Y158.981 E-.29648
G1 X132.672 Y158.981 E-.0869
;WIPE_END
G1 Z.6 F720
G1 X133.97 Y158.981 F10800
G1 Z.2 F720
G1 E.8 F2100
M204 S800
G1 F1200
G1 X134.247 Y158.981 E.00707
G1 X134.247 Y152.059 E.17674
G1 X133.816 Y152.059 E.01101
G1 X133.816 Y158.981 E.17674
G1 X133.309 Y158.981 E.01295
