; generated by PrusaSlicer 2.9.2 on 2025-05-06 at 10:31:03 UTC


;
;
; 

; external perimeters extrusion width = 0.45mm
; perimeters extrusion width = 0.45mm
; infill extrusion width = 0.45mm
; solid infill extrusion width = 0.45mm
; top infill extrusion width = 0.40mm
; support material extrusion width = 0.35mm
; first layer extrusion width = 0.42mm

M73 P0 R58
M73 Q0 S59
M201 X1000 Y1000 Z200 E5000 ; sets maximum accelerations, mm/sec^2
M203 X200 Y200 Z12 E120 ; sets maximum feedrates, mm / sec
M204 S1250 T1250 ; sets acceleration (S) and retract acceleration (R), mm/sec^2
M205 X8.00 Y8.00 Z0.40 E4.50 ; sets the jerk limits, mm/sec
M205 S0 T0 ; sets the minimum extruding and travel feed rate, mm/sec

; printing object robot_painter_02-Gripper_Assembly-finger_pt2.STL id:0 copy 0
; stop printing object robot_painter_02-Gripper_Assembly-finger_pt2.STL id:0 copy 0

;TYPE:Custom
M862.3 P "MK3S" ; printer model check
M862.1 P0.4 ; nozzle diameter check
M115 U3.14.1 ; tell printer latest fw version
G90 ; use absolute coordinates
M83 ; extruder relative mode
M104 S215 ; set extruder temp
M140 S60 ; set bed temp
M190 S60 ; wait for bed temp
M109 S215 ; wait for extruder temp
G28 W ; home all without mesh bed level
G80 X49.0485 Y91.5922 W82.1605 H33.7118 ; mesh bed levelling

G1 Z0.2 F720
G1 Y-3 F1000 ; go outside print area
G92 E0
G1 X60 E9 F1000 ; intro line
G1 X100 E12.5 F1000 ; intro line
M73 Q0 S58

G92 E0
M221 S95

; Don't change E values below. Excessive value can damage the printer.
M907 E430 ; set extruder motor current
G21 ; set units to millimeters
G90 ; use absolute coordinates
M83 ; use relative distances for extrusion

M900 K0.05 ; Filament gcode LA 1.5
M900 K30 ; Filament gcode LA 1.0




M107
;LAYER_CHANGE
;Z:0.2
;HEIGHT:0.2
G1 E-.8 F2100
G1 Z.6 F720
G1 X50.661 Y91.919 F10800
G1 Z.2 F720
G1 E.8 F2100
M204 S800
;TYPE:Skirt/Brim
;WIDTH:0.42
G1 F1200
G1 X51.426 Y91.781 E.02437
G1 X78.185 Y91.783 E.83901
G1 X124.327 Y94.091 E1.44856
G1 X125.765 Y94.729 E.04933
G1 X130.379 Y99.343 E.20459
G1 X131.02 Y100.891 E.05253
G1 X131.02 Y118.313 E.54625
G1 X130.38 Y119.86 E.05249
G1 X125.766 Y124.474 E.20459
G1 X124.218 Y125.116 E.05255
G1 X115.946 Y125.114 E.25936
G1 X51.347 Y122.807 E2.02675
G1 X50.114 Y122.372 E.041
G1 X49.349 Y121.311 E.04101
G1 X49.237 Y120.62 E.02195
G1 X49.237 Y93.969 E.83562
G1 X49.628 Y92.721 E.04101
G1 X50.613 Y91.956 E.0391
M204 S1000
;WIPE_START
G1 F8640
G1 X50.661 Y91.919 E-.01399
G1 X51.426 Y91.781 E-.17949
G1 X54.053 Y91.781 E-.60652
;WIPE_END
G1 Z.6 F720
; printing object robot_painter_02-Gripper_Assembly-finger_pt2.STL id:0 copy 0
G1 X70.519 Y117.295 F10800
G1 Z.2 F720
G1 E.8 F2100
M204 S800
;TYPE:Support material interface
;WIDTH:0.35
G1 F1200
G1 X70.519 Y117.676 E.00973
G1 X70.72 Y117.676 E.00513
G1 X70.72 Y110.755 E.17672
G1 X71.227 Y110.755 E.01295
G1 X71.227 Y117.676 E.17672
G1 X71.734 Y117.676 E.01295
G1 X71.734 Y110.755 E.17672
G1 X72.242 Y110.755 E.01297
G1 X72.242 Y117.676 E.17672
G1 X72.749 Y117.676 E.01295
G1 X72.749 Y110.755 E.17672
G1 X73.256 Y110.755 E.01295
G1 X73.256 Y117.676 E.17672
G1 X73.763 Y117.676 E.01295
G1 X73.763 Y116.765 E.02326
G1 X74.27 Y117.037 E.01469
G1 X74.27 Y117.676 E.01632
G1 X74.777 Y117.676 E.01295
G1 X74.777 Y117.154 E.01333
G1 X75.133 Y117.199 E.00916
G1 X75.133 Y117.676 E.01218
G1 X74.93 Y117.676 E.00518
M204 S1000
;WIPE_START
G1 F8640
G1 X75.133 Y117.676 E-.04687
G1 X75.133 Y117.199 E-.11014
G1 X74.777 Y117.154 E-.08286
G1 X74.777 Y117.676 E-.12053
G1 X74.27 Y117.676 E-.11707
G1 X74.27 Y117.037 E-.14755
G1 X73.763 Y116.765 E-.13285
G1 X73.763 Y116.948 E-.04213
;WIPE_END
G1 Z.6 F720
G1 X73.501 Y112.062 F10800
G1 Z.2 F720
G1 E.8 F2100
M204 S800
G1 F1200
G1 X73.763 Y111.773 E.00996
G1 X73.763 Y110.755 E.02599
G1 X74.27 Y110.755 E.01295
G1 X74.27 Y111.482 E.01856
G1 X74.777 Y111.33 E.01351
G1 X74.777 Y110.755 E.01468
G1 X75.133 Y110.755 E.00909
G1 X75.133 Y111.306 E.01407
G1 X74.93 Y111.32 E.0052
M204 S1000
G1 X74.925 Y111.717 F10800
M204 S800
;TYPE:Support material
;WIDTH:0.42
G1 F1200
G1 X74.381 Y111.986 E.01903
G1 X74.238 Y112.207 E.00825
G1 X74.092 Y116.235 E.12638
G1 X74.247 Y116.482 E.00914
G1 X74.952 Y116.81 E.02438
G1 X74.503 Y116.748 E.01421
G1 X73.937 Y116.446 E.02011
G1 X73.665 Y116.083 E.01422
G1 X73.777 Y112.315 E.1182
G1 X74.07 Y111.975 E.01407
G1 X74.655 Y111.706 E.02019
G1 X75.046 Y111.676 E.0123
G1 X74.978 Y111.699 E.00225
M204 S1000
;WIPE_START
G1 F8640
G1 X75.046 Y111.676 E-.01658
G1 X74.655 Y111.706 E-.09055
G1 X74.07 Y111.975 E-.14867
G1 X73.777 Y112.315 E-.10364
G1 X73.72 Y114.222 E-.44056
;WIPE_END
G1 Z.6 F720
G1 X74.93 Y106.141 F10800
G1 Z.2 F720
G1 E.8 F2100
M204 S800
;TYPE:Support material interface
;WIDTH:0.35
G1 F1200
G1 X75.133 Y106.141 E.00518
G1 X75.133 Y104.897 E.03176
G1 X74.777 Y104.855 E.00915
G1 X74.777 Y106.141 E.03284
G1 X74.27 Y106.141 E.01295
G1 X74.27 Y104.593 E.03953
G1 X73.849 Y104.237 E.01408
M204 S1000
;WIPE_START
G1 F8640
G1 X74.27 Y104.593 E-.12731
G1 X74.27 Y106.141 E-.35744
G1 X74.777 Y106.141 E-.11707
G1 X74.777 Y105.282 E-.19818
;WIPE_END
G1 Z.6 F720
G1 X73.102 Y106.141 F10800
G1 Z.2 F720
G1 E.8 F2100
M204 S800
G1 F1200
G1 X72.826 Y106.141 E.00705
G1 X72.826 Y99.22 E.17672
G1 X73.256 Y99.22 E.01098
G1 X73.256 Y106.141 E.17672
G1 X73.763 Y106.141 E.01295
G1 X73.763 Y104.111 E.05183
G1 X73.672 Y103.874 E.00648
G1 X73.763 Y99.22 E.11886
G1 X74.27 Y99.22 E.01295
G1 X74.27 Y99.41 E.00485
G1 X74.005 Y99.698 E.00999
M204 S1000
G1 X74.409 Y99.345 F10800
M204 S800
G1 F1200
G1 X74.681 Y99.22 E.00764
G1 X74.423 Y99.22 E.00659
M204 S1000
;WIPE_START
G1 F8640
G1 X74.681 Y99.22 E-.05957
G1 X74.409 Y99.345 E-.06912
;WIPE_END
G1 E-.67131 F2100
G1 Z.6 F720
G1 X78.076 Y96.276 F10800
G1 Z.2 F720
G1 E.8 F2100
M204 S800
;TYPE:Support material
;WIDTH:0.42
G1 F1200
G1 X112.682 Y96.276 E1.08505
G1 X112.682 Y100.346 E.12761
G1 X76.268 Y99.297 E1.14221
G1 X75.496 Y99.429 E.02456
G1 X75.496 Y98.856 E.01797
G1 X72.462 Y98.856 E.09513
G1 X72.462 Y106.505 E.23983
G1 X75.496 Y106.505 E.09513
G1 X75.496 Y104.564 E.06086
G1 X74.869 Y104.502 E.01976
G1 X74.301 Y104.195 E.02024
G1 X74.037 Y103.839 E.0139
G1 X74.149 Y100.071 E.1182
G1 X74.441 Y99.731 E.01405
G1 X75.027 Y99.462 E.02022
G1 X75.395 Y99.447 E.01155
G1 X74.752 Y99.742 E.02218
G1 X74.61 Y99.963 E.00824
G1 X74.464 Y104.001 E.12669
G1 X74.644 Y104.261 E.00992
G1 X76.093 Y104.745 E.0479
G1 X82.942 Y104.953 E.21484
G1 X83.927 Y105.126 E.03136
G1 X84.793 Y105.553 E.03027
G1 X85.504 Y106.209 E.03033
G1 X86.001 Y107.036 E.03025
G1 X86.246 Y107.97 E.03028
G1 X86.215 Y108.937 E.03034
G1 X85.917 Y109.855 E.03026
G1 X85.368 Y110.652 E.03034
G1 X84.62 Y111.262 E.03026
G1 X83.729 Y111.636 E.0303
G1 X82.735 Y111.749 E.03137
G1 X78.675 Y111.567 E.12743
G1 X75.496 Y111.54 E.09968
G1 X75.496 Y110.392 E.03599
G1 X70.155 Y110.392 E.16746
G1 X70.155 Y118.04 E.2398
G1 X75.496 Y118.04 E.16746
G1 X75.496 Y116.995 E.03277
G1 X87.304 Y117.388 E.37044
G1 X87.304 Y120.62 E.10134
G1 X51.426 Y120.62 E1.12493
G1 X51.426 Y93.969 E.83562
M73 P1 R58
M73 Q1 S58
G1 X78.076 Y93.969 E.83559
G1 X78.076 Y96.22 E.07058
M204 S1000
G1 X112.019 Y100.156 F10800
M204 S800
G1 F1200
G1 X112.019 Y96.616 E.11099
G1 X111.6 Y96.616 E.01314
G1 X111.6 Y99.974 E.10529
G1 X111.181 Y99.961 E.01314
G1 X111.181 Y96.616 E.10488
G1 X110.762 Y96.616 E.01314
M73 P1 R57
G1 X110.762 Y99.948 E.10447
G1 X110.343 Y99.935 E.01314
G1 X110.343 Y96.616 E.10406
G1 X109.924 Y96.616 E.01314
G1 X109.924 Y99.922 E.10366
G1 X109.505 Y99.91 E.01314
G1 X109.505 Y96.616 E.10328
G1 X109.086 Y96.616 E.01314
G1 X109.086 Y99.897 E.10287
G1 X108.667 Y99.884 E.01314
G1 X108.667 Y96.616 E.10247
G1 X108.248 Y96.616 E.01314
G1 X108.248 Y99.871 E.10206
G1 X107.829 Y99.858 E.01314
G1 X107.829 Y96.616 E.10165
G1 X107.41 Y96.616 E.01314
G1 X107.41 Y99.846 E.10127
G1 X106.991 Y99.833 E.01314
G1 X106.991 Y96.616 E.10087
G1 X106.572 Y96.616 E.01314
G1 X106.572 Y99.82 E.10046
G1 X106.153 Y99.807 E.01314
G1 X106.153 Y96.616 E.10005
G1 X105.734 Y96.616 E.01314
G1 X105.734 Y99.794 E.09964
G1 X105.315 Y99.782 E.01314
G1 X105.315 Y96.616 E.09927
G1 X104.896 Y96.616 E.01314
G1 X104.896 Y99.769 E.09886
G1 X104.477 Y99.756 E.01314
G1 X104.477 Y96.616 E.09845
G1 X104.058 Y96.616 E.01314
G1 X104.058 Y99.743 E.09804
G1 X103.639 Y99.73 E.01314
G1 X103.639 Y96.616 E.09764
G1 X103.22 Y96.616 E.01314
G1 X103.22 Y99.718 E.09726
G1 X102.801 Y99.705 E.01314
G1 X102.801 Y96.616 E.09685
G1 X102.382 Y96.616 E.01314
G1 X102.382 Y99.692 E.09645
G1 X101.963 Y99.679 E.01314
G1 X101.963 Y96.616 E.09604
G1 X101.544 Y96.616 E.01314
G1 X101.544 Y99.666 E.09563
G1 X101.126 Y99.654 E.01311
G1 X101.126 Y96.616 E.09525
G1 X100.707 Y96.616 E.01314
G1 X100.707 Y99.641 E.09485
G1 X100.288 Y99.628 E.01314
G1 X100.288 Y96.616 E.09444
G1 X99.869 Y96.616 E.01314
G1 X99.869 Y99.615 E.09403
G1 X99.45 Y99.602 E.01314
G1 X99.45 Y96.616 E.09362
G1 X99.031 Y96.616 E.01314
G1 X99.031 Y99.59 E.09325
G1 X98.612 Y99.577 E.01314
G1 X98.612 Y96.616 E.09284
G1 X98.193 Y96.616 E.01314
G1 X98.193 Y99.564 E.09243
G1 X97.774 Y99.551 E.01314
G1 X97.774 Y96.616 E.09202
G1 X97.355 Y96.616 E.01314
G1 X97.355 Y99.539 E.09165
G1 X96.936 Y99.528 E.01314
G1 X96.936 Y96.616 E.0913
G1 X96.517 Y96.616 E.01314
G1 X96.517 Y99.516 E.09093
G1 X96.098 Y99.505 E.01314
G1 X96.098 Y96.616 E.09058
G1 X95.679 Y96.616 E.01314
G1 X95.679 Y99.493 E.09021
G1 X95.26 Y99.481 E.01314
G1 X95.26 Y96.616 E.08983
G1 X94.841 Y96.616 E.01314
G1 X94.841 Y99.47 E.08949
G1 X94.422 Y99.458 E.01314
G1 X94.422 Y96.616 E.08911
G1 X94.003 Y96.616 E.01314
G1 X94.003 Y99.447 E.08876
G1 X93.584 Y99.435 E.01314
G1 X93.584 Y96.616 E.08839
G1 X93.165 Y96.616 E.01314
G1 X93.165 Y99.424 E.08804
G1 X92.746 Y99.412 E.01314
G1 X92.746 Y96.616 E.08767
G1 X92.327 Y96.616 E.01314
G1 X92.327 Y99.401 E.08732
G1 X91.908 Y99.389 E.01314
G1 X91.908 Y96.616 E.08695
G1 X91.489 Y96.616 E.01314
G1 X91.489 Y99.378 E.0866
G1 X91.07 Y99.366 E.01314
G1 X91.07 Y96.616 E.08622
G1 X90.651 Y96.616 E.01314
G1 X90.651 Y99.355 E.08588
G1 X90.232 Y99.343 E.01314
G1 X90.232 Y96.616 E.0855
G1 X89.813 Y96.616 E.01314
G1 X89.813 Y99.332 E.08516
G1 X89.394 Y99.32 E.01314
G1 X89.394 Y96.616 E.08478
G1 X88.975 Y96.616 E.01314
G1 X88.975 Y99.309 E.08444
G1 X88.556 Y99.297 E.01314
G1 X88.556 Y96.616 E.08406
G1 X88.137 Y96.616 E.01314
G1 X88.137 Y99.286 E.08372
G1 X87.718 Y99.274 E.01314
G1 X87.718 Y96.616 E.08334
G1 X87.299 Y96.616 E.01314
G1 X87.299 Y99.263 E.08299
G1 X86.88 Y99.251 E.01314
G1 X86.88 Y96.616 E.08262
G1 X86.461 Y96.616 E.01314
G1 X86.461 Y99.24 E.08227
G1 X86.042 Y99.228 E.01314
G1 X86.042 Y96.616 E.0819
G1 X85.623 Y96.616 E.01314
G1 X85.623 Y99.217 E.08155
G1 X85.204 Y99.205 E.01314
G1 X85.204 Y96.616 E.08118
G1 X84.785 Y96.616 E.01314
G1 X84.785 Y99.194 E.08083
G1 X84.366 Y99.182 E.01314
G1 X84.366 Y96.616 E.08046
G1 X83.947 Y96.616 E.01314
G1 X83.947 Y99.171 E.08011
G1 X83.528 Y99.159 E.01314
G1 X83.528 Y96.616 E.07973
G1 X83.109 Y96.616 E.01314
G1 X83.109 Y99.147 E.07936
G1 X82.691 Y99.136 E.01311
G1 X82.691 Y96.616 E.07901
G1 X82.272 Y96.616 E.01314
G1 X82.272 Y99.124 E.07864
G1 X81.853 Y99.113 E.01314
G1 X81.853 Y96.616 E.07829
G1 X81.434 Y96.616 E.01314
G1 X81.434 Y99.101 E.07792
G1 X81.015 Y99.089 E.01314
G1 X81.015 Y96.616 E.07754
G1 X80.596 Y96.616 E.01314
G1 X80.596 Y99.078 E.07719
G1 X80.177 Y99.066 E.01314
G1 X80.177 Y96.616 E.07682
G1 X79.758 Y96.616 E.01314
G1 X79.758 Y99.054 E.07644
G1 X79.339 Y99.043 E.01314
G1 X79.339 Y96.616 E.0761
G1 X78.92 Y96.616 E.01314
G1 X78.92 Y99.031 E.07572
G1 X78.501 Y99.02 E.01314
G1 X78.501 Y96.616 E.07538
G1 X78.082 Y96.616 E.01314
G1 X78.082 Y99.008 E.075
G1 X77.663 Y98.996 E.01314
G1 X77.663 Y94.309 E.14696
G1 X77.244 Y94.309 E.01314
G1 X77.244 Y98.985 E.14661
G1 X76.825 Y98.973 E.01314
G1 X76.825 Y94.309 E.14624
G1 X76.406 Y94.309 E.01314
G1 X76.406 Y98.961 E.14586
G1 X75.987 Y98.997 E.01319
G1 X75.987 Y94.309 E.14699
G1 X75.568 Y94.309 E.01314
G1 X75.568 Y98.517 E.13194
G1 X75.149 Y98.517 E.01314
G1 X75.149 Y94.309 E.13194
G1 X74.73 Y94.309 E.01314
G1 X74.73 Y98.517 E.13194
G1 X74.311 Y98.517 E.01314
G1 X74.311 Y94.309 E.13194
G1 X73.892 Y94.309 E.01314
G1 X73.892 Y98.517 E.13194
G1 X73.473 Y98.517 E.01314
G1 X73.473 Y94.309 E.13194
G1 X73.054 Y94.309 E.01314
G1 X73.054 Y98.517 E.13194
G1 X72.635 Y98.517 E.01314
G1 X72.635 Y94.309 E.13194
G1 X72.216 Y94.309 E.01314
G1 X72.216 Y110.052 E.49361
G1 X72.635 Y110.052 E.01314
G1 X72.635 Y106.844 E.10058
G1 X73.054 Y106.844 E.01314
G1 X73.054 Y110.052 E.10058
G1 X73.473 Y110.052 E.01314
G1 X73.473 Y106.844 E.10058
G1 X73.892 Y106.844 E.01314
G1 X73.892 Y110.052 E.10058
G1 X74.311 Y110.052 E.01314
G1 X74.311 Y106.844 E.10058
G1 X74.73 Y106.844 E.01314
G1 X74.73 Y110.052 E.10058
G1 X75.149 Y110.052 E.01314
G1 X75.149 Y106.844 E.10058
G1 X75.568 Y106.844 E.01314
G1 X75.568 Y110.052 E.10058
G1 X75.836 Y110.052 E.0084
G1 X75.836 Y111.159 E.03471
G1 X75.987 Y111.158 E.00473
G1 X75.987 Y105.071 E.19085
G1 X76.406 Y105.094 E.01316
G1 X76.406 Y111.17 E.19051
G1 X76.825 Y111.182 E.01314
G1 X76.825 Y105.107 E.19048
G1 X77.244 Y105.12 E.01314
G1 X77.244 Y111.192 E.19038
G1 X77.663 Y111.203 E.01314
G1 X77.663 Y105.133 E.19032
G1 X78.082 Y105.145 E.01314
M73 Q1 S57
G1 X78.082 Y111.213 E.19026
G1 X78.501 Y111.223 E.01314
G1 X78.501 Y105.158 E.19016
G1 X78.92 Y105.171 E.01314
G1 X78.92 Y111.24 E.19029
G1 X79.339 Y111.264 E.01316
G1 X79.339 Y105.183 E.19067
G1 X79.758 Y105.196 E.01314
G1 X79.758 Y111.287 E.19098
G1 X80.177 Y111.31 E.01316
G1 X80.177 Y105.209 E.19129
G1 X80.596 Y105.222 E.01314
G1 X80.596 Y111.334 E.19164
G1 X81.015 Y111.357 E.01316
G1 X81.015 Y105.234 E.19198
G1 X81.434 Y105.247 E.01314
G1 X81.434 Y111.37 E.19198
G1 X81.853 Y111.382 E.01314
G1 X81.853 Y105.26 E.19195
G1 X82.272 Y105.273 E.01314
G1 X82.272 Y111.395 E.19195
G1 X82.691 Y111.408 E.01314
G1 X82.691 Y105.285 E.19198
G1 X83.109 Y105.327 E.01317
G1 X83.109 Y111.365 E.18932
G1 X83.528 Y111.317 E.01322
G1 X83.528 Y105.401 E.18549
G1 X83.947 Y105.514 E.01361
G1 X83.947 Y111.176 E.17753
G1 X84.366 Y111 E.01425
G1 X84.366 Y105.721 E.16552
G1 X84.785 Y106.008 E.01592
G1 X84.785 Y110.689 E.14677
G1 X85.204 Y110.29 E.01814
G1 X85.204 Y106.394 E.12216
G1 X85.623 Y107.066 E.02483
G1 X85.623 Y109.981 E.0914
M204 S1000
;WIPE_START
G1 F8640
G1 X85.623 Y107.066 E-.67308
G1 X85.332 Y106.6 E-.12692
;WIPE_END
G1 Z.6 F720
G1 X86.88 Y120.45 F10800
G1 Z.2 F720
G1 E.8 F2100
M204 S800
G1 F1200
G1 X86.88 Y117.715 E.08575
G1 X86.461 Y117.702 E.01314
G1 X86.461 Y120.281 E.08086
G1 X86.042 Y120.281 E.01314
G1 X86.042 Y117.689 E.08127
G1 X85.623 Y117.676 E.01314
G1 X85.623 Y120.281 E.08168
G1 X85.204 Y120.281 E.01314
G1 X85.204 Y117.664 E.08205
G1 X84.785 Y117.651 E.01314
G1 X84.785 Y120.281 E.08246
G1 X84.366 Y120.281 E.01314
G1 X84.366 Y117.638 E.08287
G1 X83.947 Y117.625 E.01314
G1 X83.947 Y120.281 E.08328
G1 X83.528 Y120.281 E.01314
G1 X83.528 Y117.613 E.08365
G1 X83.109 Y117.6 E.01314
G1 X83.109 Y120.281 E.08406
G1 X82.691 Y120.281 E.01311
G1 X82.691 Y117.587 E.08447
G1 X82.272 Y117.574 E.01314
G1 X82.272 Y120.281 E.08488
G1 X81.853 Y120.281 E.01314
M73 P2 R57
M73 Q2 S57
G1 X81.853 Y117.562 E.08525
G1 X81.434 Y117.549 E.01314
G1 X81.434 Y120.281 E.08566
G1 X81.015 Y120.281 E.01314
G1 X81.015 Y117.536 E.08607
G1 X80.596 Y117.524 E.01314
G1 X80.596 Y120.281 E.08644
G1 X80.177 Y120.281 E.01314
G1 X80.177 Y117.511 E.08685
G1 X79.758 Y117.498 E.01314
G1 X79.758 Y120.281 E.08726
G1 X79.339 Y120.281 E.01314
G1 X79.339 Y117.485 E.08767
G1 X78.92 Y117.473 E.01314
G1 X78.92 Y120.281 E.08804
G1 X78.501 Y120.281 E.01314
G1 X78.501 Y117.46 E.08845
G1 X78.082 Y117.447 E.01314
G1 X78.082 Y120.281 E.08886
G1 X77.663 Y120.281 E.01314
G1 X77.663 Y117.434 E.08927
G1 X77.244 Y117.422 E.01314
G1 X77.244 Y120.281 E.08964
G1 X76.825 Y120.281 E.01314
G1 X76.825 Y117.409 E.09005
G1 X76.406 Y117.396 E.01314
G1 X76.406 Y120.281 E.09046
G1 X75.987 Y120.281 E.01314
G1 X75.987 Y117.383 E.09086
G1 X75.836 Y117.379 E.00474
G1 X75.836 Y118.379 E.03135
G1 X75.568 Y118.379 E.0084
G1 X75.568 Y120.281 E.05964
G1 X75.149 Y120.281 E.01314
G1 X75.149 Y118.379 E.05964
