; generated by PrusaSlicer 2.9.2 on 2025-05-07 at 14:44:12 UTC


;
;
; 

; external perimeters extrusion width = 0.45mm
; perimeters extrusion width = 0.45mm
; infill extrusion width = 0.45mm
; solid infill extrusion width = 0.45mm
; top infill extrusion width = 0.40mm
; support material extrusion width = 0.35mm
; first layer extrusion width = 0.42mm

M73 P0 R9
M73 Q0 S9
M201 X1000 Y1000 Z200 E5000 ; sets maximum accelerations, mm/sec^2
M203 X200 Y200 Z12 E120 ; sets maximum feedrates, mm / sec
M204 S1250 T1250 ; sets acceleration (S) and retract acceleration (R), mm/sec^2
M205 X8.00 Y8.00 Z0.40 E4.50 ; sets the jerk limits, mm/sec
M205 S0 T0 ; sets the minimum extruding and travel feed rate, mm/sec

; printing object robot_painter_02-Gripper_Assembly-gen-pt3.STL id:0 copy 0
; stop printing object robot_painter_02-Gripper_Assembly-gen-pt3.STL id:0 copy 0

;TYPE:Custom
M862.3 P "MK3S" ; printer model check
M862.1 P0.4 ; nozzle diameter check
M115 U3.14.1 ; tell printer latest fw version
G90 ; use absolute coordinates
M83 ; extruder relative mode
M104 S215 ; set extruder temp
M140 S60 ; set bed temp
M190 S60 ; wait for bed temp
M109 S215 ; wait for extruder temp
G28 W ; home all without mesh bed level
G80 X44.0101 Y89.0202 W39.8028 H42.9831 ; mesh bed levelling

G1 Z0.2 F720
G1 Y-3 F1000 ; go outside print area
G92 E0
G1 X60 E9 F1000 ; intro line
G1 X100 E12.5 F1000 ; intro line

G92 E0
M221 S95

; Don't change E values below. Excessive value can damage the printer.
M907 E430 ; set extruder motor current
G21 ; set units to millimeters
G90 ; use absolute coordinates
M83 ; use relative distances for extrusion

M900 K0.05 ; Filament gcode LA 1.5
M900 K30 ; Filament gcode LA 1.0




M107
;LAYER_CHANGE
;Z:0.2
;HEIGHT:0.2
G1 E-.8 F2100
M73 P1 R9
M73 Q1 S9
G1 Z.6 F720
G1 X47.643 Y89.932 F10800
G1 Z.2 F720
G1 E.8 F2100
M204 S800
;TYPE:Skirt/Brim
;WIDTH:0.42
G1 F1200
G1 X48.012 Y89.736 E.0131
G1 X49.489 Y89.289 E.04838
G1 X50.426 Y89.211 E.02948
G1 X51.644 Y89.281 E.03825
G1 X53.124 Y89.716 E.04837
G1 X53.946 Y90.144 E.02906
G1 X54.457 Y90.493 E.0194
G1 X55.373 Y91.324 E.03878
G1 X82.188 Y121.387 E1.26309
G1 X82.736 Y122.164 E.02981
G1 X83.358 Y123.576 E.04838
G1 X83.548 Y124.498 E.02952
G1 X83.626 Y125.714 E.03821
G1 X83.372 Y127.236 E.04838
G1 X82.761 Y128.653 E.04838
G1 X82.238 Y129.418 E.02906
G1 X81.138 Y130.5 E.04838
G1 X80.344 Y131.005 E.0295
G1 X79.234 Y131.509 E.03822
G1 X77.721 Y131.811 E.04837
G1 X76.794 Y131.815 E.02907
G1 X75.865 Y131.666 E.0295
G1 X74.7 Y131.307 E.03822
G1 X73.367 Y130.53 E.04838
G1 X72.45 Y129.7 E.03878
G1 X45.635 Y99.636 E1.26311
G1 X44.798 Y98.313 E.04909
M73 P2 R9
M73 Q2 S9
G1 X44.315 Y96.847 E.0484
G1 X44.2 Y95.928 E.02904
G1 X44.306 Y94.388 E.0484
G1 X44.451 Y93.787 E.01938
G1 X45.062 Y92.37 E.04838
G1 X45.586 Y91.605 E.02907
G1 X46.235 Y90.925 E.02947
G1 X47.193 Y90.17 E.03824
G1 X47.59 Y89.96 E.01408
M204 S1000
G1 X47.767 Y90.293 F10800
M204 S800
G1 F1200
G1 X48.189 Y90.069 E.01498
G1 X49.581 Y89.655 E.04553
G1 X50.428 Y89.588 E.02664
G1 X51.555 Y89.647 E.03538
G1 X52.95 Y90.051 E.04554
G1 X53.772 Y90.479 E.02906
G1 X55.092 Y91.575 E.05379
G1 X81.881 Y121.606 E1.2618
G1 X82.426 Y122.38 E.02968
G1 X83.005 Y123.711 E.04551
G1 X83.174 Y124.545 E.02668
G1 X83.251 Y125.67 E.03536
G1 X83.019 Y127.104 E.04555
G1 X82.45 Y128.44 E.04553
G1 X81.927 Y129.205 E.02906
G1 X80.887 Y130.219 E.04554
G1 X80.454 Y130.52 E.01653
G1 X79.142 Y131.143 E.04554
G1 X77.719 Y131.434 E.04554
G1 X76.792 Y131.438 E.02907
G1 X75.954 Y131.3 E.02663
G1 X74.873 Y130.973 E.03541
G1 X74.051 Y130.545 E.02906
G1 X72.919 Y129.635 E.04554
G1 X45.943 Y99.418 E1.27005
G1 X45.15 Y98.178 E.04615
M73 P3 R9
M73 Q3 S9
G1 X44.689 Y96.8 E.04556
G1 X44.574 Y95.881 E.02904
G1 X44.68 Y94.432 E.04555
G1 X44.804 Y93.92 E.01652
G1 X45.373 Y92.583 E.04556
G1 X45.897 Y91.818 E.02907
G1 X46.486 Y91.207 E.02661
G1 X47.37 Y90.503 E.03543
G1 X47.714 Y90.321 E.0122
M204 S1000
;WIPE_START
G1 F8640
G1 X47.767 Y90.293 E-.01384
G1 X48.189 Y90.069 E-.11032
G1 X49.581 Y89.655 E-.33533
G1 X50.428 Y89.588 E-.19619
G1 X51.052 Y89.621 E-.14432
;WIPE_END
G1 Z.6 F720
; printing object robot_painter_02-Gripper_Assembly-gen-pt3.STL id:0 copy 0
G1 X75.286 Y124.787 F10800
G1 Z.2 F720
G1 E.8 F2100
M204 S800
;TYPE:External perimeter
;WIDTH:0.419999
G1 F1200
G1 X75.529 Y124.374 E.01502
G1 X75.823 Y123.925 E.01683
G1 X76.484 Y123.563 E.02363
G1 X76.86 Y123.402 E.01282
G1 X77.89 Y123.47 E.03237
G1 X78.486 Y123.856 E.02226
G1 X78.796 Y124.085 E.01208
G1 X79.202 Y124.82 E.02633
G1 X79.255 Y125.448 E.01976
G1 X79.247 Y125.842 E.01236
G1 X78.937 Y126.589 E.02536
G1 X78.35 Y127.138 E.0252
G1 X78.192 Y127.255 E.00616
G1 X77.389 Y127.485 E.02619
G1 X76.482 Y127.35 E.02875
G1 X75.72 Y126.832 E.02889
G1 X75.232 Y125.913 E.03263
G1 X75.204 Y125.803 E.00356
G1 X75.259 Y124.839 E.03027
M204 S1000
;WIPE_START
G1 F8640
G1 X75.286 Y124.787 E-.01353
G1 X75.529 Y124.374 E-.11065
G1 X75.823 Y123.925 E-.12392
G1 X76.484 Y123.563 E-.17402
G1 X76.86 Y123.402 E-.09444
G1 X77.89 Y123.47 E-.23835
G1 X78.054 Y123.576 E-.04509
;WIPE_END
G1 Z.6 F720
G1 X51.962 Y97.128 F10800
G1 Z.2 F720
G1 E.8 F2100
M204 S800
G1 F1200
G1 X51.927 Y97.163 E.00155
G1 X51.059 Y97.602 E.0305
G1 X49.992 Y97.566 E.03347
G1 X49.337 Y97.167 E.02405
G1 X49.028 Y96.939 E.01204
G1 X48.622 Y96.203 E.02635
G1 X48.568 Y95.576 E.01973
G1 X48.577 Y95.181 E.01239
G1 X48.886 Y94.434 E.02535
G1 X49.473 Y93.885 E.0252
G1 X49.631 Y93.769 E.00615
G1 X49.825 Y93.713 E.00633
G1 X50.434 Y93.538 E.01987
G1 X51.342 Y93.674 E.02879
G1 X52.104 Y94.192 E.02889
G1 X52.591 Y95.11 E.03258
G1 X52.619 Y95.221 E.00359
G1 X52.564 Y96.192 E.03049
G1 X52.022 Y97.066 E.03225
G1 X52.003 Y97.085 E.00084
M204 S1000
;WIPE_START
G1 F8640
G1 X51.962 Y97.128 E-.01372
G1 X51.927 Y97.163 E-.01143
G1 X51.059 Y97.602 E-.2246
G1 X49.992 Y97.566 E-.24651
G1 X49.337 Y97.167 E-.17709
G1 X49.028 Y96.939 E-.08867
G1 X48.949 Y96.795 E-.03798
;WIPE_END
G1 Z.6 F720
G1 X49.851 Y98.026 F10800
G1 Z.2 F720
G1 E.8 F2100
M204 S800
;TYPE:Perimeter
;WIDTH:0.619788
G1 F1200
G1 X49.638 Y97.935 E.01111
;WIDTH:0.64614
G1 X49.068 Y97.577 E.03376
G1 X48.867 Y97.402 E.01337
;WIDTH:0.616419
G1 X48.666 Y97.226 E.01274
;WIDTH:0.617181
G1 X48.518 Y96.994 E.01314
;WIDTH:0.647664
G1 X48.37 Y96.762 E.01384
G1 X48.135 Y96.209 E.03021
;WIDTH:0.645668
G1 X48.079 Y95.603 E.0305
G1 X48.13 Y95.025 E.02908
;WIDTH:0.639576
G1 X48.36 Y94.433 E.03151
G1 X48.623 Y94.016 E.02446
;WIDTH:0.630486
G1 X49.152 Y93.526 E.03523
G1 X49.503 Y93.321 E.01986
;WIDTH:0.618388
G1 X50.277 Y93.088 E.03868
;WIDTH:0.645276
G1 X50.884 Y93.099 E.03041
G1 X51.421 Y93.209 E.02745
;WIDTH:0.607374
G1 X51.689 Y93.326 E.01372
;WIDTH:0.622277
G1 X51.849 Y93.424 E.00904
;WIDTH:0.648164
G1 X52.009 Y93.522 E.00944
G1 X52.218 Y93.688 E.01343
;WIDTH:0.622287
G1 X52.426 Y93.855 E.01285
;WIDTH:0.645682
G1 X52.729 Y94.294 E.02673
G1 X53.015 Y94.896 E.0334
;WIDTH:0.617586
G1 X53.087 Y95.105 E.01056
M204 S1000
;WIPE_START
G1 F8640
G1 X53.015 Y94.896 E-.05104
G1 X52.729 Y94.294 E-.15389
G1 X52.426 Y93.855 E-.12317
G1 X52.218 Y93.688 E-.06159
G1 X52.009 Y93.522 E-.06163
G1 X51.849 Y93.424 E-.04332
G1 X51.689 Y93.326 E-.04332
G1 X51.421 Y93.209 E-.06752
G1 X50.884 Y93.099 E-.12657
G1 X50.59 Y93.094 E-.06795
;WIPE_END
G1 Z.6 F720
G1 X53.672 Y96.366 F10800
G1 Z.2 F720
G1 E.8 F2100
M73 Q4 S9
M204 S800
;WIDTH:0.419999
G1 F1200
G1 X53.74 Y96.482 E.00422
G1 X54.313 Y97.308 E.03152
G1 X75.739 Y121.3 E1.00856
G1 X76.061 Y121.65 E.01491
M73 P4 R9
G1 X77.039 Y122.466 E.03994
;WIDTH:0.460148
G1 X77.223 Y122.572 E.00737
;WIDTH:0.500297
G1 X77.407 Y122.677 E.00806
;WIDTH:0.540445
G1 X77.591 Y122.783 E.00878
;WIDTH:0.580594
G1 X77.775 Y122.888 E.00947
;WIDTH:0.620742
G1 X77.958 Y122.994 E.01016
G1 X77.908 Y123 E.00242
;WIDTH:0.594801
G1 X77.857 Y123.006 E.00236
;WIDTH:0.56886
G1 X77.538 Y123.013 E.01395
;WIDTH:0.51924
G1 X77.22 Y123.02 E.0126
;WIDTH:0.46962
G1 X76.901 Y123.027 E.01132
;WIDTH:0.419999
G1 X76.595 Y123.085 E.00977
G1 X75.726 Y123.523 E.03051
G1 X75.508 Y123.718 E.00917
G1 X75.213 Y124.168 E.01687
G1 X74.902 Y124.694 E.01916
G1 X74.858 Y125.254 E.01761
;WIDTH:0.466939
G1 X74.836 Y125.448 E.00688
;WIDTH:0.513879
G1 X74.814 Y125.642 E.00765
;WIDTH:0.560819
G1 X74.792 Y125.835 E.00837
;WIDTH:0.607758
G1 X74.769 Y126.029 E.00918
G1 X74.722 Y125.954 E.00416
;WIDTH:0.566791
G1 X74.674 Y125.878 E.00392
;WIDTH:0.525824
G1 X74.626 Y125.803 E.00358
;WIDTH:0.484857
G1 X74.522 Y125.552 E.00998
;WIDTH:0.452428
G1 X74.418 Y125.301 E.00925
;WIDTH:0.419999
G1 X74.254 Y124.791 E.0168
G1 X73.853 Y124.155 E.02357
G1 X73.542 Y123.736 E.01636
G1 X52.088 Y99.728 E1.00952
G1 X51.762 Y99.374 E.01509
G1 X50.784 Y98.559 E.03992
;WIDTH:0.467933
G1 X50.554 Y98.427 E.00937
;WIDTH:0.515866
G1 X50.324 Y98.295 E.01043
;WIDTH:0.563799
G1 X50.094 Y98.162 E.01151
;WIDTH:0.611732
G1 X49.864 Y98.03 E.01254
G1 X49.915 Y98.021 E.00245
;WIDTH:0.585821
G1 X49.967 Y98.013 E.00238
;WIDTH:0.559909
G1 X50.346 Y98.003 E.0163
;WIDTH:0.513273
G1 X50.726 Y97.993 E.01487
;WIDTH:0.466636
G1 X51.106 Y97.983 E.01339
;WIDTH:0.419999
G1 X52.13 Y97.482 E.03574
G1 X52.337 Y97.273 E.00922
G1 X52.915 Y96.351 E.03412
G1 X52.966 Y95.767 E.01838
;WIDTH:0.469396
G1 X52.996 Y95.602 E.00595
;WIDTH:0.518793
G1 X53.026 Y95.436 E.00667
;WIDTH:0.56819
G1 X53.056 Y95.27 E.00737
;WIDTH:0.617586
G1 X53.087 Y95.105 E.00802
G1 X53.128 Y95.167 E.00355
;WIDTH:0.581238
G1 X53.169 Y95.23 E.00336
;WIDTH:0.54489
G1 X53.246 Y95.389 E.00737
;WIDTH:0.50326
G1 X53.323 Y95.548 E.00676
;WIDTH:0.46163
G1 X53.4 Y95.707 E.00615
;WIDTH:0.419999
G1 X53.503 Y96.08 E.01213
G1 X53.641 Y96.314 E.00852
M204 S1000
;WIPE_START
G1 F8640
G1 X53.672 Y96.366 E-.01398
G1 X53.74 Y96.482 E-.03105
G1 X54.313 Y97.308 E-.23212
G1 X55.821 Y98.997 E-.52285
;WIPE_END
G1 Z.6 F720
G1 X77.958 Y122.994 F10800
G1 Z.2 F720
G1 E.8 F2100
M204 S800
;WIDTH:0.620742
G1 F1200
G1 X78.185 Y123.089 E.01182
;WIDTH:0.645306
G1 X78.755 Y123.446 E.03369
G1 X78.956 Y123.622 E.01338
;WIDTH:0.61554
G1 X79.157 Y123.797 E.01269
;WIDTH:0.616293
G1 X79.305 Y124.029 E.01312
;WIDTH:0.646812
G1 X79.454 Y124.262 E.01389
G1 X79.68 Y124.786 E.02865
;WIDTH:0.64491
G1 X79.744 Y125.42 E.0319
G1 X79.709 Y125.932 E.02569
;WIDTH:0.639044
G1 X79.464 Y126.59 E.0348
G1 X79.2 Y127.007 E.02446
;WIDTH:0.630196
G1 X78.672 Y127.498 E.03521
G1 X78.321 Y127.702 E.01982
;WIDTH:0.618302
G1 X77.547 Y127.936 E.03869
;WIDTH:0.645314
G1 X76.939 Y127.925 E.03046
G1 X76.403 Y127.814 E.02742
;WIDTH:0.607536
G1 X76.135 Y127.697 E.01373
;WIDTH:0.622481
G1 X75.975 Y127.599 E.00904
;WIDTH:0.648372
G1 X75.815 Y127.502 E.00942
G1 X75.606 Y127.335 E.01347
;WIDTH:0.622495
G1 X75.397 Y127.169 E.01286
;WIDTH:0.645912
G1 X75.095 Y126.729 E.02676
G1 X74.808 Y126.127 E.03344
;WIDTH:0.615944
G1 X74.769 Y126.029 E.00503
M204 S1000
;WIPE_START
G1 F8640
G1 X74.808 Y126.127 E-.02435
G1 X75.095 Y126.729 E-.15399
G1 X75.397 Y127.169 E-.12323
G1 X75.606 Y127.335 E-.06163
G1 X75.815 Y127.502 E-.06177
G1 X75.975 Y127.599 E-.0432
G1 X76.135 Y127.697 E-.04332
G1 X76.403 Y127.814 E-.06752
G1 X76.939 Y127.925 E-.12639
G1 X77.348 Y127.932 E-.0946
;WIPE_END
G1 Z.6 F720
G1 X53.985 Y96.155 F10800
G1 Z.2 F720
M73 P5 R9
M73 Q5 S9
G1 E.8 F2100
M204 S800
;TYPE:External perimeter
;WIDTH:0.419999
G1 F1200
G1 X54.595 Y97.057 E.03414
G1 X76.299 Y121.357 E1.02157
G1 X77.195 Y122.123 E.03696
G1 X78.368 Y122.643 E.04023
G1 X79.007 Y123.027 E.02337
G1 X79.305 Y123.288 E.01242
G1 X79.576 Y123.591 E.01275
G1 X79.911 Y124.086 E.01874
G1 X80.162 Y124.816 E.0242
G1 X80.23 Y125.477 E.02083
G1 X80.153 Y126.138 E.02087
G1 X79.898 Y126.816 E.02271
G1 X79.489 Y127.414 E.02272
G1 X78.949 Y127.896 E.0227
G1 X78.309 Y128.236 E.02272
G1 X77.606 Y128.412 E.02272
G1 X76.882 Y128.415 E.0227
G1 X76.292 Y128.272 E.01903
G1 X76 Y128.152 E.0099
G1 X75.49 Y127.871 E.01826
G1 X74.957 Y127.384 E.02264
G1 X74.648 Y126.93 E.01722
G1 X74.239 Y125.937 E.03367
G1 X73.957 Y125.043 E.02939
G1 X73.766 Y124.725 E.01163
G1 X73.261 Y123.987 E.02804
G1 X51.524 Y99.666 E1.02275
G1 X50.628 Y98.902 E.03692
G1 X49.456 Y98.382 E.0402
G1 X48.773 Y97.971 E.02499
G1 X48.36 Y97.59 E.01762
G1 X47.934 Y96.997 E.02289
G1 X47.676 Y96.324 E.0226
G1 X47.586 Y95.605 E.02272
G1 X47.67 Y94.886 E.0227
G1 X47.924 Y94.207 E.02273
G1 X48.334 Y93.609 E.02273
G1 X48.874 Y93.127 E.0227
G1 X49.514 Y92.788 E.02271
G1 X50.217 Y92.612 E.02272
G1 X50.941 Y92.609 E.0227
G1 X51.532 Y92.752 E.01907
G1 X51.823 Y92.872 E.00987
G1 X52.333 Y93.153 E.01826
G1 X52.867 Y93.639 E.02264
G1 X53.176 Y94.094 E.01725
G1 X53.584 Y95.086 E.03363
G1 X53.866 Y95.981 E.02942
G1 X53.951 Y96.106 E.00474
M204 S1000
;WIPE_START
G1 F8640
G1 X53.985 Y96.155 E-.01377
G1 X54.595 Y97.057 E-.25143
G1 X56.138 Y98.784 E-.5348
;WIPE_END
G1 Z.6 F720
G1 X52.995 Y96.574 F10800
G1 Z.2 F720
G1 E.8 F2100
M204 S800
;TYPE:Solid infill
;WIDTH:0.431537
G1 F1200
G1 X54.938 Y98.517 E.08879
G1 X59.526 Y103.654 E.22256
M73 Q6 S9
G1 X52.902 Y97.03 E.30271
M73 P6 R9
G1 X52.684 Y97.362 E.01283
G1 X64.113 Y108.791 E.52229
G1 X68.7 Y113.928 E.22254
G1 X52.445 Y97.672 E.74285
G1 X52.259 Y97.799 E.00728
G1 X52.101 Y97.878 E.00571
G1 X73.288 Y119.065 E.96821
G1 X75.75 Y121.822 E.11944
G1 X76.245 Y122.238 E.02089
G1 X76.671 Y122.627 E.01864
G1 X76.774 Y122.696 E.00401
G1 X76.641 Y122.708 E.00432
G1 X76.451 Y122.778 E.00654
G1 X51.736 Y98.063 E1.12944
G1 X51.37 Y98.246 E.01322
M73 P7 R9
M73 Q7 S9
G1 X76.085 Y122.962 E1.12946
G1 X75.72 Y123.146 E.01321
G1 X54.571 Y101.997 E.96648
G1 X59.187 Y107.163 E.22386
G1 X75.377 Y123.353 E.73986
G1 X75.229 Y123.524 E.00731
M73 P7 R8
G1 X75.138 Y123.663 E.00537
G1 X63.804 Y112.329 E.51795
G1 X68.42 Y117.495 E.22386
M73 P8 R8
M73 Q8 S9
G1 X74.92 Y123.995 E.29704
G1 X74.703 Y124.327 E.01282
M73 Q8 S8
G1 X70.898 Y120.522 E.17388
M204 S1000
M106 S84.15
;LAYER_CHANGE
;Z:0.4
;HEIGHT:0.2
;BEFORE_LAYER_CHANGE
G92 E0.0
;0.4


;WIPE_START
G1 F8640
G1 X73.348 Y122.972 E-.8
;WIPE_END
G1 Z.4 F720
;AFTER_LAYER_CHANGE
;0.4
M104 S210 ; set temperature
; stop printing object robot_painter_02-Gripper_Assembly-gen-pt3.STL id:0 copy 0
G1 Z.8
G1 X67.203 Y123.817 F10800
G1 Z.4 F720
G1 E.8 F2100
;TYPE:Skirt/Brim
;WIDTH:0.42
G1 F3000
G1 X45.635 Y99.636 E1.01595
G1 X44.798 Y98.313 E.04909
G1 X44.315 Y96.847 E.0484
G1 X44.2 Y95.928 E.02904
G1 X44.306 Y94.388 E.0484
G1 X44.451 Y93.787 E.01938
G1 X45.062 Y92.37 E.04838
G1 X45.586 Y91.605 E.02907
G1 X46.235 Y90.925 E.02947
G1 X47.193 Y90.17 E.03824
G1 X48.012 Y89.736 E.02906
G1 X49.489 Y89.289 E.04838
G1 X50.426 Y89.211 E.02948
G1 X51.644 Y89.281 E.03825
G1 X53.124 Y89.716 E.04837
G1 X53.946 Y90.144 E.02906
G1 X54.457 Y90.493 E.0194
G1 X55.373 Y91.324 E.03878
G1 X82.188 Y121.387 E1.26309
G1 X82.736 Y122.164 E.02981
G1 X83.358 Y123.576 E.04838
G1 X83.548 Y124.498 E.02952
G1 X83.626 Y125.714 E.03821
G1 X83.372 Y127.236 E.04838
G1 X82.761 Y128.653 E.04838
G1 X82.238 Y129.418 E.02906
G1 X81.138 Y130.5 E.04838
G1 X80.344 Y131.005 E.0295
G1 X79.234 Y131.509 E.03822
G1 X77.721 Y131.811 E.04837
G1 X76.794 Y131.815 E.02907
G1 X75.865 Y131.666 E.0295
G1 X74.7 Y131.307 E.03822
G1 X73.367 Y130.53 E.04838
G1 X72.45 Y129.7 E.03878
G1 X67.243 Y123.862 E.24528
G1 X67.534 Y123.603 F10800
G1 F3000
G1 X45.943 Y99.418 E1.01652
G1 X45.15 Y98.178 E.04615
G1 X44.689 Y96.8 E.04556
G1 X44.574 Y95.881 E.02904
G1 X44.68 Y94.432 E.04555
G1 X44.804 Y93.92 E.01652
G1 X45.373 Y92.583 E.04556
G1 X45.897 Y91.818 E.02907
G1 X46.486 Y91.207 E.02661
G1 X47.37 Y90.503 E.03543
G1 X48.189 Y90.069 E.02906
G1 X49.581 Y89.655 E.04553
G1 X50.428 Y89.588 E.02664
G1 X51.555 Y89.647 E.03538
G1 X52.95 Y90.051 E.04554
G1 X53.772 Y90.479 E.02906
G1 X55.092 Y91.575 E.05379
G1 X81.881 Y121.606 E1.2618
G1 X82.426 Y122.38 E.02968
M73 P9 R8
M73 Q9 S8
G1 X83.005 Y123.711 E.04551
G1 X83.174 Y124.545 E.02668
G1 X83.251 Y125.67 E.03536
G1 X83.019 Y127.104 E.04555
G1 X82.45 Y128.44 E.04553
G1 X81.927 Y129.205 E.02906
G1 X80.887 Y130.219 E.04554
G1 X80.454 Y130.52 E.01653
G1 X79.142 Y131.143 E.04554
G1 X77.719 Y131.434 E.04554
G1 X76.792 Y131.438 E.02907
G1 X75.954 Y131.3 E.02663
G1 X74.873 Y130.973 E.03541
G1 X74.051 Y130.545 E.02906
