; generated by PrusaSlicer 2.9.2 on 2025-05-06 at 10:34:28 UTC


;
;
; 

; external perimeters extrusion width = 0.45mm
; perimeters extrusion width = 0.45mm
; infill extrusion width = 0.45mm
; solid infill extrusion width = 0.45mm
; top infill extrusion width = 0.40mm
; support material extrusion width = 0.35mm
; first layer extrusion width = 0.42mm

M73 P0 R23
M73 Q0 S23
M201 X1000 Y1000 Z200 E5000 ; sets maximum accelerations, mm/sec^2
M203 X200 Y200 Z12 E120 ; sets maximum feedrates, mm / sec
M204 S1250 T1250 ; sets acceleration (S) and retract acceleration (R), mm/sec^2
M205 X8.00 Y8.00 Z0.40 E4.50 ; sets the jerk limits, mm/sec
M205 S0 T0 ; sets the minimum extruding and travel feed rate, mm/sec

; printing object robot_painter_02-Gripper_Assembly-gen-pt2.STL id:0 copy 0
; stop printing object robot_painter_02-Gripper_Assembly-gen-pt2.STL id:0 copy 0

;TYPE:Custom
M862.3 P "MK3S" ; printer model check
M862.1 P0.4 ; nozzle diameter check
M115 U3.14.1 ; tell printer latest fw version
G90 ; use absolute coordinates
M83 ; extruder relative mode
M104 S215 ; set extruder temp
M140 S60 ; set bed temp
M190 S60 ; wait for bed temp
M109 S215 ; wait for extruder temp
G28 W ; home all without mesh bed level
G80 X52.2694 Y59.2321 W56.7826 H59.0897 ; mesh bed levelling

G1 Z0.2 F720
G1 Y-3 F1000 ; go outside print area
G92 E0
G1 X60 E9 F1000 ; intro line
G1 X100 E12.5 F1000 ; intro line
M73 P0 R22

G92 E0
M221 S95

; Don't change E values below. Excessive value can damage the printer.
M907 E430 ; set extruder motor current
G21 ; set units to millimeters
G90 ; use absolute coordinates
M83 ; use relative distances for extrusion

M900 K0.05 ; Filament gcode LA 1.5
M900 K30 ; Filament gcode LA 1.0




M107
;LAYER_CHANGE
;Z:0.2
;HEIGHT:0.2
G1 E-.8 F2100
G1 Z.6 F720
G1 X52.849 Y60.361 F10800
G1 Z.2 F720
G1 E.8 F2100
M204 S800
;TYPE:Skirt/Brim
;WIDTH:0.42
G1 F1200
G1 X53.882 Y59.559 E.041
G1 X54.647 Y59.421 E.02437
G1 X67.455 Y59.421 E.40159
G1 X68.695 Y59.806 E.04071
G1 X105.608 Y85.184 E1.40452
G1 X106.325 Y86.008 E.03425
M73 Q0 S22
G1 X108.632 Y90.622 E.16174
G1 X108.864 Y91.601 E.03155
G1 X108.864 Y109.023 E.54625
G1 X108.632 Y110.002 E.03155
G1 X106.325 Y114.616 E.16174
G1 X105.06 Y115.714 E.05252
G1 X98.139 Y118.021 E.22874
G1 X97.447 Y118.133 E.02198
G1 X91.851 Y118.133 E.17546
G1 X91.133 Y118.012 E.02283
G1 X82.675 Y115.076 E.28072
G1 X80.518 Y114.078 E.07452
G1 X78.448 Y112.739 E.0773
G1 X76.594 Y111.116 E.07726
G1 X74.884 Y109.1 E.08289
G1 X52.86 Y77.989 E1.19515
G1 X52.458 Y76.724 E.04162
M73 P1 R22
M73 Q1 S22
G1 X52.458 Y61.609 E.47392
G1 X52.831 Y60.418 E.03913
M204 S1000
;WIPE_START
G1 F8640
G1 X52.849 Y60.361 E-.0138
G1 X53.882 Y59.559 E-.30197
G1 X54.647 Y59.421 E-.17949
G1 X55.967 Y59.421 E-.30474
;WIPE_END
G1 Z.6 F720
; printing object robot_painter_02-Gripper_Assembly-gen-pt2.STL id:0 copy 0
G1 X101.097 Y110.694 F10800
G1 Z.2 F720
G1 E.8 F2100
M204 S800
;TYPE:Support material interface
;WIDTH:0.35
G1 F1200
G1 X101.424 Y110.694 E.00835
G1 X101.424 Y108.387 E.05891
G1 X100.944 Y108.387 E.01226
G1 X100.944 Y110.694 E.05891
G1 X100.437 Y110.694 E.01295
G1 X100.437 Y108.387 E.05891
G1 X100.283 Y108.387 E.00393
G1 X100.332 Y108.687 E.00776
M204 S1000
G1 X100.191 Y108.92 F10800
M204 S800
G1 F1200
G1 X99.93 Y109.019 E.00713
G1 X99.93 Y110.694 E.04277
G1 X99.423 Y110.694 E.01295
G1 X99.423 Y109.047 E.04205
G1 X99.117 Y109.01 E.00787
G1 X99.117 Y110.694 E.043
G1 X98.916 Y110.694 E.00513
G1 X98.916 Y113.001 E.05891
G1 X98.409 Y113.001 E.01295
G1 X98.409 Y110.694 E.05891
G1 X97.901 Y110.694 E.01297
G1 X97.901 Y113.001 E.05891
G1 X97.394 Y113.001 E.01295
G1 X97.394 Y111.48 E.03884
G1 X96.887 Y111.472 E.01295
G1 X96.887 Y113.001 E.03904
M204 S1000
;WIPE_START
G1 F8640
G1 X96.887 Y111.472 E-.35305
G1 X97.394 Y111.48 E-.11708
G1 X97.394 Y112.909 E-.32987
;WIPE_END
G1 Z.6 F720
G1 X95.292 Y110.117 F10800
G1 Z.2 F720
G1 E.8 F2100
M204 S800
;TYPE:Support material
;WIDTH:0.42
G1 F1200
G1 X95.836 Y110.723 E.02553
G1 X96.447 Y111.078 E.02216
G1 X96.447 Y113.365 E.07171
G1 X98.032 Y113.365 E.0497
G1 X97.951 Y113.638 E.00893
G1 X97.447 Y113.638 E.0158
G1 X97.447 Y115.945 E.07233
G1 X91.851 Y115.945 E.17546
G1 X91.287 Y113.775 E.0703
G1 X91.869 Y113.69 E.01844
G1 X93.507 Y113.233 E.05332
G1 X94.083 Y112.992 E.01958
G1 X94.29 Y112.533 E.01579
G1 X94.396 Y112.034 E.01599
G1 X94.404 Y111.497 E.01684
G1 X94.302 Y110.921 E.01834
G1 X94.033 Y110.325 E.0205
G1 X95.072 Y109.773 E.03689
G1 X95.261 Y110.07 E.01104
M204 S1000
G1 X97.001 Y115.775 F10800
M204 S800
G1 F1200
G1 X97.001 Y113.704 E.06493
G1 X96.582 Y113.704 E.01314
G1 X96.582 Y115.605 E.0596
G1 X96.163 Y115.605 E.01314
G1 X96.107 Y111.303 E.1349
G1 X95.744 Y111.071 E.01351
G1 X95.744 Y115.605 E.14216
G1 X95.325 Y115.605 E.01314
G1 X95.325 Y110.717 E.15326
G1 X94.96 Y110.229 E.01911
G1 X94.906 Y110.26 E.00195
G1 X94.906 Y115.605 E.16759
G1 X94.487 Y115.605 E.01314
G1 X94.487 Y112.99 E.08199
G1 X94.333 Y113.228 E.00889
G1 X94.068 Y113.409 E.01006
G1 X94.068 Y115.605 E.06885
G1 X93.649 Y115.605 E.01314
G1 X93.649 Y113.544 E.06462
G1 X93.23 Y113.663 E.01366
G1 X93.23 Y115.605 E.06089
G1 X92.811 Y115.605 E.01314
G1 X92.811 Y113.78 E.05722
G1 X92.392 Y113.896 E.01363
G1 X92.392 Y115.605 E.05358
G1 X92.113 Y115.605 E.00875
G1 X91.973 Y115.067 E.01743
G1 X91.973 Y113.837 E.03857
M204 S1000
;WIPE_START
G1 F8640
G1 X91.973 Y115.067 E-.28401
G1 X92.113 Y115.605 E-.12836
G1 X92.392 Y115.605 E-.06442
G1 X92.392 Y114.205 E-.32321
;WIPE_END
G1 Z.6 F720
G1 X94.487 Y110.956 F10800
G1 Z.2 F720
G1 E.8 F2100
M204 S800
G1 F1200
G1 X94.487 Y110.289 E.02091
M204 S1000
;WIPE_START
G1 F8640
G1 X94.487 Y110.956 E-.15401
;WIPE_END
G1 E-.64599 F2100
G1 Z.6 F720
G1 X97.83 Y108.146 F10800
G1 Z.2 F720
G1 E.8 F2100
M204 S800
G1 F1200
G1 X98.078 Y108.364 E.01035
G1 X98.754 Y108.673 E.0233
G1 X98.754 Y110.331 E.05199
G1 X97.416 Y110.331 E.04195
G1 X97.277 Y109.716 E.01977
G1 X97.066 Y109.228 E.01667
G1 X96.608 Y108.652 E.02307
G1 X97.519 Y107.855 E.03795
G1 X97.789 Y108.107 E.01158
M204 S1000
G1 X98.258 Y110.161 F10800
M204 S800
G1 F1200
G1 X98.258 Y108.843 E.04132
G1 X97.839 Y108.611 E.01502
G1 X97.839 Y109.991 E.04327
G1 X97.694 Y109.991 E.00455
G1 X97.42 Y109.19 E.02654
G1 X97.42 Y108.187 E.03145
M204 S1000
;WIPE_START
G1 F8640
G1 X97.42 Y109.19 E-.2316
G1 X97.694 Y109.991 E-.19547
G1 X97.839 Y109.991 E-.03348
G1 X97.839 Y108.611 E-.31865
G1 X97.918 Y108.655 E-.0208
;WIPE_END
G1 Z.6 F720
G1 X101.816 Y105.996 F10800
G1 Z.2 F720
G1 E.8 F2100
M204 S800
;TYPE:Support material interface
;WIDTH:0.35
G1 F1200
G1 X101.466 Y106.08 E.00919
G1 X101.958 Y106.08 E.01256
G1 X101.958 Y105.938 E.00363
G1 X102.212 Y105.835 E.007
G1 X102.262 Y105.696 E.00377
M204 S1000
G1 X101.944 Y105.509 F10800
M204 S800
;TYPE:Support material
;WIDTH:0.42
G1 F1200
G1 X101.915 Y105.552 E.00163
M204 S1000
;WIPE_START
G1 F8640
G1 X101.944 Y105.509 E-.01198
;WIPE_END
G1 E-.78802 F2100
G1 Z.6 F720
G1 X101.451 Y102.947 F10800
G1 Z.2 F720
G1 E.8 F2100
M204 S800
;TYPE:Support material interface
;WIDTH:0.35
G1 F1200
G1 X101.451 Y104.07 E.02867
G1 X101.958 Y104.681 E.02027
G1 X101.958 Y102.923 E.04489
G1 X102.465 Y102.817 E.01323
G1 X102.465 Y106.08 E.08332
G1 X102.972 Y106.08 E.01295
G1 X102.972 Y102.608 E.08865
G1 X103.235 Y102.422 E.00823
M204 S1000
G1 X103.099 Y102.069 F10800
M204 S800
;TYPE:Support material
;WIDTH:0.42
G1 F1200
G1 X103.104 Y102.021 E.00151
M204 S1000
G1 X103.479 Y101.927 F10800
M204 S800
;TYPE:Support material interface
;WIDTH:0.35
G1 F1200
G1 X103.479 Y106.08 E.10604
G1 X103.732 Y106.08 E.00646
G1 X103.732 Y101.466 E.11781
G1 X103.479 Y101.466 E.00646
G1 X103.479 Y101.89 E.01083
G1 X103.168 Y101.466 E.01343
G1 X103.326 Y101.466 E.00403
M204 S1000
;WIPE_START
G1 F8640
G1 X103.168 Y101.466 E-.03648
G1 X103.479 Y101.89 E-.12142
G1 X103.479 Y101.466 E-.0979
G1 X103.732 Y101.466 E-.05842
G1 X103.732 Y103.57 E-.48578
;WIPE_END
G1 Z.6 F720
G1 X103.326 Y99.159 F10800
G1 Z.2 F720
G1 E.8 F2100
M204 S800
G1 F1200
G1 X103.128 Y99.159 E.00506
G1 X103.479 Y98.864 E.01171
G1 X103.479 Y99.159 E.00753
G1 X103.732 Y99.159 E.00646
G1 X103.732 Y98.572 E.01499
G1 X103.58 Y98.748 E.00594
M204 S1000
G1 X103.396 Y98.35 F10800
M204 S800
;TYPE:Support material
;WIDTH:0.42
G1 F1200
G1 X103.384 Y98.389 E.00128
M204 S1000
G1 X103.597 Y98.044 F10800
M204 S800
;TYPE:Support material interface
;WIDTH:0.35
G1 F1200
G1 X103.732 Y98.156 E.00448
G1 X103.732 Y94.545 E.0922
G1 X103.479 Y94.545 E.00646
M73 P2 R22
M73 Q2 S22
G1 X103.479 Y97.945 E.08681
G1 X102.972 Y97.611 E.0155
G1 X102.972 Y95.102 E.06406
G1 X103.118 Y94.781 E.009
G1 X103.018 Y94.545 E.00654
M204 S1000
G1 X102.701 Y94.727 F10800
M204 S800
;TYPE:Support material
;WIDTH:0.42
G1 F1200
G1 X102.709 Y94.777 E.00159
M204 S1000
G1 X102.905 Y95.24 F10800
M204 S800
;TYPE:Support material interface
;WIDTH:0.35
G1 F1200
G1 X102.465 Y95.801 E.0182
G1 X102.465 Y97.397 E.04075
G1 X101.958 Y97.281 E.01328
G1 X101.958 Y96.189 E.02788
G1 X101.451 Y96.446 E.01451
G1 X101.451 Y97.255 E.02066
M204 S1000
G1 X101.061 Y97.576 F10800
M204 S800
;TYPE:Support material
;WIDTH:0.42
G1 F1200
G1 X100.966 Y97.587 E.003
G1 X100.756 Y96.372 E.03866
G1 X101.061 Y96.292 E.00989
G1 X101.061 Y97.519 E.03847
M204 S1000
;WIPE_START
G1 F8640
G1 X101.061 Y96.292 E-.28332
G1 X100.756 Y96.372 E-.07281
G1 X100.966 Y97.587 E-.28471
G1 X101.061 Y97.576 E-.02208
;WIPE_END
G1 E-.13708 F2100
G1 Z.6 F720
G1 X101.046 Y102.636 F10800
G1 Z.2 F720
G1 E.8 F2100
M204 S800
G1 F1200
G1 X101.061 Y104.102 E.04597
G1 X100.211 Y103.683 E.02971
G1 X100.609 Y102.525 E.03839
G1 X100.991 Y102.622 E.01236
M204 S1000
;WIPE_START
G1 F8640
G1 X100.609 Y102.525 E-.091
G1 X100.211 Y103.683 E-.28274
G1 X101.061 Y104.102 E-.21882
G1 X101.052 Y103.203 E-.20744
;WIPE_END
G1 Z.6 F720
G1 X101.353 Y92.238 F10800
G1 Z.2 F720
G1 E.8 F2100
M204 S800
;TYPE:Support material interface
;WIDTH:0.35
G1 F1200
G1 X101.424 Y92.238 E.00181
G1 X101.424 Y92.011 E.0058
G1 X101.324 Y92.226 E.00605
M204 S1000
G1 X101.16 Y91.386 F10800
M204 S800
;TYPE:Support material
;WIDTH:0.42
G1 F1200
G1 X101.18 Y91.432 E.00157
M204 S1000
G1 X101.09 Y91.008 F10800
M204 S800
;TYPE:Support material interface
;WIDTH:0.35
G1 F1200
G1 X101.351 Y91.038 E.00671
G1 X101.424 Y91.134 E.00308
G1 X101.424 Y89.93 E.03074
G1 X100.944 Y89.93 E.01226
G1 X100.944 Y90.96 E.0263
G1 X100.437 Y90.929 E.01297
G1 X100.437 Y89.93 E.02551
G1 X99.93 Y89.93 E.01295
G1 X99.93 Y90.985 E.02694
G1 X99.423 Y91.127 E.01344
G1 X99.423 Y89.93 E.03056
G1 X99.117 Y89.93 E.00781
G1 X99.117 Y89.696 E.00597
G1 X99.022 Y89.93 E.00645
G1 X99.117 Y89.93 E.00243
G1 X99.117 Y91.249 E.03368
G1 X99.279 Y91.18 E.0045
M204 S1000
;WIPE_START
G1 F8640
G1 X99.117 Y91.249 E-.04066
G1 X99.117 Y89.93 E-.30456
G1 X99.022 Y89.93 E-.02194
G1 X99.117 Y89.696 E-.05831
G1 X99.117 Y89.93 E-.05403
G1 X99.423 Y89.93 E-.07066
G1 X99.423 Y91.012 E-.24984
;WIPE_END
G1 Z.6 F720
G1 X98.754 Y90.294 F10800
G1 Z.2 F720
G1 E.8 F2100
M204 S800
;TYPE:Support material
;WIDTH:0.42
G1 F1200
G1 X98.754 Y91.612 E.04132
G1 X99.065 Y91.612 E.00975
G1 X98.695 Y91.876 E.01425
G1 X97.937 Y90.924 E.03816
G1 X98.547 Y90.294 E.0275
G1 X98.697 Y90.294 E.0047
M204 S1000
G1 X98.901 Y88.546 F10800
M204 S800
G1 F1200
G1 X98.858 Y88.512 E.00172
M204 S1000
G1 X99.05 Y88.19 F10800
M204 S800
;TYPE:Support material interface
;WIDTH:0.35
G1 F1200
G1 X99.117 Y88.251 E.00231
G1 X99.117 Y87.623 E.01604
G1 X98.916 Y87.623 E.00513
G1 X98.916 Y88.145 E.01333
G1 X98.409 Y88.184 E.01298
G1 X98.409 Y87.623 E.01432
G1 X97.901 Y87.623 E.01297
G1 X97.901 Y88.297 E.01721
G1 X97.394 Y88.519 E.01413
G1 X97.394 Y87.623 E.02288
G1 X96.887 Y87.623 E.01295
G1 X96.887 Y88.853 E.03141
M204 S1000
;WIPE_START
G1 F8640
G1 X96.887 Y87.623 E-.28401
G1 X97.394 Y87.623 E-.11707
G1 X97.394 Y88.519 E-.20689
G1 X97.901 Y88.297 E-.1278
G1 X97.901 Y88.019 E-.06423
;WIPE_END
G1 Z.6 F720
G1 X99.447 Y86.987 F10800
G1 Z.2 F720
G1 E.8 F2100
M204 S800
;TYPE:Support material
;WIDTH:0.42
G1 F1200
G1 X104.368 Y86.987 E.15429
G1 X104.368 Y91.601 E.14467
G1 X106.675 Y91.601 E.07233
G1 X106.675 Y109.023 E.54625
G1 X104.368 Y109.023 E.07233
G1 X104.368 Y113.638 E.1447
G1 X98.788 Y113.638 E.17496
G1 X98.788 Y113.365 E.00856
G1 X99.481 Y113.365 E.02173
G1 X99.481 Y111.058 E.07233
G1 X101.788 Y111.058 E.07233
G1 X101.788 Y108.023 E.09516
G1 X99.996 Y108.023 E.05619
G1 X99.606 Y107.22 E.02799
G1 X99.258 Y106.79 E.01734
G1 X98.729 Y106.4 E.02061
G1 X99.398 Y105.383 E.03817
G1 X100.077 Y105.741 E.02407
G1 X101.061 Y105.886 E.03119
G1 X101.061 Y106.444 E.0175
G1 X104.095 Y106.444 E.09513
G1 X104.095 Y101.102 E.16749
G1 X102.336 Y101.102 E.05515
G1 X101.692 Y100.788 E.02246
G1 X100.973 Y100.682 E.02279
G1 X101.07 Y99.474 E.038
G1 X101.807 Y99.466 E.02311
G1 X102.351 Y99.314 E.01771
G1 X102.397 Y99.522 E.00668
G1 X104.095 Y99.522 E.05324
G1 X104.095 Y94.181 E.16746
G1 X102.359 Y94.181 E.05443
G1 X102.293 Y94.407 E.00738
G1 X101.401 Y94.285 E.02823
G1 X100.874 Y94.334 E.01659
G1 X100.191 Y94.588 E.02285
G1 X99.685 Y93.462 E.03871
G1 X100.356 Y93.078 E.02424
G1 X100.806 Y92.601 E.02056
G1 X101.788 Y92.601 E.03079
G1 X101.788 Y89.567 E.09513
G1 X99.481 Y89.567 E.07233
G1 X99.481 Y87.26 E.07233
G1 X96.447 Y87.26 E.09513
G1 X96.447 Y89.517 E.07077
G1 X95.603 Y88.878 E.03319
G1 X95.993 Y88.233 E.02363
G1 X96.194 Y87.369 E.02781
G1 X96.175 Y86.75 E.01942
G1 X96.002 Y86.28 E.0157
G1 X95.282 Y85.823 E.02674
G1 X93.925 Y85.274 E.0459
G1 X94.051 Y84.68 E.01904
G1 X99.447 Y84.68 E.16919
G1 X99.447 Y86.93 E.07055
M204 S1000
;WIPE_START
G1 F8640
G1 X99.447 Y84.68 E-.51953
G1 X98.232 Y84.68 E-.28047
;WIPE_END
G1 Z.6 F720
G1 X106.218 Y108.854 F10800
G1 Z.2 F720
G1 E.8 F2100
M204 S800
G1 F1200
G1 X106.218 Y91.941 E.5303
G1 X105.799 Y91.941 E.01314
G1 X105.799 Y108.684 E.52497
G1 X105.38 Y108.684 E.01314
G1 X105.38 Y91.941 E.52497
G1 X104.961 Y91.941 E.01314
M73 P3 R22
M73 Q3 S22
G1 X104.961 Y108.684 E.52497
G1 X104.542 Y108.684 E.01314
G1 X104.542 Y91.941 E.52497
G1 X104.123 Y91.941 E.01314
G1 X104.123 Y93.842 E.0596
G1 X103.704 Y93.842 E.01314
G1 X103.704 Y87.326 E.2043
G1 X103.286 Y87.326 E.01311
G1 X103.286 Y93.842 E.2043
G1 X102.867 Y93.842 E.01314
G1 X102.867 Y87.326 E.2043
G1 X102.448 Y87.326 E.01314
G1 X102.448 Y93.842 E.2043
G1 X102.105 Y93.842 E.01075
G1 X102.029 Y94.001 E.00553
G1 X102.029 Y87.326 E.20929
G1 X101.61 Y87.326 E.01314
G1 X101.61 Y89.227 E.0596
G1 X101.191 Y89.227 E.01314
G1 X101.191 Y87.326 E.0596
G1 X100.772 Y87.326 E.01314
G1 X100.772 Y89.227 E.0596
G1 X100.353 Y89.227 E.01314
G1 X100.353 Y87.326 E.0596
G1 X99.934 Y87.326 E.01314
G1 X99.934 Y89.397 E.06493
M204 S1000
;WIPE_START
G1 F8640
G1 X99.934 Y87.326 E-.4782
G1 X100.353 Y87.326 E-.09675
G1 X100.353 Y88.301 E-.22505
;WIPE_END
G1 Z.6 F720
G1 X104.123 Y113.468 F10800
G1 Z.2 F720
G1 E.8 F2100
M204 S800
G1 F1200
G1 X104.123 Y106.783 E.2096
G1 X103.704 Y106.783 E.01314
G1 X103.704 Y113.298 E.20427
G1 X103.285 Y113.298 E.01314
G1 X103.285 Y106.783 E.20427
G1 X102.867 Y106.783 E.01311
G1 X102.867 Y113.298 E.20427
G1 X102.448 Y113.298 E.01314
G1 X102.448 Y106.783 E.20427
G1 X102.029 Y106.783 E.01314
G1 X102.029 Y113.298 E.20427
G1 X101.61 Y113.298 E.01314
G1 X101.61 Y111.397 E.0596
G1 X101.191 Y111.397 E.01314
G1 X101.191 Y113.298 E.0596
G1 X100.772 Y113.298 E.01314
G1 X100.772 Y111.397 E.0596
G1 X100.353 Y111.397 E.01314
G1 X100.353 Y113.298 E.0596
G1 X99.934 Y113.298 E.01314
G1 X99.934 Y111.228 E.0649
M204 S1000
;WIPE_START
G1 F8640
G1 X99.934 Y113.298 E-.47797
G1 X100.353 Y113.298 E-.09675
G1 X100.353 Y112.322 E-.22528
;WIPE_END
G1 Z.6 F720
G1 X104.123 Y100.933 F10800
G1 Z.2 F720
G1 E.8 F2100
M204 S800
G1 F1200
G1 X104.123 Y99.862 E.03358
G1 X103.704 Y99.862 E.01314
G1 X103.704 Y100.763 E.02825
G1 X103.285 Y100.763 E.01314
G1 X103.285 Y99.862 E.02825
G1 X102.867 Y99.862 E.01311
G1 X102.867 Y100.763 E.02825
G1 X102.448 Y100.763 E.01314
G1 X102.448 Y99.862 E.02825
G1 X102.124 Y99.862 E.01016
G1 X102.098 Y99.743 E.00382
G1 X102.029 Y99.762 E.00224
G1 X102.029 Y100.562 E.02508
G1 X101.61 Y100.426 E.01381
G1 X101.61 Y99.641 E.02461
M204 S1000
;WIPE_START
G1 F8640
