; generated by PrusaSlicer 2.9.2 on 2025-05-06 at 10:35:32 UTC


;
;
; 

; external perimeters extrusion width = 0.45mm
; perimeters extrusion width = 0.45mm
; infill extrusion width = 0.45mm
; solid infill extrusion width = 0.45mm
; top infill extrusion width = 0.40mm
; support material extrusion width = 0.35mm
; first layer extrusion width = 0.42mm

M73 P0 R19
M73 Q0 S19
M201 X1000 Y1000 Z200 E5000 ; sets maximum accelerations, mm/sec^2
M203 X200 Y200 Z12 E120 ; sets maximum feedrates, mm / sec
M204 S1250 T1250 ; sets acceleration (S) and retract acceleration (R), mm/sec^2
M205 X8.00 Y8.00 Z0.40 E4.50 ; sets the jerk limits, mm/sec
M205 S0 T0 ; sets the minimum extruding and travel feed rate, mm/sec

; printing object robot_painter_02-Gripper_Assembly-gen-pt4.STL id:0 copy 0
; stop printing object robot_painter_02-Gripper_Assembly-gen-pt4.STL id:0 copy 0

;TYPE:Custom
M862.3 P "MK3S" ; printer model check
M862.1 P0.4 ; nozzle diameter check
M115 U3.14.1 ; tell printer latest fw version
G90 ; use absolute coordinates
M83 ; extruder relative mode
M104 S215 ; set extruder temp
M140 S60 ; set bed temp
M190 S60 ; wait for bed temp
M109 S215 ; wait for extruder temp
G28 W ; home all without mesh bed level
G80 X107.599 Y71.058 W35.7589 H64.0709 ; mesh bed levelling

G1 Z0.2 F720
G1 Y-3 F1000 ; go outside print area
G92 E0
G1 X60 E9 F1000 ; intro line
G1 X100 E12.5 F1000 ; intro line

G92 E0
M221 S95

; Don't change E values below. Excessive value can damage the printer.
M907 E430 ; set extruder motor current
G21 ; set units to millimeters
G90 ; use absolute coordinates
M83 ; use relative distances for extrusion

M900 K0.05 ; Filament gcode LA 1.5
M900 K30 ; Filament gcode LA 1.0




M107
;LAYER_CHANGE
;Z:0.2
;HEIGHT:0.2
G1 E-.8 F2100
G1 Z.6 F720
G1 X118.593 Y74.611 F10800
G1 Z.2 F720
G1 E.8 F2100
M204 S800
;TYPE:Skirt/Brim
;WIDTH:0.42
G1 F1200
G1 X119.458 Y73.309 E.04901
G1 X120.637 Y72.269 E.04929
G1 X121.125 Y71.973 E.0179
G1 X122.589 Y71.41 E.04918
G1 X123.587 Y71.257 E.03166
G1 X124.507 Y71.284 E.02886
G1 X125.71 Y71.492 E.03828
G1 X127.145 Y72.132 E.04927
G1 X128.366 Y73.122 E.04929
G1 X129.289 Y74.392 E.04923
G1 X129.739 Y75.43 E.03547
G1 X143.032 Y111.226 E1.19725
G1 X143.169 Y111.988 E.02428
G1 X143.169 Y123.524 E.3617
G1 X142.528 Y125.071 E.0525
G1 X135.472 Y132.025 E.31062
G1 X134.946 Y132.398 E.02022
G1 X130.382 Y134.705 E.16034
G1 X129.395 Y134.94 E.03181
G1 X120.267 Y134.94 E.2862
G1 X118.869 Y134.435 E.04661
G1 X113.397 Y129.828 E.22428
M73 Q1 S19
G1 X112.376 Y128.856 E.0442
M73 P1 R19
G1 X110.96 Y127.119 E.07027
G1 X109.782 Y125.207 E.07041
G1 X108.869 Y123.161 E.07025
G1 X108.229 Y121.008 E.07043
G1 X107.91 Y119.078 E.06133
G1 X107.792 Y117.748 E.04187
G1 X107.901 Y115.257 E.07818
G1 X108.229 Y113.377 E.05984
G1 X118.224 Y75.549 E1.22677
G1 X118.571 Y74.667 E.02972
M204 S1000
;WIPE_START
G1 F8640
G1 X118.593 Y74.611 E-.01389
G1 X119.458 Y73.309 E-.36094
G1 X120.637 Y72.269 E-.36301
G1 X120.867 Y72.129 E-.06216
;WIPE_END
G1 Z.6 F720
; printing object robot_painter_02-Gripper_Assembly-gen-pt4.STL id:0 copy 0
G1 X139.383 Y111.988 F10800
G1 Z.2 F720
G1 E.8 F2100
M204 S800
;TYPE:Support material interface
;WIDTH:0.35
G1 F1200
G1 X139.029 Y111.988 E.00904
G1 X139.029 Y113.63 E.04193
G1 X138.673 Y113.479 E.00987
G1 X138.673 Y111.988 E.03807
G1 X138.876 Y111.988 E.00518
M204 S1000
;WIPE_START
G1 F8640
G1 X138.673 Y111.988 E-.04687
G1 X138.673 Y113.479 E-.34428
G1 X139.029 Y113.63 E-.08929
G1 X139.029 Y112.246 E-.31956
;WIPE_END
G1 Z.6 F720
G1 X138.89 Y116.875 F10800
G1 Z.2 F720
G1 E.8 F2100
M204 S800
G1 F1200
G1 X138.673 Y116.773 E.00612
G1 X138.673 Y115.346 E.03644
G1 X139.029 Y115.063 E.01161
G1 X139.029 Y116.941 E.04795
G1 X139.536 Y117.313 E.01606
G1 X139.536 Y114.414 E.07402
G1 X139.63 Y114.248 E.00487
G1 X139.536 Y113.995 E.00689
G1 X139.536 Y111.988 E.05125
G1 X140.043 Y111.988 E.01295
G1 X140.043 Y118.909 E.17672
G1 X140.55 Y118.909 E.01295
G1 X140.55 Y111.988 E.17672
G1 X140.98 Y111.988 E.01098
G1 X140.98 Y118.909 E.17672
G1 X140.704 Y118.909 E.00705
M204 S1000
;WIPE_START
G1 F8640
G1 X140.98 Y118.909 E-.06373
G1 X140.98 Y115.72 E-.73627
;WIPE_END
G1 Z.6 F720
G1 X139.798 Y118.143 F10800
G1 Z.2 F720
G1 E.8 F2100
M204 S800
G1 F1200
G1 X139.536 Y118.401 E.00939
G1 X139.536 Y118.909 E.01297
G1 X139.029 Y118.909 E.01295
G1 X139.029 Y118.727 E.00465
G1 X138.673 Y118.866 E.00976
G1 X138.876 Y118.909 E.0053
M204 S1000
;WIPE_START
G1 F8640
G1 X138.673 Y118.866 E-.04791
G1 X139.029 Y118.727 E-.08825
G1 X139.029 Y118.909 E-.04202
G1 X139.536 Y118.909 E-.11707
G1 X139.536 Y118.401 E-.1173
G1 X139.798 Y118.143 E-.0849
;WIPE_END
G1 E-.30255 F2100
G1 Z.6 F720
G1 X135.235 Y126.33 F10800
G1 Z.2 F720
G1 E.8 F2100
M204 S800
G1 F1200
G1 X134.972 Y125.831 E.0144
G1 X135.326 Y125.831 E.00904
M204 S1000
;WIPE_START
G1 F8640
G1 X134.972 Y125.831 E-.08174
G1 X135.235 Y126.33 E-.13024
;WIPE_END
G1 E-.58802 F2100
G1 Z.6 F720
G1 X137.439 Y123.84 F10800
G1 Z.2 F720
G1 E.8 F2100
M204 S800
G1 F1200
G1 X137.21 Y123.524 E.00996
G1 X137.354 Y123.524 E.00368
M204 S1000
;WIPE_START
G1 F8640
G1 X137.21 Y123.524 E-.03325
G1 X137.439 Y123.84 E-.09011
;WIPE_END
G1 E-.67664 F2100
G1 Z.6 F720
G1 X140.704 Y123.524 F10800
G1 Z.2 F720
G1 E.8 F2100
M204 S800
G1 F1200
G1 X140.98 Y123.524 E.00705
G1 X140.98 Y121.216 E.05893
G1 X140.55 Y121.216 E.01098
G1 X140.55 Y123.524 E.05893
G1 X140.043 Y123.524 E.01295
G1 X140.043 Y121.216 E.05893
G1 X139.536 Y121.216 E.01295
G1 X139.536 Y123.524 E.05893
G1 X139.029 Y123.524 E.01295
G1 X139.029 Y121.88 E.04198
G1 X138.673 Y122.062 E.01021
G1 X138.673 Y123.524 E.03733
G1 X138.522 Y123.524 E.00386
G1 X138.522 Y125.831 E.05891
G1 X138.015 Y125.831 E.01295
G1 X138.015 Y123.524 E.05891
G1 X137.508 Y123.524 E.01295
G1 X137.508 Y123.977 E.01157
G1 X137.769 Y124.704 E.01972
M204 S1000
G1 X137.769 Y124.979 F10800
M204 S800
G1 F1200
G1 X137.671 Y125.201 E.0062
G1 X137.508 Y125.245 E.00431
G1 X137.508 Y125.831 E.01496
G1 X137.001 Y125.831 E.01295
G1 X137.001 Y125.356 E.01213
G1 X136.494 Y125.378 E.01296
G1 X136.494 Y125.831 E.01157
G1 X136.366 Y125.831 E.00327
G1 X136.366 Y128.138 E.05891
G1 X135.987 Y128.138 E.00968
G1 X135.987 Y125.831 E.05891
G1 X135.48 Y125.831 E.01295
G1 X135.537 Y127.83 E.05106
G1 X135.48 Y128.138 E.008
G1 X135.274 Y128.138 E.00526
G1 X135.385 Y128.025 E.00404
M204 S1000
;WIPE_START
G1 F8640
G1 X135.274 Y128.138 E-.03657
G1 X135.48 Y128.138 E-.04757
G1 X135.537 Y127.83 E-.07233
G1 X135.48 Y125.831 E-.46176
G1 X135.987 Y125.831 E-.11707
G1 X135.987 Y126.111 E-.0647
;WIPE_END
G1 Z.6 F720
G1 X134.059 Y128.436 F10800
G1 Z.2 F720
G1 E.8 F2100
M204 S800
G1 F1200
G1 X134.059 Y128.138 E.00761
G1 X134.465 Y128.098 E.01042
G1 X134.059 Y127.999 E.01067
G1 X134.059 Y128.138 E.00355
G1 X133.958 Y128.138 E.00258
G1 X133.958 Y130.445 E.05891
G1 X133.451 Y130.445 E.01295
G1 X133.451 Y128.138 E.05891
G1 X132.944 Y128.138 E.01295
G1 X132.944 Y130.445 E.05891
G1 X132.437 Y130.445 E.01295
G1 X132.437 Y130.264 E.00462
G1 X132.577 Y130.153 E.00456
G1 X132.583 Y129.958 E.00498
M204 S1000
G1 X132.317 Y130.359 F10800
M204 S800
G1 F1200
G1 X131.93 Y130.329 E.00991
G1 X131.93 Y130.445 E.00296
G1 X131.752 Y130.445 E.00455
G1 X131.781 Y130.294 E.00393
M204 S1000
;WIPE_START
G1 F8640
G1 X131.752 Y130.445 E-.0355
G1 X131.93 Y130.445 E-.0411
G1 X131.93 Y130.329 E-.02678
G1 X132.317 Y130.359 E-.08963
;WIPE_END
G1 E-.60699 F2100
G1 Z.6 F720
G1 X129.445 Y131.339 F10800
G1 Z.2 F720
M73 Q2 S19
G1 E.8 F2100
M204 S800
G1 F1200
G1 X129.445 Y130.911 E.01093
G1 X129.395 Y132.752 E.04703
G1 X128.888 Y132.752 E.01295
M73 P2 R19
G1 X128.888 Y131.779 E.02484
G1 X128.762 Y131.833 E.0035
G1 X128.38 Y131.645 E.01087
G1 X128.38 Y132.752 E.02827
G1 X127.873 Y132.752 E.01295
G1 X127.873 Y131.25 E.03835
G1 X127.366 Y130.599 E.02107
G1 X127.366 Y132.752 E.05497
G1 X126.859 Y132.752 E.01295
G1 X126.859 Y130.445 E.05891
G1 X126.352 Y130.445 E.01295
G1 X126.352 Y132.752 E.05891
G1 X125.845 Y132.752 E.01295
G1 X125.845 Y131.719 E.02638
G1 X125.338 Y132.305 E.01979
G1 X125.338 Y132.752 E.01141
G1 X124.831 Y132.752 E.01295
G1 X124.831 Y132.192 E.0143
M204 S1000
;WIPE_START
G1 F8640
G1 X124.831 Y132.752 E-.12931
G1 X125.338 Y132.752 E-.11707
G1 X125.338 Y132.305 E-.10321
G1 X125.845 Y131.719 E-.17892
G1 X125.845 Y132.752 E-.23852
G1 X125.988 Y132.752 E-.03297
;WIPE_END
G1 Z.6 F720
G1 X122.524 Y131.876 F10800
G1 Z.2 F720
G1 E.8 F2100
M204 S800
G1 F1200
G1 X122.524 Y131.205 E.01713
G1 X122.296 Y131.445 E.00845
G1 X122.296 Y132.752 E.03337
G1 X121.788 Y132.752 E.01297
G1 X121.788 Y131.856 E.02288
G1 X121.548 Y131.999 E.00713
G1 X121.281 Y131.933 E.00702
G1 X121.281 Y132.752 E.02091
G1 X120.774 Y132.752 E.01295
G1 X120.774 Y131.055 E.04333
G1 X120.636 Y130.445 E.01597
G1 X120.267 Y130.445 E.00942
G1 X120.267 Y132.752 E.05891
M204 S1000
;WIPE_START
G1 F8640
G1 X120.267 Y130.445 E-.53269
G1 X120.636 Y130.445 E-.0852
G1 X120.774 Y131.055 E-.14441
G1 X120.774 Y131.218 E-.0377
;WIPE_END
G1 Z.6 F720
G1 X122.747 Y116.108 F10800
G1 Z.2 F720
G1 E.8 F2100
M204 S800
;TYPE:Perimeter
;WIDTH:0.419999
G1 F1200
G1 X122.793 Y116.016 E.00323
G1 X123.479 Y115.3 E.03109
G1 X123.729 Y115.149 E.00916
G1 X124.639 Y114.884 E.02972
G1 X124.932 Y114.877 E.00919
G1 X125.851 Y115.103 E.02967
G1 X126.078 Y115.218 E.00798
G1 X126.831 Y115.945 E.03282
G1 X126.954 Y116.193 E.00868
G1 X127.205 Y117.054 E.02812
G1 X127.216 Y117.325 E.0085
G1 X127.052 Y118.128 E.0257
G1 X126.946 Y118.359 E.00797
G1 X126.452 Y119.004 E.02547
G1 X126.26 Y119.164 E.00784
G1 X125.535 Y119.533 E.02551
G1 X125.29 Y119.594 E.00792
G1 X124.476 Y119.61 E.02553
G1 X124.229 Y119.559 E.00791
G1 X123.491 Y119.222 E.02544
G1 X123.292 Y119.07 E.00785
G1 X122.77 Y118.446 E.02551
G1 X122.656 Y118.221 E.00791
G1 X122.458 Y117.428 E.02563
G1 X122.457 Y117.156 E.00853
G1 X122.681 Y116.239 E.0296
G1 X122.72 Y116.161 E.00273
M204 S1000
G1 X123.084 Y116.29 F10800
M204 S800
;TYPE:External perimeter
G1 F1200
G1 X123.751 Y115.561 E.03098
G1 X124.308 Y115.373 E.01843
G1 X124.793 Y115.238 E.01578
G1 X125.46 Y115.395 E.02148
G1 X125.846 Y115.516 E.01268
G1 X126.543 Y116.188 E.03036
G1 X126.828 Y117.108 E.0302
G1 X126.847 Y117.25 E.00449
G1 X126.682 Y118.053 E.0257
G1 X126.153 Y118.774 E.02804
G1 X125.5 Y119.127 E.02327
G1 X125.282 Y119.217 E.00739
G1 X124.466 Y119.233 E.02559
G1 X123.647 Y118.879 E.02798
G1 X123.06 Y118.204 E.02805
G1 X122.895 Y117.624 E.01891
G1 X122.823 Y117.246 E.01206
G1 X123.046 Y116.336 E.02938
M204 S1000
;WIPE_START
G1 F8640
G1 X123.084 Y116.29 E-.01378
G1 X123.751 Y115.561 E-.22815
G1 X124.308 Y115.373 E-.13574
G1 X124.793 Y115.238 E-.11625
G1 X125.46 Y115.395 E-.15822
G1 X125.846 Y115.516 E-.0934
G1 X126.016 Y115.68 E-.05446
;WIPE_END
G1 Z.6 F720
G1 X122.933 Y75.502 F10800
G1 Z.2 F720
G1 E.8 F2100
M204 S800
G1 F1200
G1 X123.93 Y75.2 E.03266
G1 X124.971 Y75.443 E.03352
G1 X125.385 Y75.82 E.01756
G1 X125.751 Y76.173 E.01594
G1 X126.061 Y77.193 E.03343
G1 X125.889 Y78.082 E.02839
G1 X125.372 Y78.789 E.02746
G1 X125.191 Y78.921 E.00702
G1 X124.538 Y79.254 E.02298
G1 X124.04 Y79.283 E.01564
G1 X123.539 Y79.275 E.01571
G1 X122.779 Y78.927 E.02621
G1 X122.436 Y78.545 E.0161
G1 X122.14 Y78.16 E.01523
G1 X121.937 Y77.345 E.02633
G1 X122.176 Y76.291 E.03389
G1 X122.552 Y75.878 E.01751
G1 X122.884 Y75.534 E.01499
M204 S1000
;WIPE_START
G1 F8640
G1 X122.933 Y75.502 E-.01351
G1 X123.93 Y75.2 E-.24054
G1 X124.971 Y75.443 E-.24683
G1 X125.385 Y75.82 E-.12929
G1 X125.751 Y76.173 E-.11741
G1 X125.817 Y76.39 E-.05242
;WIPE_END
G1 Z.6 F720
G1 X121.818 Y78.529 F10800
G1 Z.2 F720
G1 E.8 F2100
M204 S800
;TYPE:Perimeter
;WIDTH:0.595912
G1 F1200
G1 X121.69 Y78.272 E.0132
;WIDTH:0.635562
G1 X121.546 Y77.782 E.02517
G1 X121.511 Y77.51 E.01351
;WIDTH:0.609102
G1 X121.476 Y77.238 E.01291
;WIDTH:0.621963
G1 X121.523 Y76.95 E.01405
;WIDTH:0.661284
G1 X121.57 Y76.661 E.01505
G1 X121.657 Y76.392 E.01454
;WIDTH:0.626911
G1 X121.744 Y76.122 E.01377
;WIDTH:0.597726
G1 X121.879 Y75.907 E.01171
;WIDTH:0.629598
G1 X122.036 Y75.72 E.01191
;WIDTH:0.66147
G1 X122.193 Y75.533 E.01256
G1 X122.405 Y75.341 E.01471
;WIDTH:0.626677
G1 X122.617 Y75.149 E.01388
;WIDTH:0.597164
G1 X122.841 Y75.029 E.01171
;WIDTH:0.628907
G1 X123.071 Y74.946 E.01191
;WIDTH:0.66065
G1 X123.3 Y74.863 E.01251
G1 X123.58 Y74.803 E.01471
;WIDTH:0.625787
G1 X123.86 Y74.743 E.01388
;WIDTH:0.597382
G1 X124.114 Y74.751 E.01172
;WIDTH:0.629996
G1 X124.354 Y74.793 E.01189
;WIDTH:0.66261
G1 X124.593 Y74.835 E.0125
G1 X124.867 Y74.923 E.01483
;WIDTH:0.627147
G1 X125.14 Y75.012 E.01395
;WIDTH:0.596638
G1 X125.355 Y75.146 E.01166
;WIDTH:0.628622
G1 X125.542 Y75.303 E.01189
;WIDTH:0.660606
G1 X125.729 Y75.461 E.01257
G1 X125.92 Y75.671 E.01458
;WIDTH:0.626591
G1 X126.112 Y75.882 E.01385
;WIDTH:0.598276
G1 X126.232 Y76.108 E.01182
;WIDTH:0.629514
G1 X126.315 Y76.337 E.01188
;WIDTH:0.660752
G1 X126.398 Y76.566 E.01251
G1 X126.459 Y76.845 E.01467
;WIDTH:0.625924
G1 X126.519 Y77.124 E.01383
;WIDTH:0.63363
G1 X126.469 Y77.667 E.02678
G1 X126.343 Y78.176 E.02576
;WIDTH:0.600384
G1 X126.236 Y78.429 E.01273
M204 S1000
;WIPE_START
G1 F8640
G1 X126.343 Y78.176 E-.06343
G1 X126.469 Y77.667 E-.12108
G1 X126.519 Y77.124 E-.12591
G1 X126.459 Y76.845 E-.06589
G1 X126.398 Y76.566 E-.06594
G1 X126.315 Y76.337 E-.05624
G1 X126.232 Y76.108 E-.05624
G1 X126.112 Y75.882 E-.05908
G1 X125.92 Y75.671 E-.06587
G1 X125.729 Y75.461 E-.06555
G1 X125.548 Y75.308 E-.05477
;WIPE_END
G1 Z.6 F720
G1 X136.257 Y117.705 F10800
G1 Z.2 F720
G1 E.8 F2100
M204 S800
;WIDTH:0.419999
G1 F1200
G1 X136.171 Y117.742 E.00294
G1 X136.089 Y117.869 E.00474
G1 X136.005 Y118.158 E.00944
G1 X135.875 Y118.684 E.01699
G1 X135.723 Y119.722 E.03289
G1 X135.63 Y119.976 E.00848
G1 X135.611 Y120.234 E.00811
G1 X135.759 Y120.518 E.01004
G1 X135.524 Y120.736 E.01005
G1 X135.17 Y121.386 E.02321
G1 X134.768 Y122.35 E.03275
G1 X134.619 Y122.58 E.00859
G1 X134.54 Y122.814 E.00774
G1 X134.571 Y123.133 E.01005
G1 X134.323 Y123.287 E.00915
G1 X133.823 Y123.823 E.02298
G1 X133.188 Y124.651 E.03272
G1 X132.986 Y124.852 E.00893
G1 X132.846 Y125.085 E.00852
G1 X132.839 Y125.375 E.0091
G1 X132.556 Y125.44 E.0091
G1 X132.059 Y125.746 E.0183
G1 X131.622 Y126.062 E.01691
G1 X131.033 Y126.55 E.02398
G1 X130.652 Y126.951 E.01734
G1 X130.602 Y127.148 E.00637
G1 X130.41 Y127.084 E.00635
G1 X129.867 Y127.218 E.01754
G1 X129.213 Y127.474 E.02202
G1 X128.51 Y127.816 E.02451
G1 X128.057 Y128.115 E.01702
G1 X127.927 Y128.264 E.0062
G1 X127.9 Y128.23 E.00136
G1 X127.676 Y128.183 E.00718
G1 X127.115 Y128.183 E.01759
G1 X126.555 Y128.243 E.01766
G1 X125.743 Y128.408 E.02598
G1 X125.133 Y128.64 E.02046
G1 X125 Y128.542 E.00518
G1 X124.828 Y128.486 E.00567
G1 X124.141 Y128.38 E.0218
G1 X123.616 Y128.331 E.01653
G1 X122.968 Y128.278 E.02039
G1 X122.464 Y128.307 E.01583
G1 X122.195 Y128.393 E.00885
G1 X122.057 Y128.214 E.00709
G1 X121.766 Y128.047 E.01052
G1 X121.021 Y127.7 E.02577
G1 X119.916 Y127.261 E.03728
G1 X119.684 Y127.222 E.00738
G1 X119.431 Y127.294 E.00825
G1 X119.034 Y127.596 E.01564
G1 X118.901 Y127.881 E.00986
G1 X118.88 Y128.02 E.00441
G1 X118.666 Y128.488 E.01614
G1 X118.434 Y128.816 E.0126
G1 X118.061 Y129.079 E.01431
G1 X117.756 Y128.889 E.01127
G1 X116.268 Y127.837 E.05714
G1 X114.95 Y126.618 E.05629
G1 X113.805 Y125.237 E.05625
G1 X112.849 Y123.718 E.05627
G1 X112.105 Y122.086 E.05624
G1 X111.58 Y120.37 E.05627
G1 X111.283 Y118.58 E.05689
G1 X111.2 Y117.549 E.03243
G1 X111.253 Y116.546 E.03149
G1 X111.358 Y115.593 E.03006
G1 X111.6 Y114.221 E.04368
G1 X111.971 Y112.895 E.04317
G1 X112.479 Y111.616 E.04315
G1 X113.114 Y110.393 E.04321
G1 X113.867 Y109.243 E.0431
G1 X114.738 Y108.175 E.04321
G1 X115.711 Y107.198 E.04323
G1 X116.773 Y106.322 E.04316
G1 X117.925 Y105.565 E.04322
G1 X119.99 Y104.452 E.07355
G1 X120.742 Y103.867 E.02987
G1 X121.373 Y103.218 E.02838
G1 X121.917 Y102.464 E.02915
G1 X122.344 Y101.642 E.02904
G1 X122.654 Y100.76 E.02931
G1 X122.826 Y99.83 E.02965
G1 X122.872 Y98.968 E.02707
G1 X122.648 Y90.879 E.25372
G1 X122.434 Y80.913 E.31255
G1 X122.415 Y80.366 E.01716
G1 X122.293 Y79.562 E.0255
;WIDTH:0.41488
