; generated by PrusaSlicer 2.9.2 on 2025-05-06 at 10:36:53 UTC


;
;
; 

; external perimeters extrusion width = 0.45mm
; perimeters extrusion width = 0.45mm
; infill extrusion width = 0.45mm
; solid infill extrusion width = 0.45mm
; top infill extrusion width = 0.40mm
; support material extrusion width = 0.35mm
; first layer extrusion width = 0.42mm

; external perimeters extrusion width = 0.45mm
; perimeters extrusion width = 0.45mm
; infill extrusion width = 0.45mm
; solid infill extrusion width = 0.45mm
; top infill extrusion width = 0.40mm
; support material extrusion width = 0.35mm
; first layer extrusion width = 0.42mm

M73 P0 R7
M73 Q0 S7
M201 X1000 Y1000 Z200 E5000 ; sets maximum accelerations, mm/sec^2
M203 X200 Y200 Z12 E120 ; sets maximum feedrates, mm / sec
M204 S1250 T1250 ; sets acceleration (S) and retract acceleration (R), mm/sec^2
M205 X8.00 Y8.00 Z0.40 E4.50 ; sets the jerk limits, mm/sec
M205 S0 T0 ; sets the minimum extruding and travel feed rate, mm/sec

; printing object robot_painter_02-Gripper_Assembly-gen-pt5.STL id:1 copy 0
; stop printing object robot_painter_02-Gripper_Assembly-gen-pt5.STL id:1 copy 0
; printing object robot_painter_02-Gripper_Assembly-gen-pt5.STL id:0 copy 0
; stop printing object robot_painter_02-Gripper_Assembly-gen-pt5.STL id:0 copy 0

;TYPE:Custom
M862.3 P "MK3S" ; printer model check
M862.1 P0.4 ; nozzle diameter check
M115 U3.14.1 ; tell printer latest fw version
G90 ; use absolute coordinates
M83 ; extruder relative mode
M104 S215 ; set extruder temp
M140 S60 ; set bed temp
M190 S60 ; wait for bed temp
M109 S215 ; wait for extruder temp
G28 W ; home all without mesh bed level
G80 X82.0972 Y107.802 W35.03 H13.5082 ; mesh bed levelling

G1 Z0.2 F720
G1 Y-3 F1000 ; go outside print area
G92 E0
G1 X60 E9 F1000 ; intro line
G1 X100 E12.5 F1000 ; intro line

G92 E0
M221 S95

; Don't change E values below. Excessive value can damage the printer.
M907 E430 ; set extruder motor current
G21 ; set units to millimeters
G90 ; use absolute coordinates
M83 ; use relative distances for extrusion

M900 K0.05 ; Filament gcode LA 1.5
M900 K30 ; Filament gcode LA 1.0




M107
;LAYER_CHANGE
;Z:0.2
;HEIGHT:0.2
G1 E-.8 F2100
M73 P1 R7
M73 Q1 S7
G1 Z.6 F720
G1 X84.422 Y109.428 F10800
G1 Z.2 F720
G1 E.8 F2100
M204 S800
;TYPE:Skirt/Brim
;WIDTH:0.42
G1 F1200
G1 X84.937 Y109.038 E.02026
G1 X85.921 Y108.496 E.03522
G1 X86.978 Y108.148 E.03489
G1 X88.443 Y107.99 E.0462
G1 X111.002 Y108.996 E.70802
G1 X111.76 Y109.063 E.02386
G1 X112.855 Y109.327 E.03532
G1 X113.874 Y109.786 E.03504
M73 Q2 S7
G1 X114.792 Y110.425 E.03507
G1 X115.577 Y111.221 E.03505
G1 X116.202 Y112.148 E.03505
G1 X116.647 Y113.174 E.03506
G1 X116.895 Y114.264 E.03505
G1 X116.939 Y115.382 E.03508
M73 P2 R7
G1 X116.776 Y116.488 E.03505
G1 X116.413 Y117.546 E.03507
G1 X115.862 Y118.519 E.03506
G1 X115.142 Y119.374 E.03505
G1 X114.277 Y120.082 E.03505
G1 X113.303 Y120.615 E.03481
G1 X112.247 Y120.963 E.03486
G1 X110.774 Y121.122 E.04645
G1 X87.457 Y120.048 E.73186
G1 X85.928 Y119.613 E.04984
G1 X84.96 Y119.083 E.0346
G1 X84.083 Y118.368 E.03548
G1 X83.647 Y117.89 E.02029
G1 X83.022 Y116.963 E.03505
G1 X82.448 Y115.482 E.0498
G1 X82.286 Y114.376 E.03505
G1 X82.329 Y113.258 E.03508
G1 X82.574 Y112.181 E.03463
G1 X83.022 Y111.142 E.03548
G1 X83.647 Y110.215 E.03505
G1 X84.38 Y109.471 E.03275
M204 S1000
G1 X84.647 Y109.732 F10800
M204 S800
G1 F1200
G1 X84.65 Y109.729 E.00013
G1 X85.165 Y109.338 E.02027
G1 X86.089 Y108.833 E.03302
G1 X87.082 Y108.511 E.03273
G1 X88.426 Y108.367 E.04238
G1 X110.985 Y109.372 E.70802
G1 X111.725 Y109.438 E.02329
G1 X112.751 Y109.69 E.03313
G1 X113.706 Y110.124 E.03289
G1 X114.565 Y110.726 E.03289
G1 X115.298 Y111.475 E.03286
G1 X115.882 Y112.347 E.03291
G1 X116.295 Y113.31 E.03285
G1 X116.524 Y114.334 E.0329
G1 X116.562 Y115.382 E.03288
G1 X116.406 Y116.419 E.03288
G1 X116.062 Y117.409 E.03286
M73 Q3 S7
G1 X115.542 Y118.32 E.03289
G1 X114.863 Y119.12 E.0329
G1 X114.049 Y119.781 E.03288
G1 X113.135 Y120.278 E.03262
G1 X112.143 Y120.601 E.03271
M73 P3 R7
G1 X110.79 Y120.745 E.04266
G1 X87.491 Y119.672 E.7313
G1 X86.097 Y119.275 E.04545
G1 X85.186 Y118.781 E.03249
G1 X84.361 Y118.114 E.03326
G1 X83.926 Y117.636 E.02026
G1 X83.343 Y116.765 E.03286
G1 X82.819 Y115.413 E.04546
G1 X82.663 Y114.376 E.03288
G1 X82.7 Y113.328 E.03288
G1 X82.926 Y112.317 E.03248
G1 X83.343 Y111.34 E.03331
G1 X83.926 Y110.469 E.03286
G1 X84.605 Y109.775 E.03044
M204 S1000
;WIPE_START
G1 F8640
G1 X84.647 Y109.732 E-.01388
G1 X84.65 Y109.729 E-.00098
G1 X85.165 Y109.338 E-.1493
G1 X86.089 Y108.833 E-.24314
G1 X87.082 Y108.511 E-.24104
G1 X87.735 Y108.441 E-.15166
;WIPE_END
G1 Z.6 F720
; printing object robot_painter_02-Gripper_Assembly-gen-pt5.STL id:0 copy 0
G1 X88.85 Y112.007 F10800
G1 Z.2 F720
G1 E.8 F2100
M204 S800
;TYPE:External perimeter
;WIDTH:0.419999
G1 F1200
G1 X88.859 Y112.008 E.00028
G1 X89.37 Y112.213 E.01726
G1 X89.786 Y112.524 E.01629
G1 X90.152 Y112.976 E.01824
G1 X90.368 Y113.483 E.01728
G1 X90.447 Y114.028 E.01727
G1 X90.381 Y114.575 E.01728
G1 X90.176 Y115.086 E.01726
G1 X89.846 Y115.527 E.01727
G1 X89.413 Y115.868 E.01728
G1 X88.906 Y116.085 E.01729
G1 X88.361 Y116.163 E.01726
G1 X87.814 Y116.097 E.01728
G1 X87.303 Y115.893 E.01725
G1 X86.887 Y115.581 E.0163
G1 X86.521 Y115.129 E.01824
G1 X86.304 Y114.623 E.01726
G1 X86.226 Y114.077 E.01729
G1 X86.292 Y113.53 E.01728
G1 X86.51 Y112.992 E.0182
G1 X86.827 Y112.578 E.01635
G1 X87.26 Y112.237 E.01728
G1 X87.767 Y112.021 E.01728
G1 X88.312 Y111.942 E.01727
G1 X88.791 Y112 E.01513
M204 S1000
G1 X88.893 Y111.54 F10800
M204 S800
;TYPE:Perimeter
;WIDTH:0.637712
G1 F1200
G1 X89.092 Y111.574 E.00998
;WIDTH:0.643596
G1 X89.711 Y111.85 E.03385
G1 X90.23 Y112.283 E.03376
;WIDTH:0.638716
G1 X90.626 Y112.833 E.03358
;WIDTH:0.640166
G1 X90.824 Y113.311 E.02569
;WIDTH:0.65459
G1 X90.917 Y113.813 E.02597
G1 X90.917 Y114.292 E.02436
G1 X90.819 Y114.809 E.02676
;WIDTH:0.640346
G1 X90.535 Y115.424 E.03365
;WIDTH:0.641628
G1 X90.108 Y115.949 E.03369
;WIDTH:0.643598
G1 X89.711 Y116.256 E.02507
;WIDTH:0.655816
G1 X89.272 Y116.469 E.02487
G1 X88.813 Y116.601 E.02434
;WIDTH:0.652748
G1 X88.248 Y116.645 E.02874
;WIDTH:0.637714
G1 X87.581 Y116.532 E.03346
;WIDTH:0.6436
G1 X86.962 Y116.256 E.03385
G1 X86.443 Y115.822 E.03379
;WIDTH:0.63872
G1 X86.047 Y115.273 E.03354
;WIDTH:0.640166
G1 X85.849 Y114.795 E.02569
;WIDTH:0.65459
G1 X85.756 Y114.292 E.02602
G1 X85.756 Y113.813 E.02436
G1 X85.854 Y113.296 E.02676
;WIDTH:0.640348
G1 X86.137 Y112.682 E.03359
;WIDTH:0.64163
G1 X86.565 Y112.156 E.03376
;WIDTH:0.643598
G1 X86.962 Y111.85 E.02504
;WIDTH:0.65582
G1 X87.4 Y111.636 E.02484
G1 X87.86 Y111.504 E.02439
;WIDTH:0.65275
G1 X88.424 Y111.461 E.02868
;WIDTH:0.637712
G1 X88.834 Y111.53 E.02056
M204 S1000
G1 X88.941 Y111.029 F10800
M204 S800
;TYPE:External perimeter
;WIDTH:0.419999
G1 F1200
G1 X88.948 Y111.029 E.00022
G1 X89.493 Y111.193 E.01784
G1 X90.005 Y111.459 E.01809
G1 X90.469 Y111.827 E.01857
G1 X90.825 Y112.231 E.01688
G1 X91.117 Y112.719 E.01783
G1 X91.315 Y113.252 E.01783
G1 X91.412 Y113.813 E.01785
G1 X91.403 Y114.383 E.01787
G1 X91.273 Y114.985 E.01931
G1 X91.077 Y115.468 E.01634
G1 X90.77 Y115.948 E.01787
G1 X90.381 Y116.362 E.01781
G1 X89.922 Y116.699 E.01785
G1 X89.408 Y116.945 E.01787
M73 Q4 S7
G1 X88.858 Y117.093 E.01786
G1 X88.229 Y117.131 E.01976
G1 X87.725 Y117.076 E.0159
G1 X87.18 Y116.912 E.01784
G1 X86.668 Y116.646 E.01809
G1 X86.203 Y116.276 E.01863
G1 X85.848 Y115.875 E.01679
G1 X85.555 Y115.387 E.01785
G1 X85.358 Y114.853 E.01785
M73 P4 R7
G1 X85.261 Y114.292 E.01785
G1 X85.27 Y113.723 E.01784
G1 X85.4 Y113.12 E.01934
G1 X85.596 Y112.637 E.01634
G1 X85.903 Y112.158 E.01784
G1 X86.292 Y111.743 E.01783
G1 X86.755 Y111.405 E.01797
G1 X87.265 Y111.16 E.01774
G1 X87.815 Y111.013 E.01785
G1 X88.443 Y110.974 E.01973
G1 X88.881 Y111.022 E.01382
M204 S1000
;WIPE_START
G1 F8640
G1 X88.941 Y111.029 E-.01395
G1 X88.948 Y111.029 E-.00162
G1 X89.493 Y111.193 E-.13142
G1 X90.005 Y111.459 E-.13323
G1 X90.469 Y111.827 E-.13674
G1 X90.825 Y112.231 E-.12433
G1 X91.117 Y112.719 E-.13131
G1 X91.309 Y113.236 E-.1274
;WIPE_END
G1 Z.6 F720
; stop printing object robot_painter_02-Gripper_Assembly-gen-pt5.STL id:0 copy 0
; printing object robot_painter_02-Gripper_Assembly-gen-pt5.STL id:1 copy 0
G1 X111.402 Y113.013 F10800
G1 Z.2 F720
G1 E.8 F2100
M204 S800
G1 F1200
G1 X111.41 Y113.014 E.00025
G1 X111.922 Y113.219 E.01729
G1 X112.338 Y113.53 E.01629
G1 X112.703 Y113.982 E.01822
G1 X112.92 Y114.489 E.01729
G1 X112.998 Y115.034 E.01726
G1 X112.933 Y115.581 E.01727
G1 X112.728 Y116.093 E.01729
G1 X112.398 Y116.534 E.01727
G1 X111.964 Y116.874 E.01729
G1 X111.458 Y117.091 E.01726
G1 X110.913 Y117.169 E.01726
G1 X110.366 Y117.104 E.01727
G1 X109.854 Y116.899 E.01729
G1 X109.438 Y116.588 E.01629
G1 X109.073 Y116.135 E.01824
G1 X108.856 Y115.629 E.01726
G1 X108.778 Y115.083 E.01729
G1 X108.843 Y114.536 E.01727
G1 X109.062 Y113.998 E.01821
G1 X109.378 Y113.584 E.01633
G1 X109.812 Y113.243 E.01731
G1 X110.318 Y113.027 E.01725
G1 X110.863 Y112.948 E.01727
G1 X111.342 Y113.006 E.01513
M204 S1000
G1 X111.445 Y112.546 F10800
M204 S800
;TYPE:Perimeter
;WIDTH:0.637712
G1 F1200
G1 X111.643 Y112.58 E.00994
;WIDTH:0.643596
G1 X112.262 Y112.856 E.03385
G1 X112.781 Y113.289 E.03376
;WIDTH:0.638716
G1 X113.177 Y113.839 E.03358
;WIDTH:0.640166
G1 X113.376 Y114.317 E.02571
;WIDTH:0.65459
G1 X113.469 Y114.82 E.02602
G1 X113.469 Y115.298 E.02431
G1 X113.37 Y115.815 E.02677
;WIDTH:0.640346
G1 X113.087 Y116.43 E.03363
;WIDTH:0.641628
G1 X112.66 Y116.955 E.03369
;WIDTH:0.643598
G1 X112.262 Y117.262 E.02511
;WIDTH:0.655816
G1 X111.824 Y117.475 E.02482
G1 X111.364 Y117.607 E.02439
;WIDTH:0.652748
G1 X110.8 Y117.651 E.02869
;WIDTH:0.637714
G1 X110.133 Y117.538 E.03346
;WIDTH:0.6436
G1 X109.514 Y117.262 E.03385
G1 X108.995 Y116.828 E.03379
;WIDTH:0.63872
G1 X108.599 Y116.279 E.03354
;WIDTH:0.640166
G1 X108.4 Y115.801 E.02571
;WIDTH:0.65459
G1 X108.307 Y115.298 E.02602
G1 X108.307 Y114.82 E.02431
G1 X108.406 Y114.302 E.02682
;WIDTH:0.640348
G1 X108.689 Y113.688 E.03359
;WIDTH:0.64163
G1 X109.116 Y113.162 E.03373
;WIDTH:0.643598
G1 X109.514 Y112.856 E.02507
;WIDTH:0.65582
G1 X109.952 Y112.643 E.02482
G1 X110.412 Y112.51 E.0244
;WIDTH:0.65275
G1 X110.976 Y112.467 E.02868
;WIDTH:0.637712
G1 X111.386 Y112.536 E.02056
M204 S1000
G1 X111.493 Y112.035 F10800
M204 S800
;TYPE:External perimeter
;WIDTH:0.419999
G1 F1200
G1 X111.499 Y112.036 E.00019
G1 X112.045 Y112.199 E.01787
G1 X112.557 Y112.465 E.01809
G1 X113.02 Y112.833 E.01854
G1 X113.377 Y113.237 E.0169
G1 X113.669 Y113.725 E.01783
G1 X113.867 Y114.258 E.01783
G1 X113.963 Y114.82 E.01788
G1 X113.955 Y115.389 E.01784
G1 X113.825 Y115.991 E.01931
G1 X113.629 Y116.474 E.01634
G1 X113.322 Y116.954 E.01787
G1 X112.932 Y117.368 E.01783
G1 X112.473 Y117.705 E.01785
G1 X111.96 Y117.951 E.01784
G1 X111.41 Y118.099 E.01786
G1 X110.781 Y118.137 E.01976
G1 X110.277 Y118.082 E.0159
G1 X109.731 Y117.918 E.01787
G1 X109.219 Y117.652 E.01809
G1 X108.754 Y117.282 E.01863
G1 X108.399 Y116.881 E.01679
G1 X108.107 Y116.393 E.01783
G1 X107.909 Y115.859 E.01786
G1 X107.813 Y115.298 E.01785
G1 X107.821 Y114.729 E.01784
G1 X107.952 Y114.126 E.01935
G1 X108.148 Y113.643 E.01634
G1 X108.454 Y113.164 E.01782
G1 X108.844 Y112.749 E.01786
G1 X109.307 Y112.411 E.01797
G1 X109.817 Y112.166 E.01774
G1 X110.366 Y112.019 E.01782
G1 X110.995 Y111.98 E.01976
G1 X111.433 Y112.028 E.01382
M204 S1000
M106 S84.15
;LAYER_CHANGE
;Z:0.4
;HEIGHT:0.2
;BEFORE_LAYER_CHANGE
G92 E0.0
;0.4


;WIPE_START
G1 F8640
G1 X111.493 Y112.035 E-.01395
G1 X111.499 Y112.036 E-.0014
G1 X112.045 Y112.199 E-.13157
G1 X112.557 Y112.465 E-.13323
G1 X113.02 Y112.833 E-.13656
G1 X113.377 Y113.237 E-.12449
G1 X113.669 Y113.725 E-.13131
G1 X113.861 Y114.243 E-.12749
;WIPE_END
G1 Z.4 F720
;AFTER_LAYER_CHANGE
;0.4
M104 S210 ; set temperature
; stop printing object robot_painter_02-Gripper_Assembly-gen-pt5.STL id:1 copy 0
G1 Z.8
G1 X112.128 Y109.152 F10800
G1 Z.4 F720
G1 E.8 F2100
;TYPE:Skirt/Brim
;WIDTH:0.42
G1 F1747
G1 X112.855 Y109.327 E.02345
G1 X113.874 Y109.786 E.03504
G1 X114.792 Y110.425 E.03507
G1 X115.577 Y111.221 E.03505
G1 X116.202 Y112.148 E.03505
G1 X116.647 Y113.174 E.03506
G1 X116.895 Y114.264 E.03505
G1 X116.939 Y115.382 E.03508
G1 X116.776 Y116.488 E.03505
G1 X116.413 Y117.546 E.03507
G1 X115.862 Y118.519 E.03506
M73 Q5 S7
G1 X115.142 Y119.374 E.03505
G1 X114.277 Y120.082 E.03505
G1 X113.303 Y120.615 E.03481
G1 X112.247 Y120.963 E.03486
G1 X110.774 Y121.122 E.04645
G1 X87.457 Y120.048 E.73186
M73 P5 R7
G1 X85.928 Y119.613 E.04984
G1 X84.96 Y119.083 E.0346
G1 X84.083 Y118.368 E.03548
G1 X83.647 Y117.89 E.02029
G1 X83.022 Y116.963 E.03505
G1 X82.448 Y115.482 E.0498
G1 X82.286 Y114.376 E.03505
G1 X82.329 Y113.258 E.03508
G1 X82.574 Y112.181 E.03463
G1 X83.022 Y111.142 E.03548
G1 X83.647 Y110.215 E.03505
G1 X84.422 Y109.428 E.03463
G1 X84.937 Y109.038 E.02026
G1 X85.921 Y108.496 E.03522
G1 X86.978 Y108.148 E.03489
G1 X88.443 Y107.99 E.0462
G1 X111.002 Y108.996 E.70802
G1 X111.76 Y109.063 E.02386
G1 X112.07 Y109.138 E.01
G1 X111.981 Y109.501 F10800
G1 F1747
G1 X112.751 Y109.69 E.02486
G1 X113.706 Y110.124 E.03289
G1 X114.565 Y110.726 E.03289
G1 X115.298 Y111.475 E.03286
G1 X115.882 Y112.347 E.03291
G1 X116.295 Y113.31 E.03285
G1 X116.524 Y114.334 E.0329
G1 X116.562 Y115.382 E.03288
G1 X116.406 Y116.419 E.03288
G1 X116.062 Y117.409 E.03286
G1 X115.542 Y118.32 E.03289
G1 X114.863 Y119.12 E.0329
G1 X114.049 Y119.781 E.03288
G1 X113.135 Y120.278 E.03262
G1 X112.143 Y120.601 E.03271
G1 X110.79 Y120.745 E.04266
G1 X87.491 Y119.672 E.7313
G1 X86.097 Y119.275 E.04545
G1 X85.186 Y118.781 E.03249
G1 X84.361 Y118.114 E.03326
G1 X83.926 Y117.636 E.02026
G1 X83.343 Y116.765 E.03286
G1 X82.819 Y115.413 E.04546
G1 X82.663 Y114.376 E.03288
G1 X82.7 Y113.328 E.03288
G1 X82.926 Y112.317 E.03248
G1 X83.343 Y111.34 E.03331
G1 X83.926 Y110.469 E.03286
G1 X84.65 Y109.729 E.03246
G1 X85.165 Y109.338 E.02027
G1 X86.089 Y108.833 E.03302
G1 X87.082 Y108.511 E.03273
G1 X88.426 Y108.367 E.04238
G1 X110.985 Y109.372 E.70802
G1 X111.725 Y109.438 E.02329
M73 P6 R7
M73 Q6 S7
G1 X111.922 Y109.487 E.00636
;WIPE_START
G1 F8640
G1 X111.981 Y109.501 E-.014
G1 X112.751 Y109.69 E-.18307
G1 X113.706 Y110.124 E-.24221
G1 X114.565 Y110.726 E-.2422
G1 X114.924 Y111.093 E-.11852
;WIPE_END
G1 Z.8 F720
; printing object robot_painter_02-Gripper_Assembly-gen-pt5.STL id:0 copy 0
G1 X86.065 Y113.444 F10800
G1 Z.4 F720
G1 E.8 F2100
M204 S800
;TYPE:Perimeter
;WIDTH:0.518754
G1 F1500
G1 X86.081 Y113.361 E.00334
;WIDTH:0.512953
G1 X86.252 Y112.946 E.01754
G1 X86.611 Y112.445 E.02409
;WIDTH:0.513361
G1 X87.085 Y112.052 E.02409
G1 X87.646 Y111.798 E.02409
;WIDTH:0.511146
G1 X88.236 Y111.697 E.0233
;WIDTH:0.517891
G1 X88.763 Y111.738 E.02088
;WIDTH:0.519266
G1 X89.184 Y111.858 E.01734
G1 X89.588 Y112.052 E.01775
;WIDTH:0.513359
G1 X90.026 Y112.404 E.02198
;WIDTH:0.509417
G1 X90.335 Y112.802 E.01954
;WIDTH:0.511937
G1 X90.592 Y113.362 E.02403
G1 X90.694 Y113.969 E.024
;WIDTH:0.510564
G1 X90.635 Y114.582 E.02395
;WIDTH:0.516608
G1 X90.44 Y115.118 E.02247
;WIDTH:0.519676
G1 X90.215 Y115.469 E.01653
G1 X89.941 Y115.783 E.01652
;WIDTH:0.515069
G1 X89.486 Y116.114 E.02209
;WIDTH:0.507011
G1 X88.957 Y116.33 E.02205
;WIDTH:0.510823
G1 X88.42 Y116.41 E.02112
;WIDTH:0.517835
G1 X87.891 Y116.366 E.02096
;WIDTH:0.519371
G1 X87.492 Y116.249 E.01647
G1 X87.085 Y116.053 E.0179
;WIDTH:0.513361
G1 X86.646 Y115.701 E.02201
;WIDTH:0.509419
G1 X86.337 Y115.303 E.01954
;WIDTH:0.51213
G1 X86.087 Y114.759 E.02336
;WIDTH:0.519306
G1 X85.992 Y114.258 E.0202
G1 X85.992 Y113.845 E.01636
;WIDTH:0.518754
G1 X86.055 Y113.503 E.01376
M204 S1000
G1 X86.482 Y113.556 F10800
M204 S800
;TYPE:External perimeter
;WIDTH:0.449999
G1 F1500
G1 X86.485 Y113.529 E.00092
G1 X86.657 Y113.114 E.01521
G1 X86.958 Y112.711 E.01703
G1 X87.352 Y112.4 E.01699
G1 X87.813 Y112.202 E.01698
G1 X88.324 Y112.13 E.01747
G1 X88.836 Y112.193 E.01746
G1 X89.315 Y112.395 E.0176
G1 X89.715 Y112.711 E.01725
G1 X90.016 Y113.114 E.01703
