; generated by PrusaSlicer 2.9.2 on 2025-05-07 at 13:06:06 UTC


;
;
; 

; external perimeters extrusion width = 0.45mm
; perimeters extrusion width = 0.45mm
; infill extrusion width = 0.45mm
; solid infill extrusion width = 0.45mm
; top infill extrusion width = 0.40mm
; support material extrusion width = 0.35mm
; first layer extrusion width = 0.42mm

M73 P0 R72
M73 Q0 S73
M201 X1000 Y1000 Z200 E5000 ; sets maximum accelerations, mm/sec^2
M203 X200 Y200 Z12 E120 ; sets maximum feedrates, mm / sec
M204 S1250 T1250 ; sets acceleration (S) and retract acceleration (R), mm/sec^2
M205 X8.00 Y8.00 Z0.40 E4.50 ; sets the jerk limits, mm/sec
M205 S0 T0 ; sets the minimum extruding and travel feed rate, mm/sec

; printing object robot_painter_02-a1_2_painter-1-solid1.STL id:0 copy 0
; stop printing object robot_painter_02-a1_2_painter-1-solid1.STL id:0 copy 0

;TYPE:Custom
M862.3 P "MK3S" ; printer model check
M862.1 P0.4 ; nozzle diameter check
M115 U3.14.1 ; tell printer latest fw version
G90 ; use absolute coordinates
M83 ; extruder relative mode
M104 S215 ; set extruder temp
M140 S60 ; set bed temp
M190 S60 ; wait for bed temp
M109 S215 ; wait for extruder temp
G28 W ; home all without mesh bed level
G80 X48.9012 Y64.5713 W79.8534 H112.153 ; mesh bed levelling

G1 Z0.2 F720
G1 Y-3 F1000 ; go outside print area
G92 E0
G1 X60 E9 F1000 ; intro line
G1 X100 E12.5 F1000 ; intro line

G92 E0
M221 S95

; Don't change E values below. Excessive value can damage the printer.
M907 E430 ; set extruder motor current
G21 ; set units to millimeters
G90 ; use absolute coordinates
M83 ; use relative distances for extrusion

M900 K0.05 ; Filament gcode LA 1.5
M900 K30 ; Filament gcode LA 1.0




M107
;LAYER_CHANGE
;Z:0.2
;HEIGHT:0.2
G1 E-.8 F2100
M73 Q0 S72
G1 Z.6 F720
G1 X91.258 Y72.322 F10800
G1 Z.2 F720
G1 E.8 F2100
M204 S800
;TYPE:Skirt/Brim
;WIDTH:0.42
G1 F1200
G1 X98.179 Y65.401 E.30689
G1 X99.727 Y64.76 E.05253
G1 X121.763 Y64.76 E.69092
G1 X123.311 Y65.401 E.05253
G1 X125.618 Y67.708 E.1023
G1 X126.028 Y68.277 E.02199
G1 X128.335 Y72.891 E.16174
G1 X128.566 Y73.87 E.03154
G1 X128.566 Y93.599 E.61859
G1 X128.287 Y94.668 E.03464
G1 X95.988 Y152.345 E2.07267
G1 X86.75 Y168.511 E.5838
G1 X86.398 Y168.973 E.01821
G1 X79.476 Y175.894 E.30691
G1 X77.929 Y176.535 E.0525
G1 X55.892 Y176.535 E.69095
G1 X54.345 Y175.894 E.0525
G1 X52.038 Y173.587 E.1023
G1 X51.628 Y173.018 E.02199
G1 X49.321 Y168.404 E.16174
G1 X49.09 Y167.426 E.03151
G1 X49.09 Y147.696 E.61862
G1 X49.369 Y146.627 E.03464
G1 X81.668 Y88.95 E2.07267
G1 X90.906 Y72.784 E.5838
G1 X91.222 Y72.37 E.01633
M204 S1000
;WIPE_START
G1 F8640
G1 X91.258 Y72.322 E-.01385
G1 X93.666 Y69.914 E-.78615
;WIPE_END
G1 Z.6 F720
; printing object robot_painter_02-a1_2_painter-1-solid1.STL id:0 copy 0
G1 X121.763 Y69.256 F10800
G1 Z.2 F720
G1 E.8 F2100
M204 S800
;TYPE:Support material
G1 F1200
G1 X124.07 Y69.256 E.07233
G1 X124.07 Y73.87 E.14467
G1 X126.378 Y73.87 E.07237
G1 X126.378 Y93.599 E.61859
G1 X124.07 Y93.599 E.07237
G1 X124.07 Y95.906 E.07233
G1 X121.763 Y95.906 E.07233
G1 X121.763 Y100.52 E.14467
G1 X119.456 Y100.52 E.07233
G1 X119.456 Y105.134 E.14467
G1 X117.149 Y105.134 E.07233
G1 X117.149 Y109.749 E.1447
G1 X114.842 Y109.749 E.07233
G1 X114.842 Y112.056 E.07233
G1 X112.535 Y112.056 E.07233
G1 X112.535 Y116.67 E.14467
G1 X110.228 Y116.67 E.07233
G1 X110.228 Y121.284 E.14467
G1 X107.921 Y121.284 E.07233
G1 X107.921 Y125.898 E.14467
G1 X105.614 Y125.898 E.07233
G1 X105.614 Y130.512 E.14467
G1 X103.307 Y130.512 E.07233
G1 X103.307 Y132.819 E.07233
G1 X101 Y132.819 E.07233
G1 X101 Y137.434 E.1447
G1 X98.693 Y137.434 E.07233
G1 X98.693 Y142.048 E.14467
G1 X96.386 Y142.048 E.07233
G1 X96.386 Y146.662 E.14467
G1 X94.078 Y146.662 E.07237
G1 X94.078 Y151.276 E.14467
G1 X91.771 Y151.276 E.07233
G1 X91.771 Y153.583 E.07233
G1 X89.464 Y153.583 E.07233
G1 X89.464 Y158.197 E.14467
G1 X87.157 Y158.197 E.07233
G1 X87.157 Y162.811 E.14467
G1 X84.85 Y162.811 E.07233
G1 X84.85 Y167.426 E.1447
G1 X82.543 Y167.426 E.07233
G1 X82.543 Y169.733 E.07233
G1 X80.236 Y169.733 E.07233
G1 X80.236 Y172.04 E.07233
G1 X77.929 Y172.04 E.07233
G1 X77.929 Y174.347 E.07233
G1 X55.892 Y174.347 E.69095
G1 X55.892 Y172.04 E.07233
G1 X53.585 Y172.04 E.07233
G1 X53.585 Y167.426 E.14467
G1 X51.278 Y167.426 E.07233
G1 X51.278 Y147.696 E.61862
G1 X53.585 Y147.696 E.07233
G1 X53.585 Y145.389 E.07233
G1 X55.892 Y145.389 E.07233
G1 X55.892 Y140.775 E.14467
G1 X58.2 Y140.775 E.07237
G1 X58.2 Y136.161 E.14467
G1 X60.507 Y136.161 E.07233
G1 X60.507 Y131.547 E.14467
G1 X62.814 Y131.547 E.07233
G1 X62.814 Y129.24 E.07233
G1 X65.121 Y129.24 E.07233
G1 X65.121 Y124.625 E.1447
G1 X67.428 Y124.625 E.07233
G1 X67.428 Y120.011 E.14467
G1 X69.735 Y120.011 E.07233
G1 X69.735 Y115.397 E.14467
G1 X72.042 Y115.397 E.07233
G1 X72.042 Y110.783 E.14467
G1 X74.349 Y110.783 E.07233
G1 X74.349 Y108.476 E.07233
G1 X76.656 Y108.476 E.07233
G1 X76.656 Y103.862 E.14467
G1 X78.963 Y103.862 E.07233
G1 X78.963 Y99.248 E.14467
G1 X81.27 Y99.248 E.07233
G1 X81.27 Y94.633 E.1447
G1 X83.577 Y94.633 E.07233
M73 P0 R71
G1 X83.577 Y90.019 E.14467
G1 X85.884 Y90.019 E.07233
G1 X85.884 Y87.712 E.07233
G1 X88.192 Y87.712 E.07237
G1 X88.192 Y83.098 E.14467
G1 X90.499 Y83.098 E.07233
G1 X90.499 Y78.484 E.14467
G1 X92.806 Y78.484 E.07233
G1 X92.806 Y73.87 E.14467
G1 X95.113 Y73.87 E.07233
G1 X95.113 Y71.563 E.07233
G1 X97.42 Y71.563 E.07233
G1 X97.42 Y69.256 E.07233
G1 X99.727 Y69.256 E.07233
G1 X99.727 Y66.948 E.07237
G1 X121.763 Y66.948 E.69092
G1 X121.763 Y69.199 E.07058
M204 S1000
G1 X109.962 Y70.396 F10800
M204 S800
G1 F1200
G1 X113.159 Y70.77 E.10092
G1 X116.15 Y71.96 E.10093
G1 X118.731 Y73.883 E.10092
G1 X120.726 Y76.408 E.1009
G1 X122 Y79.364 E.10092
G1 X122.466 Y82.549 E.10093
G1 X122.091 Y85.746 E.10093
G1 X120.894 Y88.751 E.10142
G1 X78.243 Y164.651 E2.72979
G1 X76.317 Y167.21 E.10042
M73 P1 R71
M73 Q1 S72
G1 X73.835 Y169.16 E.09897
G1 X70.819 Y170.451 E.10286
G1 X68.241 Y170.877 E.08193
G1 X67.619 Y170.899 E.01951
G1 X64.436 Y170.509 E.10055
G1 X61.506 Y169.336 E.09896
G1 X58.88 Y167.369 E.10287
G1 X56.929 Y164.887 E.09899
G1 X55.656 Y161.931 E.10091
G1 X55.189 Y158.683 E.10289
G1 X55.58 Y155.488 E.10092
G1 X56.762 Y152.545 E.09944
G1 X99.395 Y76.671 E2.7288
G1 X101.295 Y74.131 E.09946
G1 X103.821 Y72.135 E.10094
G1 X106.777 Y70.861 E.10092
G1 X109.906 Y70.404 E.09915
M204 S1000
;WIPE_START
G1 F8640
G1 X106.777 Y70.861 E-.73016
G1 X106.499 Y70.981 E-.06984
;WIPE_END
G1 Z.6 F720
G1 X125.698 Y93.429 F10800
G1 Z.2 F720
G1 E.8 F2100
M204 S800
G1 F1200
G1 X125.698 Y74.209 E.60263
G1 X125.279 Y74.209 E.01314
G1 X125.279 Y93.26 E.59733
G1 X124.86 Y93.26 E.01314
G1 X124.86 Y74.209 E.59733
G1 X124.441 Y74.209 E.01314
G1 X124.441 Y93.26 E.59733
G1 X124.022 Y93.26 E.01314
G1 X124.022 Y74.209 E.59733
G1 X123.731 Y74.209 E.00912
G1 X123.731 Y69.595 E.14467
G1 X123.603 Y69.595 E.00401
G1 X123.603 Y95.567 E.81433
G1 X123.184 Y95.567 E.01314
G1 X123.184 Y69.595 E.81433
G1 X122.765 Y69.595 E.01314
G1 X122.765 Y95.567 E.81433
G1 X122.346 Y95.567 E.01314
G1 X122.346 Y86.044 E.29859
G1 X121.927 Y87.09 E.03533
M73 Q1 S71
G1 X121.927 Y95.567 E.26579
G1 X121.508 Y95.567 E.01314
G1 X121.508 Y88.136 E.23299
G1 X121.089 Y89.096 E.03284
G1 X121.089 Y100.181 E.34756
G1 X120.67 Y100.181 E.01314
G1 X120.67 Y89.842 E.32417
G1 X120.251 Y90.587 E.0268
G1 X120.251 Y100.181 E.30081
G1 X119.832 Y100.181 E.01314
G1 X119.832 Y91.333 E.27742
G1 X119.413 Y92.079 E.02683
G1 X119.413 Y100.181 E.25403
G1 X119.117 Y100.181 E.00928
G1 X119.117 Y104.795 E.14467
G1 X118.994 Y104.795 E.00386
G1 X118.994 Y92.824 E.37534
G1 X118.575 Y93.57 E.02683
G1 X118.575 Y104.795 E.35195
G1 X118.156 Y104.795 E.01314
G1 X118.156 Y94.316 E.32856
G1 X117.737 Y95.061 E.0268
G1 X117.737 Y104.795 E.3052
G1 X117.318 Y104.795 E.01314
G1 X117.318 Y95.807 E.28181
G1 X116.899 Y96.553 E.02683
G1 X116.899 Y104.795 E.25842
G1 X116.81 Y104.795 E.00279
G1 X116.81 Y109.409 E.14467
G1 X116.48 Y109.409 E.01035
G1 X116.48 Y97.298 E.37973
G1 X116.061 Y98.044 E.02683
G1 X116.061 Y109.409 E.35634
G1 X115.642 Y109.409 E.01314
G1 X115.642 Y98.789 E.33298
G1 X115.223 Y99.535 E.02683
G1 X115.223 Y109.409 E.30959
G1 X114.804 Y109.409 E.01314
G1 X114.804 Y100.281 E.2862
G1 X114.386 Y101.026 E.02678
G1 X114.386 Y111.716 E.33518
G1 X113.967 Y111.716 E.01314
G1 X113.967 Y101.772 E.31179
G1 X113.548 Y102.518 E.02683
G1 X113.548 Y111.716 E.2884
G1 X113.129 Y111.716 E.01314
G1 X113.129 Y103.263 E.26504
G1 X112.71 Y104.009 E.02683
G1 X112.71 Y111.716 E.24165
G1 X112.291 Y111.716 E.01314
G1 X112.291 Y104.755 E.21826
G1 X111.872 Y105.5 E.0268
G1 X111.872 Y116.33 E.33957
G1 X111.453 Y116.33 E.01314
G1 X111.453 Y106.246 E.31618
G1 X111.034 Y106.992 E.02683
G1 X111.034 Y116.33 E.29279
G1 X110.615 Y116.33 E.01314
G1 X110.615 Y107.737 E.26943
G1 X110.196 Y108.483 E.02683
G1 X110.196 Y116.33 E.24604
G1 X109.889 Y116.33 E.00963
G1 X109.889 Y120.945 E.1447
G1 X109.777 Y120.945 E.00351
G1 X109.777 Y109.228 E.36738
G1 X109.358 Y109.974 E.02683
G1 X109.358 Y120.945 E.34399
G1 X108.939 Y120.945 E.01314
G1 X108.939 Y110.72 E.3206
G1 X108.52 Y111.465 E.0268
G1 X108.52 Y120.945 E.29724
G1 X108.101 Y120.945 E.01314
G1 X108.101 Y112.211 E.27385
G1 X107.682 Y112.957 E.02683
G1 X107.682 Y120.945 E.25046
G1 X107.582 Y120.945 E.00314
G1 X107.582 Y125.559 E.14467
G1 X107.263 Y125.559 E.01
G1 X107.263 Y113.702 E.37177
G1 X106.844 Y114.448 E.02683
G1 X106.844 Y125.559 E.34838
G1 X106.425 Y125.559 E.01314
G1 X106.425 Y115.194 E.32499
G1 X106.006 Y115.939 E.0268
G1 X106.006 Y125.559 E.30163
G1 X105.587 Y125.559 E.01314
G1 X105.587 Y116.685 E.27824
G1 X105.168 Y117.431 E.02683
M73 P2 R71
G1 X105.168 Y130.173 E.39952
G1 X104.749 Y130.173 E.01314
M73 Q2 S71
G1 X104.749 Y118.176 E.37616
G1 X104.33 Y118.922 E.02683
G1 X104.33 Y130.173 E.35277
G1 X103.911 Y130.173 E.01314
G1 X103.911 Y119.667 E.32941
G1 X103.492 Y120.413 E.02683
G1 X103.492 Y130.173 E.30602
G1 X103.073 Y130.173 E.01314
G1 X103.073 Y121.159 E.28263
G1 X102.654 Y121.904 E.0268
G1 X102.654 Y132.48 E.3316
G1 X102.235 Y132.48 E.01314
G1 X102.235 Y122.65 E.30821
G1 X101.816 Y123.396 E.02683
G1 X101.816 Y132.48 E.28482
G1 X101.397 Y132.48 E.01314
G1 X101.397 Y124.141 E.26146
G1 X100.978 Y124.887 E.02683
G1 X100.978 Y132.48 E.23807
G1 X100.66 Y132.48 E.00997
G1 X100.66 Y137.094 E.14467
G1 X100.559 Y137.094 E.00317
G1 X100.559 Y125.633 E.35935
G1 X100.14 Y126.378 E.0268
G1 X100.14 Y137.094 E.33599
G1 X99.721 Y137.094 E.01314
G1 X99.721 Y127.124 E.3126
G1 X99.302 Y127.87 E.02683
G1 X99.302 Y137.094 E.28921
G1 X98.883 Y137.094 E.01314
G1 X98.883 Y128.615 E.26585
G1 X98.464 Y129.361 E.02683
G1 X98.464 Y137.094 E.24246
G1 X98.353 Y137.094 E.00348
G1 X98.353 Y141.708 E.14467
G1 X98.045 Y141.708 E.00966
G1 X98.045 Y130.106 E.36377
G1 X97.626 Y130.852 E.02683
G1 X97.626 Y141.708 E.34038
G1 X97.207 Y141.708 E.01314
M73 P2 R70
G1 X97.207 Y131.598 E.31699
G1 X96.788 Y132.343 E.0268
G1 X96.788 Y141.708 E.29363
G1 X96.37 Y141.708 E.01311
G1 X96.37 Y133.089 E.27024
G1 X95.951 Y133.835 E.02683
G1 X95.951 Y146.322 E.39152
G1 X95.532 Y146.322 E.01314
G1 X95.532 Y134.58 E.36816
G1 X95.113 Y135.326 E.02683
G1 X95.113 Y146.322 E.34477
G1 X94.694 Y146.322 E.01314
G1 X94.694 Y136.072 E.32138
G1 X94.275 Y136.817 E.0268
G1 X94.275 Y146.322 E.29802
G1 X93.856 Y146.322 E.01314
G1 X93.856 Y137.563 E.27463
G1 X93.437 Y138.309 E.02683
G1 X93.437 Y150.937 E.39594
G1 X93.018 Y150.937 E.01314
G1 X93.018 Y139.054 E.37258
G1 X92.599 Y139.8 E.02683
G1 X92.599 Y150.937 E.34919
G1 X92.18 Y150.937 E.01314
G1 X92.18 Y140.546 E.3258
G1 X91.761 Y141.291 E.0268
G1 X91.761 Y150.937 E.30244
G1 X91.432 Y150.937 E.01032
G1 X91.432 Y153.244 E.07233
G1 X91.342 Y153.244 E.00282
G1 X91.342 Y142.037 E.35139
G1 X90.923 Y142.782 E.0268
G1 X90.923 Y153.244 E.32803
G1 X90.504 Y153.244 E.01314
G1 X90.504 Y143.528 E.30464
G1 X90.085 Y144.274 E.02683
G1 X90.085 Y153.244 E.28125
G1 X89.666 Y153.244 E.01314
G1 X89.666 Y145.019 E.25789
G1 X89.247 Y145.765 E.02683
G1 X89.247 Y153.244 E.2345
G1 X89.125 Y153.244 E.00383
G1 X89.125 Y157.858 E.14467
G1 X88.828 Y157.858 E.00931
G1 X88.828 Y146.511 E.35578
G1 X88.409 Y147.256 E.0268
G1 X88.409 Y157.858 E.33242
G1 X87.99 Y157.858 E.01314
G1 X87.99 Y148.002 E.30903
G1 X87.571 Y148.748 E.02683
G1 X87.571 Y157.858 E.28564
G1 X87.152 Y157.858 E.01314
G1 X87.152 Y149.493 E.26228
G1 X86.733 Y150.239 E.02683
G1 X86.733 Y162.472 E.38356
G1 X86.314 Y162.472 E.01314
G1 X86.314 Y150.985 E.36017
G1 X85.895 Y151.73 E.0268
G1 X85.895 Y162.472 E.33681
G1 X85.476 Y162.472 E.01314
G1 X85.476 Y152.476 E.31342
G1 X85.057 Y153.221 E.0268
G1 X85.057 Y162.472 E.29006
G1 X84.638 Y162.472 E.01314
G1 X84.638 Y153.967 E.26667
G1 X84.219 Y154.713 E.02683
G1 X84.219 Y167.086 E.38795
G1 X83.8 Y167.086 E.01314
G1 X83.8 Y155.458 E.36459
G1 X83.381 Y156.204 E.02683
G1 X83.381 Y167.086 E.3412
G1 X82.962 Y167.086 E.01314
G1 X82.962 Y156.95 E.31781
G1 X82.543 Y157.695 E.0268
G1 X82.543 Y167.086 E.29445
G1 X82.204 Y167.086 E.01063
G1 X82.204 Y169.393 E.07233
G1 X82.124 Y169.393 E.00251
G1 X82.124 Y158.441 E.34339
G1 X81.705 Y159.187 E.02683
G1 X81.705 Y169.393 E.32
G1 X81.286 Y169.393 E.01314
G1 X81.286 Y159.932 E.29664
G1 X80.867 Y160.678 E.02683
G1 X80.867 Y169.393 E.27325
G1 X80.448 Y169.393 E.01314
G1 X80.448 Y161.424 E.24986
G1 X80.029 Y162.169 E.0268
G1 X80.029 Y169.393 E.2265
G1 X79.897 Y169.393 E.00414
G1 X79.897 Y171.7 E.07233
G1 X79.61 Y171.7 E.009
G1 X79.61 Y162.915 E.27545
G1 X79.191 Y163.66 E.0268
G1 X79.191 Y171.7 E.25209
G1 X78.772 Y171.7 E.01314
G1 X78.772 Y164.406 E.2287
G1 X78.353 Y165.07 E.02462
G1 X78.353 Y171.7 E.20788
G1 X77.935 Y171.7 E.01311
G1 X77.935 Y165.629 E.19035
G1 X77.516 Y166.189 E.02193
G1 X77.516 Y174.007 E.24513
G1 X77.097 Y174.007 E.01314
G1 X77.097 Y166.748 E.2276
G1 X76.678 Y167.308 E.02193
G1 X76.678 Y174.007 E.21004
G1 X76.259 Y174.007 E.01314
M73 Q2 S70
G1 X76.259 Y167.687 E.19816
G1 X75.84 Y168.016 E.0167
G1 X75.84 Y174.007 E.18784
G1 X75.421 Y174.007 E.01314
G1 X75.421 Y168.346 E.1775
G1 X75.002 Y168.675 E.0167
G1 X75.002 Y174.007 E.16718
G1 X74.583 Y174.007 E.01314
G1 X74.583 Y169.004 E.15687
G1 X74.164 Y169.334 E.01672
G1 X74.164 Y174.007 E.14652
G1 X73.745 Y174.007 E.01314
G1 X73.745 Y169.577 E.1389
G1 X73.326 Y169.756 E.01429
G1 X73.326 Y174.007 E.13329
G1 X72.907 Y174.007 E.01314
G1 X72.907 Y169.936 E.12764
G1 X72.488 Y170.115 E.01429
G1 X72.488 Y174.007 E.12203
G1 X72.069 Y174.007 E.01314
G1 X72.069 Y170.294 E.11642
G1 X71.65 Y170.473 E.01429
G1 X71.65 Y174.007 E.11081
G1 X71.231 Y174.007 E.01314
G1 X71.231 Y170.653 E.10516
G1 X70.812 Y170.795 E.01387
G1 X70.812 Y174.007 E.10071
G1 X70.393 Y174.007 E.01314
G1 X70.393 Y170.856 E.0988
G1 X69.974 Y170.927 E.01332
G1 X69.974 Y174.007 E.09657
G1 X69.555 Y174.007 E.01314
G1 X69.555 Y170.998 E.09435
G1 X69.136 Y171.069 E.01332
G1 X69.136 Y174.007 E.09212
G1 X68.717 Y174.007 E.01314
G1 X68.717 Y171.14 E.08989
G1 X68.298 Y171.211 E.01332
G1 X68.298 Y174.007 E.08767
G1 X67.879 Y174.007 E.01314
G1 X67.879 Y171.232 E.08701
G1 X67.46 Y171.222 E.01314
G1 X67.46 Y174.007 E.08732
G1 X67.041 Y174.007 E.01314
G1 X67.041 Y171.171 E.08892
G1 X66.622 Y171.121 E.01323
G1 X66.622 Y174.007 E.09049
G1 X66.203 Y174.007 E.01314
M73 P3 R70
G1 X66.203 Y171.071 E.09206
G1 X65.784 Y171.021 E.01323
G1 X65.784 Y174.007 E.09362
G1 X65.365 Y174.007 E.01314
G1 X65.365 Y170.971 E.09519
G1 X64.946 Y170.921 E.01323
M73 Q3 S70
G1 X64.946 Y174.007 E.09676
G1 X64.527 Y174.007 E.01314
G1 X64.527 Y170.87 E.09836
G1 X64.108 Y170.744 E.01372
G1 X64.108 Y174.007 E.10231
G1 X63.689 Y174.007 E.01314
G1 X63.689 Y170.576 E.10758
G1 X63.27 Y170.408 E.01415
G1 X63.27 Y174.007 E.11284
G1 X62.851 Y174.007 E.01314
G1 X62.851 Y170.24 E.11811
G1 X62.432 Y170.072 E.01415
G1 X62.432 Y174.007 E.12338
G1 X62.013 Y174.007 E.01314
G1 X62.013 Y169.904 E.12865
G1 X61.594 Y169.736 E.01415
G1 X61.594 Y174.007 E.13391
G1 X61.175 Y174.007 E.01314
G1 X61.175 Y169.522 E.14062
G1 X60.756 Y169.208 E.01642
G1 X60.756 Y174.007 E.15047
G1 X60.337 Y174.007 E.01314
G1 X60.337 Y168.894 E.16031
G1 X59.919 Y168.581 E.01637
