; generated by PrusaSlicer 2.9.2 on 2025-05-07 at 13:07:05 UTC


;
;
; 

; external perimeters extrusion width = 0.45mm
; perimeters extrusion width = 0.45mm
; infill extrusion width = 0.45mm
; solid infill extrusion width = 0.45mm
; top infill extrusion width = 0.40mm
; support material extrusion width = 0.35mm
; first layer extrusion width = 0.42mm

M73 P0 R66
M73 Q0 S66
M201 X1000 Y1000 Z200 E5000 ; sets maximum accelerations, mm/sec^2
M203 X200 Y200 Z12 E120 ; sets maximum feedrates, mm / sec
M204 S1250 T1250 ; sets acceleration (S) and retract acceleration (R), mm/sec^2
M205 X8.00 Y8.00 Z0.40 E4.50 ; sets the jerk limits, mm/sec
M205 S0 T0 ; sets the minimum extruding and travel feed rate, mm/sec

; printing object robot_painter_02-a1_painter-1-solid1.STL id:0 copy 0
; stop printing object robot_painter_02-a1_painter-1-solid1.STL id:0 copy 0

;TYPE:Custom
M862.3 P "MK3S" ; printer model check
M862.1 P0.4 ; nozzle diameter check
M115 U3.14.1 ; tell printer latest fw version
G90 ; use absolute coordinates
M83 ; extruder relative mode
M104 S215 ; set extruder temp
M140 S60 ; set bed temp
M190 S60 ; wait for bed temp
M109 S215 ; wait for extruder temp
G28 W ; home all without mesh bed level
G80 X18.3446 Y73.1487 W79.8534 H112.153 ; mesh bed levelling

G1 Z0.2 F720
G1 Y-3 F1000 ; go outside print area
G92 E0
G1 X60 E9 F1000 ; intro line
G1 X100 E12.5 F1000 ; intro line

G92 E0
M221 S95

; Don't change E values below. Excessive value can damage the printer.
M907 E430 ; set extruder motor current
G21 ; set units to millimeters
G90 ; use absolute coordinates
M83 ; use relative distances for extrusion

M900 K0.05 ; Filament gcode LA 1.5
M900 K30 ; Filament gcode LA 1.0




M107
;LAYER_CHANGE
;Z:0.2
;HEIGHT:0.2
G1 E-.8 F2100
G1 Z.6 F720
G1 X25.336 Y73.337 F10800
G1 Z.2 F720
G1 E.8 F2100
M204 S800
;TYPE:Skirt/Brim
;WIDTH:0.42
G1 F1200
G1 X47.372 Y73.337 E.69092
G1 X48.92 Y73.978 E.05253
M73 P0 R65
G1 X55.841 Y80.9 E.30691
G1 X56.194 Y81.361 E.01821
G1 X65.431 Y97.527 E.58378
G1 X97.731 Y155.204 E2.07269
G1 X98.01 Y156.274 E.03467
G1 X98.01 Y176.003 E.61859
G1 X97.778 Y176.982 E.03155
G1 X95.471 Y181.596 E.16174
G1 X95.061 Y182.165 E.02199
G1 X92.754 Y184.472 E.1023
G1 X91.207 Y185.113 E.0525
G1 X69.17 Y185.113 E.69095
G1 X67.623 Y184.472 E.0525
G1 X60.702 Y177.55 E.30691
G1 X60.349 Y177.089 E.01821
G1 X51.111 Y160.923 E.5838
G1 X18.812 Y103.246 E2.07267
G1 X18.533 Y102.176 E.03467
G1 X18.533 Y82.447 E.61859
G1 X18.764 Y81.468 E.03154
G1 X21.071 Y76.854 E.16174
G1 X21.481 Y76.285 E.02199
G1 X23.788 Y73.978 E.1023
G1 X25.28 Y73.36 E.05063
M204 S1000
;WIPE_START
G1 F8640
G1 X25.336 Y73.337 E-.01398
G1 X28.74 Y73.337 E-.78602
;WIPE_END
G1 Z.6 F720
; printing object robot_painter_02-a1_painter-1-solid1.STL id:0 copy 0
G1 X47.372 Y77.833 F10800
G1 Z.2 F720
G1 E.8 F2100
M204 S800
;TYPE:Support material
G1 F1200
G1 X49.679 Y77.833 E.07233
G1 X49.679 Y80.14 E.07233
G1 X51.986 Y80.14 E.07233
G1 X51.986 Y82.447 E.07233
G1 X54.294 Y82.447 E.07237
G1 X54.294 Y87.061 E.14467
G1 X56.601 Y87.061 E.07233
G1 X56.601 Y91.675 E.14467
G1 X58.908 Y91.675 E.07233
G1 X58.908 Y96.29 E.1447
G1 X61.215 Y96.29 E.07233
G1 X61.215 Y98.597 E.07233
G1 X63.522 Y98.597 E.07233
G1 X63.522 Y103.211 E.14467
G1 X65.829 Y103.211 E.07233
G1 X65.829 Y107.825 E.14467
G1 X68.136 Y107.825 E.07233
G1 X68.136 Y112.439 E.14467
G1 X70.443 Y112.439 E.07233
G1 X70.443 Y117.053 E.14467
G1 X72.75 Y117.053 E.07233
G1 X72.75 Y119.36 E.07233
G1 X75.057 Y119.36 E.07233
G1 X75.057 Y123.974 E.14467
G1 X77.364 Y123.974 E.07233
G1 X77.364 Y128.589 E.1447
G1 X79.671 Y128.589 E.07233
G1 X79.671 Y133.203 E.14467
G1 X81.979 Y133.203 E.07237
G1 X81.979 Y137.817 E.14467
G1 X84.286 Y137.817 E.07233
G1 X84.286 Y140.124 E.07233
G1 X86.593 Y140.124 E.07233
G1 X86.593 Y144.738 E.14467
G1 X88.9 Y144.738 E.07233
G1 X88.9 Y149.352 E.14467
G1 X91.207 Y149.352 E.07233
G1 X91.207 Y153.967 E.1447
G1 X93.514 Y153.967 E.07233
G1 X93.514 Y156.274 E.07233
G1 X95.821 Y156.274 E.07233
G1 X95.821 Y176.003 E.61859
G1 X93.514 Y176.003 E.07233
G1 X93.514 Y180.617 E.14467
G1 X91.207 Y180.617 E.07233
G1 X91.207 Y182.924 E.07233
G1 X69.17 Y182.924 E.69095
G1 X69.17 Y180.617 E.07233
G1 X66.863 Y180.617 E.07233
G1 X66.863 Y178.31 E.07233
G1 X64.556 Y178.31 E.07233
G1 X64.556 Y176.003 E.07233
G1 X62.249 Y176.003 E.07233
G1 X62.249 Y171.389 E.14467
G1 X59.942 Y171.389 E.07233
G1 X59.942 Y166.775 E.14467
G1 X57.635 Y166.775 E.07233
G1 X57.635 Y162.16 E.1447
G1 X55.328 Y162.16 E.07233
M73 Q0 S65
G1 X55.328 Y159.853 E.07233
G1 X53.021 Y159.853 E.07233
G1 X53.021 Y155.239 E.14467
G1 X50.714 Y155.239 E.07233
G1 X50.714 Y150.625 E.14467
G1 X48.407 Y150.625 E.07233
G1 X48.407 Y146.011 E.14467
G1 X46.1 Y146.011 E.07233
G1 X46.1 Y141.397 E.14467
G1 X43.793 Y141.397 E.07233
G1 X43.793 Y139.09 E.07233
G1 X41.485 Y139.09 E.07237
G1 X41.485 Y134.476 E.14467
G1 X39.178 Y134.476 E.07233
G1 X39.178 Y129.861 E.1447
G1 X36.871 Y129.861 E.07233
G1 X36.871 Y125.247 E.14467
G1 X34.564 Y125.247 E.07233
G1 X34.564 Y120.633 E.14467
G1 X32.257 Y120.633 E.07233
G1 X32.257 Y118.326 E.07233
G1 X29.95 Y118.326 E.07233
G1 X29.95 Y113.712 E.14467
G1 X27.643 Y113.712 E.07233
G1 X27.643 Y109.098 E.14467
G1 X25.336 Y109.098 E.07233
G1 X25.336 Y104.483 E.1447
G1 X23.029 Y104.483 E.07233
G1 X23.029 Y102.176 E.07233
G1 X20.722 Y102.176 E.07233
G1 X20.722 Y82.447 E.61859
G1 X23.029 Y82.447 E.07233
M73 P1 R65
M73 Q1 S65
G1 X23.029 Y77.833 E.14467
G1 X25.336 Y77.833 E.07233
G1 X25.336 Y75.526 E.07233
G1 X47.372 Y75.526 E.69092
G1 X47.372 Y77.776 E.07055
M204 S1000
G1 X36.611 Y79.028 F10800
M204 S800
G1 F1200
G1 X37.138 Y78.973 E.01661
G1 X40.262 Y79.421 E.09895
G1 X43.224 Y80.68 E.10091
G1 X45.76 Y82.663 E.10094
G1 X47.687 Y85.222 E.10044
G1 X90.337 Y161.122 E2.72978
G1 X91.519 Y164.066 E.09947
G1 X91.91 Y167.261 E.10092
G1 X91.444 Y170.508 E.10285
G1 X90.17 Y173.464 E.10092
G1 X88.219 Y175.946 E.09899
G1 X85.593 Y177.913 E.10287
G1 X82.663 Y179.087 E.09897
G1 X79.931 Y179.422 E.0863
G1 X79.405 Y179.477 E.01658
G1 X76.281 Y179.029 E.09895
G1 X73.264 Y177.738 E.10289
G1 X70.783 Y175.787 E.09896
G1 X68.856 Y173.228 E.10044
G1 X26.205 Y97.328 E2.72979
G1 X25.024 Y94.384 E.09946
G1 X24.633 Y91.189 E.10092
G1 X25.082 Y88.002 E.10091
G1 X26.341 Y85.04 E.10091
G1 X28.323 Y82.504 E.10092
G1 X30.895 Y80.568 E.10094
G1 X33.88 Y79.363 E.10093
G1 X36.555 Y79.034 E.0845
M204 S1000
;WIPE_START
G1 F8640
G1 X33.88 Y79.363 E-.62232
G1 X33.166 Y79.651 E-.17768
;WIPE_END
G1 Z.6 F720
G1 X95.141 Y175.833 F10800
G1 Z.2 F720
G1 E.8 F2100
M204 S800
G1 F1200
G1 X95.141 Y156.613 E.60263
G1 X94.722 Y156.613 E.01314
G1 X94.722 Y175.664 E.59733
G1 X94.303 Y175.664 E.01314
G1 X94.303 Y156.613 E.59733
G1 X93.884 Y156.613 E.01314
G1 X93.884 Y175.664 E.59733
G1 X93.465 Y175.664 E.01314
G1 X93.465 Y156.613 E.59733
G1 X93.175 Y156.613 E.00909
G1 X93.175 Y154.306 E.07233
G1 X93.046 Y154.306 E.00404
G1 X93.046 Y180.278 E.81433
G1 X92.627 Y180.278 E.01314
G1 X92.627 Y154.306 E.81433
G1 X92.208 Y154.306 E.01314
G1 X92.208 Y180.278 E.81433
G1 X91.789 Y180.278 E.01314
G1 X91.789 Y170.532 E.30558
G1 X91.371 Y171.542 E.03427
G1 X91.371 Y180.278 E.27391
G1 X90.952 Y180.278 E.01314
G1 X90.952 Y172.521 E.24322
G1 X90.533 Y173.5 E.03339
G1 X90.533 Y182.585 E.28485
G1 X90.114 Y182.585 E.01314
G1 X90.114 Y174.085 E.26651
G1 X89.695 Y174.618 E.02126
G1 X89.695 Y182.585 E.2498
G1 X89.276 Y182.585 E.01314
G1 X89.276 Y175.151 E.23309
G1 X88.857 Y175.684 E.02126
M73 P1 R64
G1 X88.857 Y182.585 E.21638
G1 X88.438 Y182.585 E.01314
G1 X88.438 Y176.207 E.19998
G1 X88.019 Y176.53 E.01659
G1 X88.019 Y182.585 E.18985
G1 X87.6 Y182.585 E.01314
G1 X87.6 Y176.844 E.18001
G1 X87.181 Y177.158 E.01642
G1 X87.181 Y182.585 E.17016
G1 X86.762 Y182.585 E.01314
G1 X86.762 Y177.472 E.16031
G1 X86.343 Y177.786 E.01642
G1 X86.343 Y182.585 E.15047
G1 X85.924 Y182.585 E.01314
G1 X85.924 Y178.099 E.14066
G1 X85.505 Y178.314 E.01477
G1 X85.505 Y182.585 E.13391
G1 X85.086 Y182.585 E.01314
G1 X85.086 Y178.482 E.12865
G1 X84.667 Y178.65 E.01415
G1 X84.667 Y182.585 E.12338
G1 X84.248 Y182.585 E.01314
G1 X84.248 Y178.817 E.11814
G1 X83.829 Y178.985 E.01415
G1 X83.829 Y182.585 E.11288
G1 X83.41 Y182.585 E.01314
G1 X83.41 Y179.153 E.10761
G1 X82.991 Y179.321 E.01415
G1 X82.991 Y182.585 E.10234
G1 X82.572 Y182.585 E.01314
G1 X82.572 Y179.448 E.09836
G1 X82.153 Y179.498 E.01323
G1 X82.153 Y182.585 E.09679
G1 X81.734 Y182.585 E.01314
G1 X81.734 Y179.548 E.09522
G1 X81.315 Y179.598 E.01323
G1 X81.315 Y182.585 E.09366
G1 X80.896 Y182.585 E.01314
G1 X80.896 Y179.648 E.09209
G1 X80.477 Y179.699 E.01323
G1 X80.477 Y182.585 E.09049
G1 X80.058 Y182.585 E.01314
G1 X80.058 Y179.749 E.08892
G1 X79.639 Y179.799 E.01323
G1 X79.639 Y182.585 E.08735
G1 X79.22 Y182.585 E.01314
G1 X79.22 Y179.793 E.08754
G1 X78.801 Y179.733 E.01327
G1 X78.801 Y182.585 E.08942
G1 X78.382 Y182.585 E.01314
G1 X78.382 Y179.673 E.0913
G1 X77.963 Y179.613 E.01327
G1 X77.963 Y182.585 E.09318
G1 X77.544 Y182.585 E.01314
G1 X77.544 Y179.553 E.09507
G1 X77.125 Y179.493 E.01327
G1 X77.125 Y182.585 E.09695
G1 X76.706 Y182.585 E.01314
G1 X76.706 Y179.432 E.09886
G1 X76.287 Y179.372 E.01327
G1 X76.287 Y182.585 E.10074
G1 X75.868 Y182.585 E.01314
G1 X75.868 Y179.23 E.10519
G1 X75.449 Y179.051 E.01429
G1 X75.449 Y182.585 E.11081
G1 X75.03 Y182.585 E.01314
G1 X75.03 Y178.872 E.11642
G1 X74.611 Y178.692 E.0143
G1 X74.611 Y182.585 E.12206
G1 X74.192 Y182.585 E.01314
G1 X74.192 Y178.513 E.12767
G1 X73.773 Y178.334 E.01429
G1 X73.773 Y182.585 E.13329
G1 X73.355 Y182.585 E.01311
G1 X73.355 Y178.154 E.13893
G1 X72.936 Y177.911 E.01519
G1 X72.936 Y182.585 E.14655
G1 X72.517 Y182.585 E.01314
G1 X72.517 Y177.582 E.15687
G1 X72.098 Y177.252 E.01672
G1 X72.098 Y182.585 E.16721
G1 X71.679 Y182.585 E.01314
G1 X71.679 Y176.923 E.17753
G1 X71.26 Y176.594 E.0167
G1 X71.26 Y182.585 E.18784
G1 X70.841 Y182.585 E.01314
G1 X70.841 Y176.264 E.19819
G1 X70.422 Y175.885 E.01771
G1 X70.422 Y182.585 E.21007
G1 X70.003 Y182.585 E.01314
G1 X70.003 Y175.325 E.22763
M73 P2 R64
G1 X69.584 Y174.766 E.0219
M73 Q2 S65
G1 X69.584 Y182.585 E.24516
G1 X69.51 Y182.585 E.00232
G1 X69.51 Y180.278 E.07233
G1 X69.165 Y180.278 E.01082
G1 X69.165 Y174.207 E.19035
G1 X68.746 Y173.647 E.02193
G1 X68.746 Y180.278 E.20791
G1 X68.327 Y180.278 E.01314
G1 X68.327 Y172.983 E.22873
G1 X67.908 Y172.238 E.0268
G1 X67.908 Y180.278 E.25209
G1 X67.489 Y180.278 E.01314
G1 X67.489 Y171.492 E.27548
G1 X67.07 Y170.747 E.0268
G1 X67.07 Y177.971 E.2265
G1 X66.651 Y177.971 E.01314
G1 X66.651 Y170.001 E.24989
G1 X66.232 Y169.255 E.02683
G1 X66.232 Y177.971 E.27328
G1 X65.813 Y177.971 E.01314
G1 X65.813 Y168.51 E.29664
G1 X65.394 Y167.764 E.02683
G1 X65.394 Y177.971 E.32003
G1 X64.975 Y177.971 E.01314
G1 X64.975 Y167.018 E.34342
G1 X64.556 Y166.273 E.0268
G1 X64.556 Y175.664 E.29445
G1 X64.137 Y175.664 E.01314
G1 X64.137 Y165.527 E.31784
G1 X63.718 Y164.781 E.02683
G1 X63.718 Y175.664 E.34123
G1 X63.299 Y175.664 E.01314
G1 X63.299 Y164.036 E.36459
G1 X62.88 Y163.29 E.02683
G1 X62.88 Y175.664 E.38798
G1 X62.589 Y175.664 E.00912
G1 X62.589 Y171.049 E.1447
G1 X62.461 Y171.049 E.00401
G1 X62.461 Y162.544 E.26667
G1 X62.042 Y161.799 E.0268
G1 X62.042 Y171.049 E.29003
G1 X61.623 Y171.049 E.01314
G1 X61.623 Y161.053 E.31342
G1 X61.204 Y160.308 E.0268
G1 X61.204 Y171.049 E.33678
G1 X60.785 Y171.049 E.01314
G1 X60.785 Y159.562 E.36017
G1 X60.366 Y158.816 E.02683
G1 X60.366 Y171.049 E.38356
G1 X60.281 Y171.049 E.00267
G1 X60.281 Y166.435 E.14467
G1 X59.947 Y166.435 E.01047
G1 X59.947 Y158.071 E.26225
G1 X59.528 Y157.325 E.02683
G1 X59.528 Y166.435 E.28564
G1 X59.109 Y166.435 E.01314
G1 X59.109 Y156.579 E.30903
G1 X58.69 Y155.834 E.0268
G1 X58.69 Y166.435 E.33239
G1 X58.271 Y166.435 E.01314
M73 Q2 S64
G1 X58.271 Y155.088 E.35578
G1 X57.852 Y154.342 E.02683
G1 X57.852 Y161.821 E.2345
G1 X57.433 Y161.821 E.01314
G1 X57.433 Y153.597 E.25786
G1 X57.014 Y152.851 E.02683
G1 X57.014 Y161.821 E.28125
G1 X56.595 Y161.821 E.01314
G1 X56.595 Y152.105 E.30464
G1 X56.176 Y151.36 E.0268
G1 X56.176 Y161.821 E.328
G1 X55.757 Y161.821 E.01314
G1 X55.757 Y150.614 E.35139
G1 X55.339 Y149.869 E.02678
G1 X55.338 Y159.514 E.30241
G1 X54.92 Y159.514 E.01311
G1 X54.92 Y149.123 E.3258
G1 X54.501 Y148.377 E.02683
G1 X54.501 Y159.514 E.34919
G1 X54.082 Y159.514 E.01314
G1 X54.082 Y147.632 E.37255
G1 X53.663 Y146.886 E.02683
G1 X53.663 Y159.514 E.39594
G1 X53.36 Y159.514 E.0095
G1 X53.36 Y154.9 E.14467
G1 X53.244 Y154.9 E.00364
G1 X53.244 Y146.14 E.27466
G1 X52.825 Y145.395 E.0268
G1 X52.825 Y154.9 E.29802
G1 X52.406 Y154.9 E.01314
G1 X52.406 Y144.649 E.32141
G1 X51.987 Y143.903 E.02683
G1 X51.987 Y154.9 E.3448
G1 X51.568 Y154.9 E.01314
G1 X51.568 Y143.158 E.36816
G1 X51.149 Y142.412 E.02683
G1 X51.149 Y154.9 E.39155
G1 X51.053 Y154.9 E.00301
G1 X51.053 Y150.286 E.14467
G1 X50.73 Y150.286 E.01013
G1 X50.73 Y141.666 E.27027
G1 X50.311 Y140.921 E.0268
G1 X50.311 Y150.286 E.29363
G1 X49.892 Y150.286 E.01314
G1 X49.892 Y140.175 E.31702
G1 X49.473 Y139.43 E.0268
G1 X49.473 Y150.286 E.34038
G1 X49.054 Y150.286 E.01314
G1 X49.054 Y138.684 E.36377
G1 X48.635 Y137.938 E.02683
G1 X48.635 Y145.672 E.24249
G1 X48.216 Y145.672 E.01314
G1 X48.216 Y137.193 E.26585
G1 X47.797 Y136.447 E.02683
G1 X47.797 Y145.672 E.28924
G1 X47.378 Y145.672 E.01314
G1 X47.378 Y135.701 E.31263
G1 X46.959 Y134.956 E.0268
G1 X46.959 Y145.672 E.33599
G1 X46.54 Y145.672 E.01314
G1 X46.54 Y134.21 E.35938
G1 X46.121 Y133.464 E.02683
G1 X46.121 Y141.057 E.23807
G1 X45.702 Y141.057 E.01314
G1 X45.702 Y132.719 E.26143
G1 X45.283 Y131.973 E.02683
G1 X45.283 Y141.057 E.28482
G1 X44.864 Y141.057 E.01314
G1 X44.864 Y131.227 E.30821
G1 X44.445 Y130.482 E.0268
G1 X44.445 Y141.057 E.33157
G1 X44.132 Y141.057 E.00981
G1 X44.132 Y138.75 E.07233
G1 X44.026 Y138.75 E.00332
G1 X44.026 Y129.736 E.28263
G1 X43.607 Y128.99 E.02683
G1 X43.607 Y138.75 E.30602
G1 X43.188 Y138.75 E.01314
G1 X43.188 Y128.245 E.32938
G1 X42.769 Y127.499 E.02683
G1 X42.769 Y138.75 E.35277
G1 X42.35 Y138.75 E.01314
G1 X42.35 Y126.754 E.37613
G1 X41.931 Y126.008 E.02683
G1 X41.931 Y138.75 E.39952
G1 X41.825 Y138.75 E.00332
G1 X41.825 Y134.136 E.14467
G1 X41.512 Y134.136 E.00981
G1 X41.512 Y125.262 E.27824
G1 X41.093 Y124.517 E.0268
G1 X41.093 Y134.136 E.3016
G1 X40.674 Y134.136 E.01314
G1 X40.674 Y123.771 E.32499
G1 X40.255 Y123.025 E.02683
G1 X40.255 Y134.136 E.34838
G1 X39.836 Y134.136 E.01314
M73 P3 R64
M73 Q3 S64
G1 X39.836 Y122.28 E.37174
G1 X39.417 Y121.534 E.02683
G1 X39.417 Y129.522 E.25046
G1 X38.998 Y129.522 E.01314
G1 X38.998 Y120.788 E.27385
G1 X38.579 Y120.043 E.0268
G1 X38.579 Y129.522 E.29721
G1 X38.16 Y129.522 E.01314
G1 X38.16 Y119.297 E.3206
G1 X37.741 Y118.551 E.02683
G1 X37.741 Y129.522 E.34399
G1 X37.322 Y129.522 E.01314
G1 X37.322 Y117.806 E.36735
G1 X36.904 Y117.06 E.02681
G1 X36.904 Y124.908 E.24607
G1 X36.485 Y124.908 E.01314
G1 X36.485 Y116.315 E.26943
G1 X36.066 Y115.569 E.02683
G1 X36.066 Y124.908 E.29282
G1 X35.647 Y124.908 E.01314
G1 X35.647 Y114.823 E.31621
G1 X35.228 Y114.078 E.0268
G1 X35.228 Y124.908 E.33957
G1 X34.904 Y124.908 E.01016
G1 X34.904 Y120.294 E.14467
G1 X34.809 Y120.294 E.00298
G1 X34.809 Y113.332 E.21829
G1 X34.39 Y112.586 E.02683
G1 X34.39 Y120.294 E.24168
G1 X33.971 Y120.294 E.01314
G1 X33.971 Y111.841 E.26504
G1 X33.552 Y111.095 E.02683
G1 X33.552 Y120.294 E.28843
G1 X33.133 Y120.294 E.01314
G1 X33.133 Y110.349 E.31182
M73 P3 R63
G1 X32.714 Y109.604 E.0268
G1 X32.714 Y120.294 E.33518
G1 X32.596 Y120.294 E.0037
G1 X32.596 Y117.987 E.07233
G1 X32.295 Y117.987 E.00944
G1 X32.295 Y108.858 E.28623
G1 X31.876 Y108.112 E.02683
G1 X31.876 Y117.987 E.30962
G1 X31.457 Y117.987 E.01314
G1 X31.457 Y107.367 E.33298
G1 X31.038 Y106.621 E.02683
G1 X31.038 Y117.987 E.35637
G1 X30.619 Y117.987 E.01314
G1 X30.619 Y105.876 E.37973
G1 X30.2 Y105.13 E.02683
G1 X30.2 Y113.372 E.25842
G1 X29.781 Y113.372 E.01314
G1 X29.781 Y104.384 E.28181
G1 X29.362 Y103.639 E.0268
G1 X29.362 Y113.372 E.30517
G1 X28.943 Y113.372 E.01314
G1 X28.943 Y102.893 E.32856
G1 X28.524 Y102.147 E.02683
G1 X28.524 Y113.372 E.35195
