; generated by PrusaSlicer 2.9.2 on 2025-05-07 at 13:08:17 UTC


;
;
; 

; external perimeters extrusion width = 0.45mm
; perimeters extrusion width = 0.45mm
; infill extrusion width = 0.45mm
; solid infill extrusion width = 0.45mm
; top infill extrusion width = 0.40mm
; support material extrusion width = 0.35mm
; first layer extrusion width = 0.42mm

M73 P0 R128
M73 Q0 S128
M201 X1000 Y1000 Z200 E5000 ; sets maximum accelerations, mm/sec^2
M203 X200 Y200 Z12 E120 ; sets maximum feedrates, mm / sec
M204 S1250 T1250 ; sets acceleration (S) and retract acceleration (R), mm/sec^2
M205 X8.00 Y8.00 Z0.40 E4.50 ; sets the jerk limits, mm/sec
M205 S0 T0 ; sets the minimum extruding and travel feed rate, mm/sec

; printing object robot_painter_02-a2_1PRA-1-solid1.STL id:0 copy 0
; stop printing object robot_painter_02-a2_1PRA-1-solid1.STL id:0 copy 0

;TYPE:Custom
M862.3 P "MK3S" ; printer model check
M862.1 P0.4 ; nozzle diameter check
M115 U3.14.1 ; tell printer latest fw version
G90 ; use absolute coordinates
M83 ; extruder relative mode
M104 S215 ; set extruder temp
M140 S60 ; set bed temp
M190 S60 ; wait for bed temp
M109 S215 ; wait for extruder temp
G28 W ; home all without mesh bed level
G80 X33.4578 Y26.7166 W97.8432 H140.353 ; mesh bed levelling

G1 Z0.2 F720
G1 Y-3 F1000 ; go outside print area
G92 E0
G1 X60 E9 F1000 ; intro line
G1 X100 E12.5 F1000 ; intro line

G92 E0
M221 S95

; Don't change E values below. Excessive value can damage the printer.
M907 E430 ; set extruder motor current
G21 ; set units to millimeters
G90 ; use absolute coordinates
M83 ; use relative distances for extrusion

M900 K0.05 ; Filament gcode LA 1.5
M900 K30 ; Filament gcode LA 1.0




M107
;LAYER_CHANGE
;Z:0.2
;HEIGHT:0.2
G1 E-.8 F2100
G1 Z.6 F720
G1 X83.513 Y47.712 F10800
G1 Z.2 F720
G1 E.8 F2100
M204 S800
;TYPE:Skirt/Brim
;WIDTH:0.42
G1 F1200
G1 X93.452 Y30.315 E.62821
G1 X93.804 Y29.853 E.01821
G1 X96.112 Y27.546 E.10232
G1 X97.659 Y26.905 E.0525
G1 X110.467 Y26.905 E.40159
G1 X111.553 Y27.193 E.03523
G1 X127.703 Y36.422 E.58322
G1 X128.164 Y36.774 E.01819
G1 X130.471 Y39.082 E.10232
G1 X131.112 Y40.629 E.0525
G1 X131.112 Y51.13 E.32925
G1 X130.824 Y52.216 E.03523
G1 X112.288 Y84.643 E1.17111
G1 X107.658 Y91.589 E.26174
G1 X60.795 Y159.876 E2.59678
G1 X58.339 Y162.92 E.12263
M73 P0 R127
G1 X57.83 Y163.38 E.02151
G1 X54.552 Y165.514 E.12264
G1 X53.926 Y165.793 E.02149
G1 X50.15 Y166.809 E.1226
G1 X49.47 Y166.881 E.02144
G1 X45.564 Y166.681 E.12263
G1 X44.893 Y166.539 E.0215
G1 X41.241 Y165.141 E.12261
G1 X40.65 Y164.801 E.02138
G1 X37.606 Y162.345 E.12263
G1 X37.145 Y161.835 E.02156
G1 X35.013 Y158.557 E.12261
G1 X34.734 Y157.932 E.02146
G1 X33.718 Y154.156 E.1226
G1 X33.646 Y153.477 E.02141
G1 X33.844 Y149.571 E.12263
G1 X33.986 Y148.899 E.02154
G1 X35.453 Y145.083 E.12818
G1 X72.614 Y67.37 E2.70089
G1 X74.938 Y62.721 E.16296
G1 X83.483 Y47.764 E.5401
M204 S1000
;WIPE_START
G1 F8640
G1 X83.513 Y47.712 E-.01386
G1 X85.202 Y44.756 E-.78614
;WIPE_END
G1 Z.6 F720
; printing object robot_painter_02-a2_1PRA-1-solid1.STL id:0 copy 0
G1 X91.833 Y81.73 F10800
G1 Z.2 F720
G1 E.8 F2100
M204 S800
;TYPE:Support material interface
;WIDTH:0.35
G1 F1200
G1 X91.754 Y81.438 E.00772
G1 X91.792 Y81.176 E.00676
M204 S1000
;WIPE_START
G1 F8640
G1 X91.754 Y81.438 E-.06113
G1 X91.833 Y81.73 E-.06985
;WIPE_END
G1 E-.66902 F2100
G1 Z.6 F720
G1 X93.53 Y78.179 F10800
G1 Z.2 F720
G1 E.8 F2100
M204 S800
G1 F1200
G1 X93.53 Y82.793 E.11781
G1 X93.023 Y82.792 E.01295
G1 X93.023 Y78.179 E.11779
G1 X92.516 Y78.179 E.01295
G1 X92.516 Y82.5 E.11033
G1 X92.009 Y82.08 E.01681
G1 X92.009 Y78.179 E.09961
G1 X91.502 Y78.179 E.01295
G1 X91.502 Y80.538 E.06023
G1 X90.995 Y80.246 E.01494
G1 X90.995 Y78.179 E.05278
G1 X90.487 Y78.179 E.01297
G1 X90.487 Y79.955 E.04535
G1 X89.98 Y79.663 E.01494
G1 X89.98 Y78.179 E.03789
G1 X89.473 Y78.179 E.01295
G1 X89.473 Y79.371 E.03044
G1 X88.966 Y79.079 E.01494
G1 X88.966 Y78.179 E.02298
G1 X88.459 Y78.179 E.01295
G1 X88.459 Y78.787 E.01552
G1 X88.296 Y78.693 E.0048
G1 X87.952 Y78.794 E.00915
G1 X87.952 Y78.179 E.0157
G1 X87.445 Y78.179 E.01295
G1 X87.445 Y79.175 E.02543
G1 X87.065 Y79.233 E.00982
G1 X86.938 Y79.194 E.00339
G1 X86.938 Y78.179 E.02592
G1 X86.76 Y78.179 E.00455
G1 X86.791 Y79.149 E.02478
M204 S1000
;WIPE_START
G1 F8640
G1 X86.76 Y78.179 E-.22409
G1 X86.938 Y78.179 E-.0411
G1 X86.938 Y79.194 E-.23437
G1 X87.065 Y79.233 E-.03068
G1 X87.445 Y79.175 E-.08876
G1 X87.445 Y78.391 E-.181
;WIPE_END
G1 Z.6 F720
G1 X72.508 Y95.233 F10800
G1 Z.2 F720
G1 E.8 F2100
M204 S800
;TYPE:Support material
;WIDTH:0.42
G1 F1200
G1 X81.457 Y100.383 E.32374
G1 X81.899 Y100.806 E.01918
G1 X82.076 Y101.329 E.01731
G1 X81.993 Y101.872 E.01722
G1 X81.666 Y102.316 E.01729
G1 X81.118 Y102.587 E.01917
G1 X67.44 Y105.583 E.43903
G1 X66.854 Y105.574 E.01838
G1 X66.38 Y105.33 E.01672
G1 X66.068 Y104.903 E.01658
G1 X65.978 Y104.38 E.01664
G1 X66.147 Y103.817 E.01843
G1 X70.827 Y95.688 E.2941
G1 X71.294 Y95.218 E.02077
G1 X71.872 Y95.063 E.01876
G1 X72.454 Y95.218 E.01888
M204 S1000
G1 X81.515 Y102.201 F10800
M204 S800
G1 F1200
G1 X81.515 Y100.908 E.04054
G1 X81.096 Y100.567 E.01694
G1 X81.096 Y102.219 E.0518
G1 X80.677 Y102.336 E.01364
G1 X80.677 Y100.326 E.06302
G1 X80.258 Y100.084 E.01517
G1 X80.258 Y102.428 E.07349
G1 X79.839 Y102.52 E.01345
G1 X79.839 Y99.843 E.08394
G1 X79.42 Y99.602 E.01516
G1 X79.42 Y102.611 E.09435
G1 X79.001 Y102.703 E.01345
G1 X79.001 Y99.361 E.10479
G1 X78.582 Y99.12 E.01516
G1 X78.582 Y102.795 E.11523
G1 X78.163 Y102.887 E.01345
G1 X78.163 Y98.878 E.1257
G1 X77.744 Y98.637 E.01516
G1 X77.744 Y102.979 E.13614
G1 X77.325 Y103.07 E.01344
G1 X77.325 Y98.396 E.14655
G1 X76.906 Y98.155 E.01516
G1 X76.906 Y103.162 E.15699
G1 X76.487 Y103.254 E.01345
G1 X76.487 Y97.914 E.16743
G1 X76.068 Y97.672 E.01517
G1 X76.068 Y103.346 E.1779
G1 X75.649 Y103.437 E.01344
G1 X75.649 Y97.431 E.18831
G1 X75.23 Y97.19 E.01516
G1 X75.23 Y103.529 E.19875
G1 X74.811 Y103.621 E.01345
G1 X74.811 Y96.949 E.2092
G1 X74.392 Y96.708 E.01516
G1 X74.392 Y103.713 E.21964
G1 X73.973 Y103.804 E.01344
G1 X73.973 Y96.466 E.23008
G1 X73.554 Y96.225 E.01516
G1 X73.554 Y103.896 E.24052
G1 X73.135 Y103.988 E.01345
G1 X73.135 Y95.984 E.25096
G1 X72.716 Y95.743 E.01516
G1 X72.716 Y104.08 E.2614
G1 X72.297 Y104.172 E.01345
G1 X72.297 Y95.528 E.27103
G1 X71.878 Y95.416 E.0136
G1 X71.878 Y104.263 E.27739
G1 X71.459 Y104.355 E.01345
G1 X71.459 Y95.534 E.27658
G1 X71.04 Y95.999 E.01963
G1 X71.04 Y104.447 E.26488
G1 X70.621 Y104.539 E.01345
G1 X70.621 Y96.726 E.24497
G1 X70.202 Y97.454 E.02634
G1 X70.202 Y104.63 E.225
G1 X69.783 Y104.722 E.01345
G1 X69.783 Y98.182 E.20506
G1 X69.364 Y98.909 E.02631
G1 X69.364 Y104.814 E.18515
G1 X68.945 Y104.906 E.01345
G1 X68.945 Y99.637 E.16521
G1 X68.526 Y100.364 E.02631
G1 X68.526 Y104.998 E.1453
G1 X68.107 Y105.089 E.01344
G1 X68.107 Y101.092 E.12532
G1 X67.688 Y101.82 E.02634
G1 X67.688 Y105.181 E.10538
G1 X67.269 Y105.241 E.01327
G1 X67.269 Y102.547 E.08447
G1 X66.851 Y103.275 E.02632
G1 X66.851 Y105.191 E.06007
G1 X66.607 Y105.065 E.00861
G1 X66.432 Y104.825 E.00931
G1 X66.432 Y103.663 E.03643
M204 S1000
;WIPE_START
G1 F8640
G1 X66.432 Y104.825 E-.26831
G1 X66.607 Y105.065 E-.06858
G1 X66.851 Y105.191 E-.06341
G1 X66.851 Y103.46 E-.3997
;WIPE_END
G1 Z.6 F720
G1 X62.563 Y111.961 F10800
G1 Z.2 F720
G1 E.8 F2100
M204 S800
G1 F1200
G1 X63.01 Y112.246 E.01662
G1 X63.312 Y112.75 E.01842
G1 X67.588 Y126.085 E.43908
G1 X67.632 Y126.693 E.01911
G1 X67.411 Y127.2 E.01734
G1 X66.982 Y127.545 E.01726
G1 X66.442 Y127.654 E.01727
G1 X65.856 Y127.486 E.01911
G1 X56.897 Y122.328 E.32413
G1 X56.519 Y121.997 E.01575
G1 X56.319 Y121.591 E.01419
G1 X56.288 Y121.137 E.01427
G1 X56.449 Y120.66 E.01578
G1 X61.137 Y112.518 E.29458
G1 X61.537 Y112.092 E.01832
G1 X62.037 Y111.906 E.01673
G1 X62.507 Y111.955 E.01482
M204 S1000
G1 X67.269 Y127.096 F10800
M204 S800
G1 F1200
G1 X67.252 Y126.15 E.02967
G1 X66.851 Y124.897 E.04125
G1 X66.851 Y127.216 E.07271
G1 X66.432 Y127.298 E.01339
G1 X66.432 Y123.59 E.11626
G1 X66.013 Y122.284 E.043
G1 X66.013 Y127.177 E.15342
G1 X65.594 Y126.943 E.01505
G1 X65.594 Y120.977 E.18706
G1 X65.175 Y119.67 E.04303
G1 X65.175 Y126.701 E.22045
G1 X64.756 Y126.46 E.01516
G1 X64.756 Y118.364 E.25384
G1 X64.337 Y117.057 E.04303
G1 X64.337 Y126.219 E.28727
G1 X63.918 Y125.978 E.01516
G1 X63.918 Y115.75 E.32069
G1 X63.499 Y114.443 E.04303
G1 X63.499 Y125.737 E.35412
G1 X63.08 Y125.495 E.01517
G1 X63.08 Y113.137 E.38748
G1 X63.001 Y112.891 E.0081
G1 X62.661 Y112.426 E.01806
G1 X62.661 Y125.254 E.40221
G1 X62.242 Y125.013 E.01516
G1 X62.242 Y112.269 E.39958
G1 X61.823 Y112.348 E.01337
G1 X61.823 Y124.772 E.38955
G1 X61.404 Y124.531 E.01516
M73 Q0 S127
G1 X61.404 Y112.735 E.36986
G1 X60.985 Y113.462 E.02631
G1 X60.985 Y124.289 E.33947
G1 X60.566 Y124.048 E.01516
G1 X60.566 Y114.19 E.30909
G1 X60.147 Y114.918 E.02634
G1 X60.147 Y123.807 E.27871
G1 X59.728 Y123.566 E.01516
G1 X59.728 Y115.645 E.24836
G1 X59.309 Y116.373 E.02634
G1 X59.309 Y123.325 E.21798
G1 X58.89 Y123.083 E.01517
G1 X58.89 Y117.101 E.18756
G1 X58.471 Y117.828 E.02631
G1 X58.471 Y122.842 E.15721
G1 X58.052 Y122.601 E.01516
G1 X58.052 Y118.556 E.12683
G1 X57.633 Y119.283 E.02631
G1 X57.633 Y122.36 E.09648
G1 X57.214 Y122.119 E.01516
G1 X57.214 Y120.011 E.06609
G1 X56.795 Y120.739 E.02634
G1 X56.795 Y122.013 E.03995
M204 S1000
;WIPE_START
G1 F8640
G1 X56.795 Y120.739 E-.29417
G1 X57.214 Y120.011 E-.19395
G1 X57.214 Y121.361 E-.31188
;WIPE_END
G1 Z.6 F720
G1 X57.023 Y131.235 F10800
G1 Z.2 F720
G1 E.8 F2100
M204 S800
G1 F1200
G1 X65.994 Y136.399 E.32455
G1 X66.373 Y136.73 E.01578
G1 X66.574 Y137.135 E.01418
G1 X66.603 Y137.588 E.01423
G1 X66.444 Y138.064 E.01574
G1 X61.757 Y146.206 E.29456
G1 X61.353 Y146.635 E.01848
G1 X60.856 Y146.819 E.01662
G1 X60.329 Y146.763 E.01662
G1 X59.88 Y146.477 E.01669
G1 X59.578 Y145.977 E.01831
G1 X55.301 Y132.635 E.4393
G1 X55.247 Y132.104 E.01674
G1 X55.397 Y131.646 E.01511
G1 X55.692 Y131.305 E.01414
G1 X56.098 Y131.105 E.01419
G1 X56.552 Y131.076 E.01426
G1 X56.969 Y131.216 E.01379
M204 S1000
G1 X66.013 Y138.472 F10800
M204 S800
G1 F1200
G1 X66.013 Y136.866 E.05036
G1 X65.594 Y136.56 E.01627
G1 X65.594 Y138.86 E.07211
G1 X65.175 Y139.588 E.02634
G1 X65.175 Y136.318 E.10253
G1 X64.756 Y136.077 E.01516
G1 X64.756 Y140.316 E.13291
G1 X64.337 Y141.044 E.02634
G1 X64.337 Y135.836 E.16329
G1 X63.918 Y135.595 E.01516
G1 X63.918 Y141.772 E.19368
G1 X63.499 Y142.5 E.02634
G1 X63.499 Y135.353 E.22409
G1 X63.08 Y135.112 E.01516
G1 X63.08 Y143.228 E.25447
G1 X62.661 Y143.956 E.02634
G1 X62.661 Y134.871 E.28485
G1 X62.242 Y134.63 E.01516
G1 X62.242 Y144.684 E.31524
G1 X61.823 Y145.411 E.02631
G1 X61.823 Y134.389 E.34559
G1 X61.404 Y134.147 E.01517
G1 X61.404 Y146.086 E.37434
G1 X61.16 Y146.345 E.01116
G1 X60.985 Y146.409 E.00584
G1 X60.985 Y133.906 E.39202
G1 X60.566 Y133.665 E.01516
G1 X60.566 Y146.447 E.40077
G1 X60.147 Y146.244 E.0146
G1 X60.147 Y133.424 E.40196
G1 X59.728 Y133.183 E.01516
G1 X59.728 Y145.333 E.38095
G1 X59.309 Y144.026 E.04303
G1 X59.309 Y132.941 E.34756
G1 X58.89 Y132.7 E.01516
G1 X58.89 Y142.719 E.31414
G1 X58.471 Y141.411 E.04306
G1 X58.471 Y132.459 E.28068
G1 X58.052 Y132.218 E.01516
G1 X58.052 Y140.104 E.24726
G1 X57.633 Y138.797 E.04303
G1 X57.633 Y131.977 E.21384
G1 X57.214 Y131.735 E.01517
G1 X57.214 Y137.489 E.18041
G1 X56.795 Y136.182 E.04303
G1 X56.795 Y131.516 E.1463
G1 X56.376 Y131.427 E.01343
G1 X56.376 Y134.875 E.10811
G1 X55.957 Y133.568 E.04303
G1 X55.957 Y131.364 E.0691
M204 S1000
;WIPE_START
G1 F8640
G1 X55.957 Y133.568 E-.50891
G1 X56.342 Y134.768 E-.29109
;WIPE_END
G1 Z.6 F720
G1 X50.856 Y132.295 F10800
G1 Z.2 F720
G1 E.8 F2100
M204 S800
G1 F1200
G1 X51.303 Y132.581 E.01664
G1 X51.604 Y133.085 E.01841
G1 X54.482 Y142.053 E.29531
G1 X54.524 Y142.663 E.01917
G1 X54.304 Y143.168 E.01727
G1 X53.876 Y143.514 E.01726
G1 X53.335 Y143.624 E.01731
G1 X52.748 Y143.453 E.01917
G1 X46.743 Y139.996 E.21725
G1 X46.273 Y139.528 E.0208
G1 X46.119 Y138.95 E.01876
G1 X46.289 Y138.308 E.02082
G1 X49.429 Y132.854 E.19732
G1 X49.831 Y132.424 E.01846
G1 X50.33 Y132.24 E.01668
G1 X50.8 Y132.289 E.01482
M204 S1000
G1 X53.862 Y143.307 F10800
M204 S800
G1 F1200
G1 X53.862 Y141.233 E.06503
G1 X53.443 Y139.927 E.043
G1 X53.443 Y143.255 E.10435
G1 X53.024 Y143.18 E.01335
G1 X53.024 Y138.621 E.14294
G1 X52.605 Y137.315 E.043
G1 X52.605 Y142.98 E.17762
G1 X52.186 Y142.739 E.01516
G1 X52.186 Y136.009 E.21101
G1 X51.767 Y134.704 E.04297
G1 X51.767 Y142.497 E.24434
G1 X51.348 Y142.256 E.01516
G1 X51.348 Y133.398 E.27774
G1 X51.053 Y132.824 E.02024
G1 X50.929 Y132.745 E.00461
G1 X50.929 Y142.015 E.29065
G1 X50.51 Y141.774 E.01516
G1 X50.51 Y132.6 E.28764
G1 X50.091 Y132.69 E.01344
M73 P0 R126
G1 X50.091 Y141.532 E.27723
G1 X49.672 Y141.291 E.01516
G1 X49.672 Y133.111 E.25648
G1 X49.253 Y133.839 E.02634
G1 X49.253 Y141.05 E.2261
G1 X48.834 Y140.809 E.01516
G1 X48.834 Y134.567 E.19571
G1 X48.416 Y135.294 E.02629
G1 X48.416 Y140.567 E.16533
G1 X47.997 Y140.326 E.01516
G1 X47.997 Y136.022 E.13495
M73 P1 R126
G1 X47.578 Y136.75 E.02634
M73 Q1 S127
G1 X47.578 Y140.085 E.10457
G1 X47.159 Y139.844 E.01516
G1 X47.159 Y137.477 E.07422
G1 X46.74 Y138.205 E.02634
G1 X46.74 Y139.753 E.04854
M204 S1000
;WIPE_START
G1 F8640
G1 X46.74 Y138.205 E-.35744
G1 X47.159 Y137.477 E-.19395
G1 X47.159 Y138.554 E-.24861
;WIPE_END
G1 Z.6 F720
G1 X49.135 Y150.745 F10800
G1 Z.2 F720
G1 E.8 F2100
M204 S800
G1 F1200
G1 X49.779 Y151.386 E.02849
G1 X50.015 Y152.264 E.02851
G1 X49.778 Y153.15 E.02876
G1 X49.251 Y153.722 E.02439
G1 X48.522 Y154.007 E.02454
G1 X47.743 Y153.951 E.02449
G1 X47.071 Y153.564 E.02431
G1 X46.623 Y152.911 E.02483
G1 X46.505 Y152.135 E.02461
G1 X46.732 Y151.398 E.02418
G1 X47.383 Y150.748 E.02884
G1 X48.259 Y150.511 E.02845
G1 X49.08 Y150.73 E.02664
M204 S1000
G1 X49.253 Y153.468 F10800
M204 S800
G1 F1200
G1 X49.253 Y151.342 E.06666
G1 X48.96 Y151.049 E.01299
G1 X48.834 Y151.016 E.00408
G1 X48.834 Y153.52 E.07851
G1 X48.416 Y153.659 E.01381
G1 X48.416 Y150.904 E.08638
G1 X48.259 Y150.862 E.0051
G1 X47.997 Y150.933 E.00851
G1 X47.997 Y153.629 E.08453
G1 X47.578 Y153.464 E.01412
G1 X47.578 Y151.047 E.07578
G1 X47.159 Y151.452 E.01827
G1 X47.159 Y153.392 E.06083
M204 S1000
;WIPE_START
G1 F8640
G1 X47.159 Y151.452 E-.44795
G1 X47.578 Y151.047 E-.13456
G1 X47.578 Y151.989 E-.21749
;WIPE_END
G1 Z.6 F720
G1 X83.178 Y106.015 F10800
G1 Z.2 F720
G1 E.8 F2100
M204 S800
G1 F1200
G1 X83.648 Y106.258 E.01659
G1 X83.962 Y106.686 E.01664
G1 X84.052 Y107.208 E.01661
G1 X83.883 Y107.771 E.01843
G1 X73.463 Y125.872 E.65486
G1 X73.061 Y126.299 E.01839
G1 X72.562 Y126.485 E.0167
G1 X72.036 Y126.429 E.01659
G1 X71.589 Y126.143 E.01664
G1 X71.285 Y125.64 E.01843
G1 X66.554 Y110.883 E.48589
G1 X66.501 Y110.356 E.01661
G1 X66.65 Y109.899 E.01507
G1 X66.968 Y109.541 E.01501
G1 X67.452 Y109.323 E.01664
G1 X82.591 Y106.006 E.48593
G1 X83.121 Y106.014 E.01662
M204 S1000
G1 X73.554 Y113.421 F10800
M204 S800
G1 F1200
G1 X74.588 Y113.421 E.03242
G1 X74.588 Y114.456 E.03245
G1 X73.554 Y114.456 E.03242
G1 X73.554 Y113.478 E.03066
M204 S1000
G1 X83.61 Y107.906 F10800
M204 S800
G1 F1200
G1 X83.61 Y106.78 E.0353
G1 X83.421 Y106.523 E.01
G1 X83.191 Y106.404 E.00812
G1 X83.191 Y108.294 E.05926
G1 X82.772 Y109.022 E.02634
G1 X82.772 Y106.348 E.08384
G1 X82.353 Y106.405 E.01326
G1 X82.353 Y109.75 E.10488
G1 X81.934 Y110.478 E.02634
G1 X81.934 Y106.497 E.12482
G1 X81.515 Y106.589 E.01345
G1 X81.515 Y111.205 E.14473
G1 X81.096 Y111.933 E.02634
G1 X81.096 Y106.681 E.16467
G1 X80.677 Y106.773 E.01345
G1 X80.677 Y112.661 E.18461
G1 X80.258 Y113.389 E.02634
G1 X80.258 Y106.865 E.20456
G1 X79.839 Y106.956 E.01344
G1 X79.839 Y114.117 E.22453
G1 X79.42 Y114.844 E.02631
G1 X79.42 Y107.048 E.24444
G1 X79.001 Y107.14 E.01345
G1 X79.001 Y115.572 E.26438
G1 X78.582 Y116.3 E.02634
G1 X78.582 Y107.232 E.28432
G1 X78.163 Y107.324 E.01345
G1 X78.163 Y117.028 E.30426
G1 X77.744 Y117.756 E.02634
G1 X77.744 Y107.415 E.32423
G1 X77.325 Y107.507 E.01345
G1 X77.325 Y118.483 E.34414
G1 X76.906 Y119.211 E.02634
