; generated by PrusaSlicer 2.9.2 on 2025-05-07 at 13:09:26 UTC


;
;
; 

; external perimeters extrusion width = 0.45mm
; perimeters extrusion width = 0.45mm
; infill extrusion width = 0.45mm
; solid infill extrusion width = 0.45mm
; top infill extrusion width = 0.40mm
; support material extrusion width = 0.35mm
; first layer extrusion width = 0.42mm

M73 P0 R87
M73 Q0 S87
M201 X1000 Y1000 Z200 E5000 ; sets maximum accelerations, mm/sec^2
M203 X200 Y200 Z12 E120 ; sets maximum feedrates, mm / sec
M204 S1250 T1250 ; sets acceleration (S) and retract acceleration (R), mm/sec^2
M205 X8.00 Y8.00 Z0.40 E4.50 ; sets the jerk limits, mm/sec
M205 S0 T0 ; sets the minimum extruding and travel feed rate, mm/sec

; printing object robot_painter_02-a2_2PRA-1-solid1.STL id:0 copy 0
; stop printing object robot_painter_02-a2_2PRA-1-solid1.STL id:0 copy 0

;TYPE:Custom
M862.3 P "MK3S" ; printer model check
M862.1 P0.4 ; nozzle diameter check
M115 U3.14.1 ; tell printer latest fw version
G90 ; use absolute coordinates
M83 ; extruder relative mode
M104 S215 ; set extruder temp
M140 S60 ; set bed temp
M190 S60 ; wait for bed temp
M109 S215 ; wait for extruder temp
G28 W ; home all without mesh bed level
G80 X38.085 Y20.712 W79.8534 H107.538 ; mesh bed levelling

G1 Z0.2 F720
G1 Y-3 F1000 ; go outside print area
G92 E0
G1 X60 E9 F1000 ; intro line
G1 X100 E12.5 F1000 ; intro line

G92 E0
M221 S95

; Don't change E values below. Excessive value can damage the printer.
M907 E430 ; set extruder motor current
G21 ; set units to millimeters
G90 ; use absolute coordinates
M83 ; use relative distances for extrusion

M900 K0.05 ; Filament gcode LA 1.5
M900 K30 ; Filament gcode LA 1.0




M107
;LAYER_CHANGE
;Z:0.2
;HEIGHT:0.2
G1 E-.8 F2100
G1 Z.6 F720
G1 X38.915 Y33.077 F10800
G1 Z.2 F720
G1 E.8 F2100
M204 S800
;TYPE:Skirt/Brim
;WIDTH:0.42
G1 F1200
G1 X41.222 Y30.77 E.1023
G1 X41.683 Y30.417 E.01821
G1 X57.833 Y21.189 E.58321
G1 X58.919 Y20.901 E.03523
G1 X71.727 Y20.901 E.40159
G1 X72.975 Y21.291 E.041
G1 X73.617 Y21.986 E.02967
G1 X89.767 Y49.671 E1.00494
G1 X108.233 Y81.987 E1.167
G1 X117.519 Y100.551 E.65082
G1 X117.75 Y101.53 E.03154
G1 X117.75 Y116.645 E.47392
G1 X117.519 Y117.624 E.03154
G1 X115.212 Y122.238 E.16174
M73 P0 R86
G1 X114.802 Y122.807 E.02199
G1 X112.495 Y125.114 E.1023
G1 X111.926 Y125.524 E.02199
G1 X107.312 Y127.831 E.16174
G1 X106.333 Y128.062 E.03154
G1 X91.218 Y128.062 E.47392
G1 X90.239 Y127.831 E.03154
G1 X85.625 Y125.524 E.16174
G1 X85.056 Y125.114 E.02199
G1 X80.442 Y120.5 E.20459
G1 X80.094 Y120.046 E.01794
G1 X45.488 Y60.062 E2.17131
G1 X38.505 Y46.104 E.48936
G1 X38.274 Y45.126 E.03151
G1 X38.274 Y34.624 E.32928
G1 X38.892 Y33.132 E.05063
M204 S1000
;WIPE_START
G1 F8640
G1 X38.915 Y33.077 E-.01377
G1 X41.222 Y30.77 E-.75334
G1 X41.335 Y30.683 E-.03289
;WIPE_END
G1 Z.6 F720
; printing object robot_painter_02-a2_2PRA-1-solid1.STL id:0 copy 0
G1 X71.727 Y27.703 F10800
G1 Z.2 F720
G1 E.8 F2100
M204 S800
;TYPE:Support material
G1 F1200
G1 X74.034 Y27.703 E.07233
G1 X74.034 Y32.317 E.14467
G1 X76.341 Y32.317 E.07233
G1 X76.341 Y36.932 E.1447
G1 X78.648 Y36.932 E.07233
G1 X78.648 Y39.239 E.07233
G1 X80.955 Y39.239 E.07233
G1 X80.955 Y43.853 E.14467
G1 X83.262 Y43.853 E.07233
G1 X83.262 Y48.467 E.14467
G1 X85.569 Y48.467 E.07233
G1 X85.569 Y50.774 E.07233
G1 X87.876 Y50.774 E.07233
G1 X87.876 Y55.388 E.14467
G1 X90.183 Y55.388 E.07233
G1 X90.183 Y60.002 E.14467
G1 X92.491 Y60.002 E.07237
G1 X92.491 Y64.617 E.1447
G1 X94.798 Y64.617 E.07233
G1 X94.798 Y66.924 E.07233
G1 X97.105 Y66.924 E.07233
G1 X97.105 Y71.538 E.14467
G1 X99.412 Y71.538 E.07233
G1 X99.412 Y78.459 E.217
G1 X101.719 Y78.459 E.07233
G1 X101.719 Y80.766 E.07233
G1 X104.026 Y80.766 E.07233
G1 X104.026 Y83.073 E.07233
G1 X106.333 Y83.073 E.07233
G1 X106.333 Y87.687 E.14467
G1 X108.64 Y87.687 E.07233
G1 X108.64 Y92.301 E.14467
G1 X110.947 Y92.301 E.07233
G1 X110.947 Y96.916 E.1447
G1 X113.254 Y96.916 E.07233
G1 X113.254 Y101.53 E.14467
G1 X115.561 Y101.53 E.07233
G1 X115.561 Y116.645 E.47392
G1 X113.254 Y116.645 E.07233
G1 X113.254 Y121.259 E.14467
G1 X110.947 Y121.259 E.07233
G1 X110.947 Y123.566 E.07233
G1 X106.333 Y123.566 E.14467
G1 X106.333 Y125.873 E.07233
G1 X91.218 Y125.873 E.47392
G1 X91.218 Y123.566 E.07233
G1 X86.604 Y123.566 E.14467
G1 X86.604 Y121.259 E.07233
G1 X84.297 Y121.259 E.07233
G1 X84.297 Y118.952 E.07233
G1 X81.989 Y118.952 E.07237
G1 X81.989 Y114.338 E.14467
G1 X79.682 Y114.338 E.07233
G1 X79.682 Y109.724 E.14467
G1 X77.375 Y109.724 E.07233
G1 X77.375 Y105.11 E.14467
G1 X75.068 Y105.11 E.07233
G1 X75.068 Y102.803 E.07233
G1 X72.761 Y102.803 E.07233
G1 X72.761 Y93.574 E.28937
G1 X68.147 Y93.574 E.14467
G1 X68.147 Y88.96 E.14467
G1 X65.84 Y88.96 E.07233
G1 X65.84 Y86.653 E.07233
G1 X63.533 Y86.653 E.07233
G1 X63.533 Y82.039 E.14467
G1 X61.226 Y82.039 E.07233
G1 X61.226 Y77.425 E.14467
G1 X58.919 Y77.425 E.07233
G1 X58.919 Y72.81 E.1447
G1 X56.612 Y72.81 E.07233
G1 X56.612 Y70.503 E.07233
G1 X54.305 Y70.503 E.07233
G1 X54.305 Y65.889 E.14467
G1 X51.997 Y65.889 E.07237
M73 Q0 S86
G1 X51.997 Y61.275 E.14467
G1 X49.69 Y61.275 E.07233
G1 X49.69 Y58.968 E.07233
G1 X47.383 Y58.968 E.07233
G1 X47.383 Y54.354 E.14467
G1 X45.076 Y54.354 E.07233
G1 X45.076 Y49.74 E.14467
G1 X42.769 Y49.74 E.07233
G1 X42.769 Y45.126 E.14467
G1 X40.462 Y45.126 E.07233
G1 X40.462 Y34.624 E.32928
G1 X42.769 Y34.624 E.07233
G1 X42.769 Y32.317 E.07233
G1 X47.383 Y32.317 E.14467
G1 X47.383 Y30.01 E.07233
G1 X51.997 Y30.01 E.14467
G1 X51.997 Y27.703 E.07233
G1 X56.612 Y27.703 E.1447
G1 X56.612 Y25.396 E.07233
G1 X58.919 Y25.396 E.07233
G1 X58.919 Y23.089 E.07233
G1 X71.727 Y23.089 E.40159
G1 X71.727 Y27.647 E.14291
M204 S1000
;WIPE_START
G1 F8640
G1 X71.727 Y24.182 E-.8
;WIPE_END
G1 Z.6 F720
G1 X64.674 Y27.967 F10800
G1 Z.2 F720
G1 E.8 F2100
M204 S800
G1 F1200
G1 X65.689 Y27.383 E.03672
G1 X66.073 Y27.486 E.01247
G1 X95.07 Y77.853 E1.82224
G1 X95.009 Y78.363 E.0161
G1 X94.892 Y78.514 E.00599
G1 X93.292 Y79.454 E.05818
G1 X95.258 Y82.888 E.12407
G1 X95.349 Y82.913 E.00296
G1 X96.908 Y82.016 E.05639
G1 X97.418 Y82.077 E.0161
G1 X97.57 Y82.194 E.00601
G1 X109.527 Y102.967 E.75151
G1 X110.742 Y105.931 E.10044
G1 X111.15 Y109.061 E.09897
G1 X110.718 Y112.314 E.10289
G1 X109.506 Y115.228 E.09895
G1 X107.55 Y117.785 E.10094
G1 X104.945 Y119.779 E.10286
G1 X101.966 Y121 E.10095
G1 X98.774 Y121.408 E.1009
G1 X95.645 Y120.992 E.09897
G1 X92.615 Y119.733 E.10288
G1 X90.113 Y117.808 E.09898
G1 X88.16 Y115.269 E.10044
G1 X76.198 Y94.498 E.75154
G1 X76.26 Y93.987 E.01614
G1 X76.376 Y93.836 E.00597
G1 X77.976 Y92.897 E.05817
G1 X76.012 Y89.465 E.12398
G1 X75.919 Y89.438 E.00304
G1 X74.361 Y90.335 E.05637
G1 X74.171 Y90.36 E.00601
G1 X73.699 Y90.157 E.01611
G1 X44.702 Y39.79 E1.82224
G1 X44.805 Y39.406 E.01247
M73 P1 R86
M73 Q1 S86
G1 X64.625 Y27.995 E.71708
M204 S1000
;WIPE_START
G1 F8640
G1 X61.622 Y29.724 E-.8
;WIPE_END
G1 Z.6 F720
G1 X114.882 Y116.475 F10800
G1 Z.2 F720
G1 E.8 F2100
M204 S800
G1 F1200
G1 X114.882 Y101.869 E.45796
G1 X114.463 Y101.869 E.01314
G1 X114.463 Y116.306 E.45266
G1 X114.044 Y116.306 E.01314
G1 X114.044 Y101.869 E.45266
G1 X113.625 Y101.869 E.01314
G1 X113.625 Y116.306 E.45266
G1 X113.206 Y116.306 E.01314
G1 X113.206 Y101.869 E.45266
G1 X112.915 Y101.869 E.00912
G1 X112.915 Y97.255 E.14467
G1 X112.787 Y97.255 E.00401
G1 X112.787 Y120.92 E.742
G1 X112.368 Y120.92 E.01314
G1 X112.368 Y97.255 E.742
G1 X111.949 Y97.255 E.01314
G1 X111.949 Y120.92 E.742
G1 X111.53 Y120.92 E.01314
G1 X111.53 Y97.255 E.742
G1 X111.111 Y97.255 E.01314
G1 X111.111 Y106.137 E.27849
G1 X111.048 Y105.762 E.01192
G1 X110.692 Y104.899 E.02927
G1 X110.692 Y97.255 E.23967
G1 X110.608 Y97.255 E.00263
G1 X110.608 Y92.641 E.14467
G1 X110.273 Y92.641 E.0105
G1 X110.273 Y103.884 E.35252
G1 X109.854 Y102.869 E.03443
G1 X109.854 Y92.641 E.32069
G1 X109.435 Y92.641 E.01314
G1 X109.435 Y102.123 E.2973
G1 X109.016 Y101.395 E.02634
G1 X109.016 Y92.641 E.27448
G1 X108.597 Y92.641 E.01314
G1 X108.597 Y100.667 E.25165
G1 X108.178 Y99.94 E.02631
G1 X108.178 Y88.027 E.37352
G1 X107.759 Y88.027 E.01314
G1 X107.759 Y99.212 E.3507
G1 X107.34 Y98.484 E.02634
G1 X107.34 Y88.027 E.32787
G1 X106.921 Y88.027 E.01314
G1 X106.921 Y97.756 E.30505
G1 X106.502 Y97.029 E.02631
G1 X106.502 Y88.027 E.28225
G1 X106.083 Y88.027 E.01314
G1 X106.083 Y96.301 E.25943
G1 X105.664 Y95.573 E.02634
G1 X105.664 Y83.413 E.38127
G1 X105.245 Y83.413 E.01314
G1 X105.245 Y94.846 E.35847
G1 X104.826 Y94.118 E.02634
G1 X104.826 Y83.413 E.33565
G1 X104.407 Y83.413 E.01314
G1 X104.407 Y93.39 E.31282
G1 X103.988 Y92.662 E.02634
G1 X103.988 Y83.413 E.29
G1 X103.687 Y83.413 E.00944
G1 X103.687 Y81.105 E.07237
G1 X103.569 Y81.105 E.0037
G1 X103.569 Y91.935 E.33957
G1 X103.15 Y91.207 E.02634
G1 X103.15 Y81.105 E.31674
G1 X102.731 Y81.105 E.01314
M73 P1 R85
G1 X102.731 Y90.479 E.29392
G1 X102.312 Y89.751 E.02634
G1 X102.312 Y81.105 E.27109
G1 X101.893 Y81.105 E.01314
G1 X101.893 Y89.024 E.24829
G1 X101.474 Y88.296 E.02634
G1 X101.474 Y81.105 E.22547
G1 X101.379 Y81.105 E.00298
G1 X101.379 Y78.798 E.07233
G1 X101.055 Y78.798 E.01016
G1 X101.055 Y87.568 E.27498
G1 X100.636 Y86.841 E.02631
G1 X100.636 Y78.798 E.25218
G1 X100.217 Y78.798 E.01314
G1 X100.217 Y86.113 E.22936
G1 X99.798 Y85.385 E.02634
G1 X99.798 Y78.798 E.20653
G1 X99.38 Y78.798 E.01311
G1 X99.38 Y84.657 E.1837
G1 X98.961 Y83.93 E.02631
G1 X98.961 Y71.877 E.37791
G1 X98.542 Y71.877 E.01314
G1 X98.542 Y83.202 E.35509
G1 X98.123 Y82.474 E.02634
G1 X98.123 Y71.877 E.33226
G1 X97.704 Y71.877 E.01314
G1 X97.704 Y81.869 E.31329
G1 X97.285 Y81.69 E.01429
G1 X97.285 Y71.877 E.30768
G1 X96.866 Y71.877 E.01314
G1 X96.866 Y81.679 E.30733
G1 X96.447 Y81.889 E.0147
G1 X96.447 Y67.263 E.45859
G1 X96.028 Y67.263 E.01314
G1 X96.028 Y82.131 E.46618
G1 X95.609 Y82.372 E.01516
G1 X95.609 Y67.263 E.47373
G1 X95.19 Y67.263 E.01314
G1 X95.19 Y77.38 E.31721
G1 X94.771 Y76.652 E.02634
G1 X94.771 Y67.263 E.29439
G1 X94.458 Y67.263 E.00981
G1 X94.458 Y64.956 E.07233
G1 X94.352 Y64.956 E.00332
G1 X94.352 Y75.925 E.34393
G1 X93.933 Y75.197 E.02634
G1 X93.933 Y64.956 E.3211
G1 X93.514 Y64.956 E.01314
G1 X93.514 Y74.469 E.29827
G1 X93.095 Y73.741 E.02634
G1 X93.095 Y64.956 E.27545
G1 X92.676 Y64.956 E.01314
G1 X92.676 Y73.014 E.25265
G1 X92.257 Y72.286 E.02634
G1 X92.257 Y64.956 E.22983
G1 X92.151 Y64.956 E.00332
G1 X92.151 Y60.342 E.14467
G1 X91.838 Y60.342 E.00981
G1 X91.838 Y71.558 E.35167
G1 X91.419 Y70.83 E.02634
G1 X91.419 Y60.342 E.32884
G1 X91 Y60.342 E.01314
G1 X91 Y70.103 E.30605
G1 X90.581 Y69.375 E.02634
G1 X90.581 Y60.342 E.28322
G1 X90.162 Y60.342 E.01314
G1 X90.162 Y68.647 E.2604
G1 X89.743 Y67.92 E.02631
G1 X89.743 Y55.728 E.38227
G1 X89.324 Y55.728 E.01314
G1 X89.324 Y67.192 E.35945
G1 X88.905 Y66.464 E.02634
G1 X88.905 Y55.728 E.33662
G1 X88.486 Y55.728 E.01314
G1 X88.486 Y65.736 E.31379
G1 X88.067 Y65.009 E.02631
G1 X88.067 Y55.728 E.291
G1 X87.648 Y55.728 E.01314
G1 X87.648 Y64.281 E.26817
G1 X87.229 Y63.553 E.02634
G1 X87.229 Y51.113 E.39005
G1 X86.81 Y51.113 E.01314
M73 Q1 S85
G1 X86.81 Y62.825 E.36722
G1 X86.391 Y62.098 E.02631
G1 X86.391 Y51.113 E.34443
G1 X85.972 Y51.113 E.01314
G1 X85.972 Y61.37 E.3216
G1 X85.553 Y60.642 E.02634
G1 X85.553 Y51.113 E.29878
G1 X85.23 Y51.113 E.01013
G1 X85.23 Y48.806 E.07233
G1 X85.134 Y48.806 E.00301
G1 X85.134 Y59.914 E.34828
G1 X84.715 Y59.187 E.02631
G1 X84.715 Y48.806 E.32549
G1 X84.296 Y48.806 E.01314
G1 X84.296 Y58.459 E.30266
G1 X83.877 Y57.731 E.02634
G1 X83.877 Y48.806 E.27984
G1 X83.458 Y48.806 E.01314
G1 X83.458 Y57.004 E.25704
G1 X83.039 Y56.276 E.02634
G1 X83.039 Y48.806 E.23422
G1 X82.923 Y48.806 E.00364
G1 X82.923 Y44.192 E.14467
G1 X82.62 Y44.192 E.0095
G1 X82.62 Y55.548 E.35606
G1 X82.201 Y54.82 E.02634
G1 X82.201 Y44.192 E.33323
G1 X81.782 Y44.192 E.01314
G1 X81.782 Y54.093 E.31044
G1 X81.364 Y53.365 E.02632
G1 X81.364 Y44.192 E.28761
G1 X80.945 Y44.192 E.01314
G1 X80.945 Y52.637 E.26479
G1 X80.526 Y51.909 E.02634
G1 X80.526 Y39.578 E.38663
G1 X80.107 Y39.578 E.01314
M73 P2 R85
M73 Q2 S85
G1 X80.107 Y51.182 E.36384
G1 X79.688 Y50.454 E.02634
G1 X79.688 Y39.578 E.34101
G1 X79.269 Y39.578 E.01314
G1 X79.269 Y49.726 E.31818
G1 X78.85 Y48.999 E.02631
G1 X78.85 Y39.578 E.29539
G1 X78.431 Y39.578 E.01314
G1 X78.431 Y48.271 E.27256
G1 X78.012 Y47.543 E.02634
G1 X78.012 Y37.271 E.32207
G1 X77.593 Y37.271 E.01314
G1 X77.593 Y46.815 E.29925
G1 X77.174 Y46.088 E.02631
G1 X77.174 Y37.271 E.27645
G1 X76.755 Y37.271 E.01314
G1 X76.755 Y45.36 E.25362
G1 X76.336 Y44.632 E.02634
G1 X76.336 Y37.271 E.2308
G1 X76.002 Y37.271 E.01047
G1 X76.002 Y32.657 E.14467
G1 X75.917 Y32.657 E.00267
G1 X75.917 Y43.904 E.35264
G1 X75.498 Y43.177 E.02631
G1 X75.498 Y32.657 E.32985
G1 X75.079 Y32.657 E.01314
G1 X75.079 Y42.449 E.30702
G1 X74.66 Y41.721 E.02634
G1 X74.66 Y32.657 E.2842
G1 X74.241 Y32.657 E.01314
G1 X74.241 Y40.993 E.26137
G1 X73.822 Y40.266 E.02631
G1 X73.822 Y32.657 E.23857
G1 X73.695 Y32.657 E.00398
G1 X73.695 Y28.043 E.14467
G1 X73.403 Y28.043 E.00916
G1 X73.403 Y39.538 E.36042
G1 X72.984 Y38.81 E.02634
G1 X72.984 Y28.043 E.33759
G1 X72.565 Y28.043 E.01314
G1 X72.565 Y38.083 E.3148
G1 X72.146 Y37.355 E.02634
G1 X72.146 Y28.043 E.29197
G1 X71.727 Y28.043 E.01314
G1 X71.727 Y36.627 E.26915
G1 X71.308 Y35.899 E.02634
G1 X71.308 Y23.428 E.39102
G1 X70.889 Y23.428 E.01314
G1 X70.889 Y35.172 E.36822
G1 X70.47 Y34.444 E.02634
G1 X70.47 Y23.428 E.3454
G1 X70.051 Y23.428 E.01314
G1 X70.051 Y33.716 E.32257
G1 X69.632 Y32.988 E.02634
G1 X69.632 Y23.428 E.29975
G1 X69.213 Y23.428 E.01314
G1 X69.213 Y32.261 E.27695
G1 X68.794 Y31.533 E.02634
G1 X68.794 Y23.428 E.25413
G1 X68.375 Y23.428 E.01314
G1 X68.375 Y30.805 E.2313
G1 X67.956 Y30.078 E.02631
G1 X67.956 Y23.428 E.20851
G1 X67.537 Y23.428 E.01314
G1 X67.537 Y29.35 E.18568
G1 X67.118 Y28.622 E.02634
G1 X67.118 Y23.428 E.16285
G1 X66.699 Y23.428 E.01314
G1 X66.699 Y27.894 E.14003
G1 X66.28 Y27.191 E.02566
G1 X66.28 Y23.428 E.11799
G1 X65.861 Y23.428 E.01314
G1 X65.861 Y27.078 E.11444
G1 X65.641 Y27.019 E.00714
G1 X65.442 Y27.133 E.00719
G1 X65.442 Y23.428 E.11617
G1 X65.023 Y23.428 E.01314
G1 X65.023 Y27.374 E.12372
G1 X64.604 Y27.616 E.01517
G1 X64.604 Y23.428 E.13131
G1 X64.185 Y23.428 E.01314
G1 X64.185 Y27.857 E.13887
G1 X63.766 Y28.098 E.01516
G1 X63.766 Y23.428 E.14642
G1 X63.348 Y23.428 E.01311
G1 X63.348 Y28.339 E.15398
G1 X62.929 Y28.581 E.01517
G1 X62.929 Y23.428 E.16157
G1 X62.51 Y23.428 E.01314
G1 X62.51 Y28.822 E.16913
G1 X62.091 Y29.063 E.01516
G1 X62.091 Y23.428 E.17668
G1 X61.672 Y23.428 E.01314
G1 X61.672 Y29.304 E.18424
G1 X61.253 Y29.545 E.01516
G1 X61.253 Y23.428 E.19179
G1 X60.834 Y23.428 E.01314
G1 X60.834 Y29.787 E.19938
G1 X60.415 Y30.028 E.01516
G1 X60.415 Y23.428 E.20694
G1 X59.996 Y23.428 E.01314
G1 X59.996 Y30.269 E.21449
G1 X59.577 Y30.51 E.01516
G1 X59.577 Y23.428 E.22205
G1 X59.258 Y23.428 E.01
G1 X59.258 Y25.736 E.07237
G1 X59.158 Y25.736 E.00314
G1 X59.158 Y30.751 E.15724
G1 X58.739 Y30.993 E.01517
G1 X58.739 Y25.736 E.16483
G1 X58.32 Y25.736 E.01314
G1 X58.32 Y31.234 E.17239
G1 X57.901 Y31.475 E.01516
G1 X57.901 Y25.736 E.17994
G1 X57.482 Y25.736 E.01314
G1 X57.482 Y31.716 E.1875
G1 X57.063 Y31.958 E.01517
G1 X57.063 Y25.736 E.19509
G1 X56.951 Y25.736 E.00351
G1 X56.951 Y28.043 E.07233
G1 X56.644 Y28.043 E.00963
G1 X56.644 Y32.199 E.13031
G1 X56.225 Y32.44 E.01516
G1 X56.225 Y28.043 E.13786
G1 X55.806 Y28.043 E.01314
G1 X55.806 Y32.681 E.14542
G1 X55.387 Y32.922 E.01516
G1 X55.387 Y28.043 E.15298
G1 X54.968 Y28.043 E.01314
G1 X54.968 Y33.164 E.16057
G1 X54.549 Y33.405 E.01516
G1 X54.549 Y28.043 E.16812
G1 X54.13 Y28.043 E.01314
G1 X54.13 Y33.646 E.17568
G1 X53.711 Y33.887 E.01516
G1 X53.711 Y28.043 E.18323
G1 X53.292 Y28.043 E.01314
G1 X53.292 Y34.129 E.19082
G1 X52.873 Y34.37 E.01516
G1 X52.873 Y28.043 E.19838
G1 X52.454 Y28.043 E.01314
G1 X52.454 Y34.611 E.20594
G1 X52.035 Y34.852 E.01516
G1 X52.035 Y30.35 E.14116
G1 X51.616 Y30.35 E.01314
G1 X51.616 Y35.093 E.14871
G1 X51.197 Y35.335 E.01517
G1 X51.197 Y30.35 E.1563
G1 X50.778 Y30.35 E.01314
