; generated by PrusaSlicer 2.9.2 on 2025-05-07 at 13:11:50 UTC


;
;
; 

; external perimeters extrusion width = 0.45mm
; perimeters extrusion width = 0.45mm
; infill extrusion width = 0.45mm
; solid infill extrusion width = 0.45mm
; top infill extrusion width = 0.40mm
; support material extrusion width = 0.35mm
; first layer extrusion width = 0.42mm

M73 P0 R90
M73 Q0 S91
M201 X1000 Y1000 Z200 E5000 ; sets maximum accelerations, mm/sec^2
M203 X200 Y200 Z12 E120 ; sets maximum feedrates, mm / sec
M204 S1250 T1250 ; sets acceleration (S) and retract acceleration (R), mm/sec^2
M205 X8.00 Y8.00 Z0.40 E4.50 ; sets the jerk limits, mm/sec
M205 S0 T0 ; sets the minimum extruding and travel feed rate, mm/sec

; printing object robot_painter_02-arm motor clamp-1-solid1.STL id:0 copy 0
; stop printing object robot_painter_02-arm motor clamp-1-solid1.STL id:0 copy 0

;TYPE:Custom
M862.3 P "MK3S" ; printer model check
M862.1 P0.4 ; nozzle diameter check
M115 U3.14.1 ; tell printer latest fw version
G90 ; use absolute coordinates
M83 ; extruder relative mode
M104 S215 ; set extruder temp
M140 S60 ; set bed temp
M190 S60 ; wait for bed temp
M109 S215 ; wait for extruder temp
G28 W ; home all without mesh bed level
G80 X64.0562 Y92.3641 W52.1685 H66.011 ; mesh bed levelling

G1 Z0.2 F720
G1 Y-3 F1000 ; go outside print area
G92 E0
G1 X60 E9 F1000 ; intro line
G1 X100 E12.5 F1000 ; intro line

G92 E0
M221 S95

; Don't change E values below. Excessive value can damage the printer.
M907 E430 ; set extruder motor current
G21 ; set units to millimeters
G90 ; use absolute coordinates
M83 ; use relative distances for extrusion

M900 K0.05 ; Filament gcode LA 1.5
M900 K30 ; Filament gcode LA 1.0




M107
;LAYER_CHANGE
;Z:0.2
;HEIGHT:0.2
G1 E-.8 F2100
G1 Z.6 F720
G1 X65.669 Y92.691 F10800
G1 Z.2 F720
G1 E.8 F2100
M204 S800
;TYPE:Skirt/Brim
;WIDTH:0.42
G1 F1200
G1 X66.433 Y92.553 E.02434
G1 X70.57 Y92.553 E.12971
G1 X100.742 Y92.631 E.94603
G1 X102.176 Y93.172 E.04806
G1 X115.288 Y104.629 E.54595
G1 X116.036 Y106.277 E.05675
G1 X116.036 Y123.699 E.54625
G1 X115.875 Y124.524 E.02636
G1 X102.764 Y156.744 E1.09067
G1 X101.931 Y157.753 E.04102
G1 X100.742 Y158.108 E.03891
G1 X66.433 Y158.187 E1.07574
G1 X65.185 Y157.796 E.04101
G1 X64.383 Y156.763 E.041
G1 X64.245 Y155.998 E.02437
G1 X64.245 Y94.741 E1.92067
G1 X64.636 Y93.493 E.04101
G1 X65.621 Y92.727 E.03912
M204 S1000
;WIPE_START
G1 F8640
G1 X65.669 Y92.691 E-.01385
G1 X66.433 Y92.553 E-.17926
G1 X69.061 Y92.553 E-.60689
;WIPE_END
G1 Z.6 F720
; printing object robot_painter_02-arm motor clamp-1-solid1.STL id:0 copy 0
G1 X70.564 Y155.998 F10800
G1 Z.2 F720
G1 E.8 F2100
M204 S800
;TYPE:Support material
G1 F1200
G1 X66.433 Y155.998 E.12952
G1 X66.433 Y145.497 E.32925
G1 X70.564 Y145.497 E.12952
G1 X70.564 Y155.941 E.32746
M204 S1000
G1 X70.029 Y155.828 F10800
M204 S800
G1 F1200
G1 X70.029 Y145.836 E.31329
G1 X69.611 Y145.836 E.01311
G1 X69.611 Y155.659 E.30799
G1 X69.192 Y155.659 E.01314
G1 X69.192 Y145.836 E.30799
G1 X68.773 Y145.836 E.01314
G1 X68.773 Y155.659 E.30799
G1 X68.354 Y155.659 E.01314
G1 X68.354 Y145.836 E.30799
G1 X67.935 Y145.836 E.01314
G1 X67.935 Y155.659 E.30799
G1 X67.516 Y155.659 E.01314
G1 X67.516 Y145.836 E.30799
G1 X67.097 Y145.836 E.01314
G1 X67.097 Y155.828 E.31329
M204 S1000
;WIPE_START
G1 F8640
G1 X67.097 Y152.363 E-.8
;WIPE_END
G1 Z.6 F720
G1 X70.564 Y107.549 F10800
G1 Z.2 F720
G1 E.8 F2100
M204 S800
G1 F1200
G1 X66.433 Y107.549 E.12952
G1 X66.433 Y94.741 E.40159
G1 X70.564 Y94.741 E.12952
G1 X70.564 Y107.493 E.39983
M204 S1000
G1 X70.03 Y107.38 F10800
M204 S800
G1 F1200
G1 X70.03 Y95.081 E.38563
G1 X69.611 Y95.081 E.01314
G1 X69.611 Y107.21 E.3803
G1 X69.192 Y107.21 E.01314
G1 X69.192 Y95.081 E.3803
G1 X68.773 Y95.081 E.01314
G1 X68.773 Y107.21 E.3803
G1 X68.354 Y107.21 E.01314
G1 X68.354 Y95.081 E.3803
G1 X67.935 Y95.081 E.01314
G1 X67.935 Y107.21 E.3803
G1 X67.516 Y107.21 E.01314
G1 X67.516 Y95.081 E.3803
G1 X67.097 Y95.081 E.01314
G1 X67.097 Y107.38 E.38563
M204 S1000
;WIPE_START
G1 F8640
G1 X67.097 Y103.915 E-.8
;WIPE_END
G1 Z.6 F720
G1 X113.848 Y123.699 F10800
G1 Z.2 F720
G1 E.8 F2100
M204 S800
G1 F1200
G1 X104.772 Y123.699 E.28457
G1 X105.216 Y122.892 E.02888
G1 X105.216 Y107.746 E.47489
G1 X104.378 Y106.277 E.05303
G1 X113.848 Y106.277 E.29693
G1 X113.848 Y123.642 E.54447
M73 Q0 S90
M204 S1000
G1 X113.184 Y123.529 F10800
M204 S800
G1 F1200
G1 X113.184 Y106.616 E.5303
G1 X112.765 Y106.616 E.01314
G1 X112.765 Y123.36 E.525
G1 X112.346 Y123.36 E.01314
G1 X112.346 Y106.616 E.525
G1 X111.927 Y106.616 E.01314
G1 X111.927 Y123.36 E.525
G1 X111.508 Y123.36 E.01314
M73 P0 R89
G1 X111.508 Y106.616 E.525
G1 X111.089 Y106.616 E.01314
G1 X111.089 Y123.36 E.525
G1 X110.67 Y123.36 E.01314
G1 X110.67 Y106.616 E.525
G1 X110.251 Y106.616 E.01314
G1 X110.251 Y123.36 E.525
G1 X109.832 Y123.36 E.01314
G1 X109.832 Y106.616 E.525
G1 X109.413 Y106.616 E.01314
G1 X109.413 Y123.36 E.525
G1 X108.994 Y123.36 E.01314
G1 X108.994 Y106.616 E.525
G1 X108.575 Y106.616 E.01314
G1 X108.575 Y123.36 E.525
G1 X108.156 Y123.36 E.01314
G1 X108.156 Y106.616 E.525
G1 X107.737 Y106.616 E.01314
G1 X107.737 Y123.36 E.525
G1 X107.318 Y123.36 E.01314
G1 X107.318 Y106.616 E.525
G1 X106.899 Y106.616 E.01314
G1 X106.899 Y123.36 E.525
G1 X106.481 Y123.36 E.01311
G1 X106.481 Y106.616 E.525
G1 X106.062 Y106.616 E.01314
G1 X106.062 Y123.36 E.525
G1 X105.643 Y123.36 E.01314
G1 X105.643 Y106.616 E.525
G1 X105.224 Y106.616 E.01314
G1 X105.224 Y107.368 E.02358
M204 S1000
;WIPE_START
G1 F8640
G1 X105.224 Y106.616 E-.17364
G1 X105.643 Y106.616 E-.09675
G1 X105.643 Y108.91 E-.52961
;WIPE_END
G1 Z.6 F720
G1 X93.99 Y107.218 F10800
G1 Z.2 F720
G1 E.8 F2100
M204 S800
;TYPE:Perimeter
;WIDTH:0.419999
G1 F1200
G1 X94.122 Y107.41 E.00731
G1 X94.154 Y107.598 E.00598
G1 X94.154 Y144.141 E1.14578
G1 X94.094 Y144.394 E.00815
M73 P1 R89
M73 Q1 S90
G1 X93.948 Y144.578 E.00736
G1 X93.686 Y144.698 E.00904
G1 X93.589 Y144.707 E.00305
G1 X75.723 Y144.707 E.56017
G1 X75.506 Y144.663 E.00694
G1 X75.271 Y144.48 E.00934
G1 X75.166 Y144.239 E.00824
G1 X75.158 Y144.141 E.00308
G1 X75.158 Y107.598 E1.14578
G1 X75.188 Y107.415 E.00581
G1 X75.384 Y107.146 E.01044
G1 X75.621 Y107.042 E.00811
G1 X75.723 Y107.033 E.00321
G1 X93.707 Y107.045 E.56387
G1 X93.956 Y107.168 E.00871
M204 S1000
G1 X93.702 Y107.468 F10800
M204 S800
;TYPE:External perimeter
G1 F1200
G1 X93.752 Y107.505 E.00195
G1 X93.777 Y107.598 E.00302
G1 X93.777 Y144.141 E1.14578
G1 X93.708 Y144.287 E.00506
G1 X93.589 Y144.33 E.00397
G1 X75.723 Y144.33 E.56017
G1 X75.573 Y144.254 E.00527
G1 X75.535 Y144.141 E.00374
G1 X75.535 Y107.598 E1.14578
G1 X75.61 Y107.447 E.00529
G1 X75.723 Y107.41 E.00373
G1 X93.628 Y107.414 E.5614
G1 X93.654 Y107.433 E.00101
M204 S1000
;WIPE_START
G1 F8640
G1 X93.702 Y107.468 E-.01372
G1 X93.752 Y107.505 E-.01436
G1 X93.777 Y107.598 E-.02224
G1 X93.777 Y110.845 E-.74968
;WIPE_END
G1 Z.6 F720
G1 X99.965 Y95.607 F10800
G1 Z.2 F720
G1 E.8 F2100
M204 S800
;TYPE:Perimeter
G1 F1200
G1 X99.981 Y95.607 E.0005
G1 X100.224 Y98.69 E.09696
G1 X101.024 Y102.081 E.10924
G1 X102.332 Y105.312 E.10929
G1 X103.949 Y108.037 E.09935
G1 X103.949 Y109.381 E.04214
G1 X103.949 Y122.604 E.4146
G1 X102.296 Y125.399 E.10181
G1 X101.025 Y128.553 E.10662
G1 X100.208 Y132.055 E.11275
G1 X99.949 Y135.46 E.10707
G1 X99.949 Y155.133 E.61683
G1 X71.832 Y155.133 E.88159
G1 X71.832 Y95.607 E1.86639
G1 X99.905 Y95.607 E.88021
M204 S1000
G1 X100.328 Y95.23 F10800
M204 S800
;TYPE:External perimeter
G1 F1200
G1 X100.33 Y95.23 E.00006
G1 X100.591 Y98.604 E.10611
G1 X101.374 Y101.94 E.10744
G1 X102.657 Y105.12 E.10752
G1 X104.326 Y107.933 E.10256
G1 X104.326 Y109.381 E.0454
G1 X104.326 Y122.707 E.41783
G1 X102.646 Y125.54 E.10327
G1 X101.375 Y128.694 E.10662
G1 X100.584 Y132.084 E.10915
G1 X100.326 Y135.46 E.10616
G1 X100.326 Y155.51 E.62865
G1 X71.454 Y155.51 E.90526
G1 X71.454 Y95.23 E1.89003
G1 X100.268 Y95.23 E.90344
M204 S1000
;WIPE_START
G1 F8640
G1 X100.328 Y95.23 E-.01385
G1 X100.33 Y95.23 E-.00046
G1 X100.591 Y98.604 E-.78139
G1 X100.595 Y98.622 E-.0043
;WIPE_END
G1 Z.6 F720
G1 X99.058 Y95.776 F10800
G1 Z.2 F720
G1 E.8 F2100
M204 S800
;TYPE:Solid infill
;WIDTH:0.420691
G1 F1200
G1 X99.705 Y96.423 E.02874
G1 X99.751 Y97.004 E.01831
G1 X98.694 Y95.946 E.04698
G1 X98.159 Y95.946 E.01681
G1 X99.798 Y97.584 E.07279
G1 X99.844 Y98.165 E.01831
G1 X97.625 Y95.946 E.09857
G1 X97.091 Y95.946 E.01677
G1 X99.89 Y98.745 E.12434
G1 X100.052 Y99.441 E.02245
G1 X96.557 Y95.946 E.15526
G1 X96.022 Y95.946 E.01681
G1 X100.215 Y100.139 E.18627
G1 X100.379 Y100.837 E.02252
G1 X95.488 Y95.946 E.21727
G1 X94.954 Y95.946 E.01677
G1 X100.543 Y101.535 E.24828
G1 X100.685 Y102.141 E.01955
G1 X100.732 Y102.258 E.00396
G1 X94.42 Y95.946 E.2804
G1 X93.885 Y95.946 E.01681
G1 X101.092 Y103.153 E.32016
G1 X101.452 Y104.047 E.03027
G1 X93.351 Y95.946 E.35987
G1 X92.817 Y95.946 E.01677
G1 X101.813 Y104.942 E.39963
G1 X102.007 Y105.426 E.01638
G1 X102.364 Y106.027 E.02196
G1 X92.283 Y95.946 E.44783
G1 X91.748 Y95.946 E.01681
G1 X103.141 Y107.339 E.50611
G1 X103.61 Y108.13 E.02889
G1 X103.61 Y108.342 E.00666
G1 X91.214 Y95.946 E.55067
G1 X90.68 Y95.946 E.01677
G1 X103.61 Y108.876 E.57439
G1 X103.61 Y109.41 E.01677
G1 X90.146 Y95.946 E.59811
G1 X89.611 Y95.946 E.01681
G1 X103.61 Y109.945 E.62188
G1 X103.61 Y110.479 E.01677
G1 X89.077 Y95.946 E.6456
G1 X88.543 Y95.946 E.01677
G1 X103.61 Y111.013 E.66932
G1 X103.61 Y111.547 E.01677
M73 Q1 S89
G1 X88.009 Y95.946 E.69304
G1 X87.474 Y95.946 E.01681
G1 X103.61 Y112.082 E.71681
G1 X103.61 Y112.616 E.01677
G1 X86.94 Y95.946 E.74053
G1 X86.406 Y95.946 E.01677
M73 P1 R88
G1 X103.61 Y113.15 E.76425
G1 X103.61 Y113.684 E.01677
G1 X85.872 Y95.946 E.78797
G1 X85.337 Y95.946 E.01681
G1 X103.61 Y114.219 E.81174
G1 X103.61 Y114.753 E.01677
G1 X84.803 Y95.946 E.83546
G1 X84.269 Y95.946 E.01677
G1 X103.61 Y115.287 E.85918
G1 X103.61 Y115.821 E.01677
G1 X83.735 Y95.946 E.88291
G1 X83.2 Y95.946 E.01681
G1 X103.61 Y116.356 E.90667
G1 X103.61 Y116.89 E.01677
G1 X94.494 Y107.773 E.40498
G1 X94.494 Y108.308 E.01681
M73 P2 R88
G1 X103.61 Y117.424 E.40496
G1 X103.61 Y117.958 E.01677
M73 Q2 S89
G1 X94.494 Y108.842 E.40496
G1 X94.494 Y109.376 E.01677
G1 X103.61 Y118.493 E.40498
G1 X103.61 Y119.027 E.01677
G1 X94.494 Y109.91 E.40498
G1 X94.494 Y110.445 E.01681
G1 X103.61 Y119.561 E.40496
G1 X103.61 Y120.095 E.01677
G1 X94.494 Y110.979 E.40496
G1 X94.494 Y111.513 E.01677
G1 X103.61 Y120.629 E.40496
G1 X103.61 Y121.164 E.01681
G1 X94.494 Y112.047 E.40498
G1 X94.494 Y112.582 E.01681
G1 X103.61 Y121.698 E.40496
G1 X103.61 Y122.232 E.01677
G1 X94.494 Y113.116 E.40496
G1 X94.494 Y113.65 E.01677
G1 X103.515 Y122.671 E.40074
G1 X103.317 Y123.007 E.01225
G1 X94.494 Y114.184 E.39194
G1 X94.494 Y114.719 E.01681
G1 X103.118 Y123.343 E.3831
G1 X102.92 Y123.679 E.01225
G1 X94.494 Y115.253 E.37431
G1 X94.494 Y115.787 E.01677
G1 X102.722 Y124.015 E.36551
G1 X102.523 Y124.351 E.01227
G1 X94.494 Y116.321 E.35669
G1 X94.494 Y116.856 E.01681
G1 X102.325 Y124.687 E.34788
G1 X102.127 Y125.023 E.01225
G1 X94.494 Y117.39 E.33908
G1 X94.494 Y117.924 E.01677
G1 X101.941 Y125.372 E.33084
G1 X101.788 Y125.753 E.0129
G1 X94.494 Y118.458 E.32404
G1 X94.494 Y118.993 E.01681
G1 X101.635 Y126.134 E.31722
G1 X101.481 Y126.514 E.01288
G1 X94.494 Y119.527 E.31038
G1 X94.494 Y120.061 E.01677
G1 X101.328 Y126.895 E.30359
G1 X101.174 Y127.276 E.01291
G1 X94.494 Y120.595 E.29677
G1 X94.494 Y121.13 E.01681
G1 X101.021 Y127.657 E.28995
G1 X100.867 Y128.038 E.01291
G1 X94.494 Y121.664 E.28313
G1 X94.494 Y122.198 E.01677
G1 X100.714 Y128.418 E.27631
G1 X100.61 Y128.849 E.01393
G1 X94.494 Y122.732 E.27171
G1 X94.494 Y123.267 E.01681
G1 X100.509 Y129.282 E.2672
G1 X100.408 Y129.715 E.01397
G1 X94.494 Y123.801 E.26272
G1 X94.494 Y124.335 E.01677
G1 X100.307 Y130.148 E.25823
G1 X100.206 Y130.582 E.014
G1 X94.494 Y124.869 E.25377
G1 X94.494 Y125.404 E.01681
G1 X100.105 Y131.015 E.24926
G1 X100.004 Y131.448 E.01397
G1 X94.494 Y125.938 E.24477
G1 X94.494 Y126.472 E.01677
G1 X99.903 Y131.881 E.24028
G1 X99.871 Y132.018 E.00442
G1 X99.845 Y132.358 E.01071
G1 X94.494 Y127.006 E.23773
G1 X94.494 Y127.541 E.01681
G1 X99.807 Y132.854 E.23602
G1 X99.77 Y133.351 E.01565
G1 X94.494 Y128.075 E.23438
G1 X94.494 Y128.609 E.01677
G1 X99.732 Y133.847 E.23269
G1 X99.694 Y134.344 E.01566
G1 X94.494 Y129.143 E.23102
G1 X94.494 Y129.678 E.01681
G1 X99.657 Y134.841 E.22936
G1 X99.619 Y135.337 E.01563
G1 X94.494 Y130.212 E.22767
G1 X94.494 Y130.746 E.01677
G1 X99.61 Y135.862 E.22727
G1 X99.61 Y136.397 E.01681
G1 X94.494 Y131.28 E.22729
G1 X94.494 Y131.815 E.01681
G1 X99.61 Y136.931 E.22727
G1 X99.61 Y137.465 E.01677
G1 X94.494 Y132.349 E.22727
G1 X94.494 Y132.883 E.01677
G1 X99.61 Y137.999 E.22727
G1 X99.61 Y138.534 E.01681
G1 X94.494 Y133.417 E.22729
G1 X94.494 Y133.952 E.01681
G1 X99.61 Y139.068 E.22727
G1 X99.61 Y139.602 E.01677
G1 X94.494 Y134.486 E.22727
G1 X94.494 Y135.02 E.01677
G1 X99.61 Y140.136 E.22727
G1 X99.61 Y140.671 E.01681
G1 X94.494 Y135.554 E.22729
G1 X94.494 Y136.089 E.01681
G1 X99.61 Y141.205 E.22727
G1 X99.61 Y141.739 E.01677
G1 X94.494 Y136.623 E.22727
G1 X94.494 Y137.157 E.01677
G1 X99.61 Y142.273 E.22727
G1 X99.61 Y142.808 E.01681
G1 X94.494 Y137.691 E.22729
G1 X94.494 Y138.226 E.01681
G1 X99.61 Y143.342 E.22727
G1 X99.61 Y143.876 E.01677
G1 X94.494 Y138.76 E.22727
G1 X94.494 Y139.294 E.01677
G1 X99.61 Y144.41 E.22727
G1 X99.61 Y144.945 E.01681
G1 X94.494 Y139.828 E.22729
G1 X94.494 Y140.363 E.01681
G1 X99.61 Y145.479 E.22727
G1 X99.61 Y146.013 E.01677
G1 X94.494 Y140.897 E.22727
G1 X94.494 Y141.431 E.01677
G1 X99.61 Y146.547 E.22727
G1 X99.61 Y147.082 E.01681
G1 X94.494 Y141.965 E.22729
G1 X94.494 Y142.5 E.01681
G1 X99.61 Y147.616 E.22727
G1 X99.61 Y148.15 E.01677
G1 X94.494 Y143.034 E.22727
G1 X94.494 Y143.568 E.01677
G1 X99.61 Y148.684 E.22727
G1 X99.61 Y149.219 E.01681
G1 X94.494 Y144.102 E.22729
G1 X94.47 Y144.352 E.00789
G1 X94.4 Y144.543 E.00639
G1 X99.61 Y149.753 E.23144
G1 X99.61 Y150.287 E.01677
G1 X94.163 Y144.841 E.24195
G1 X94.022 Y144.937 E.00536
G1 X93.804 Y145.016 E.00728
G1 X99.61 Y150.821 E.2579
G1 X99.61 Y151.356 E.01681
G1 X93.3 Y145.046 E.28031
G1 X92.766 Y145.046 E.01677
G1 X99.61 Y151.89 E.30403
G1 X99.61 Y152.424 E.01677
G1 X92.232 Y145.046 E.32775
G1 X91.698 Y145.046 E.01677
G1 X99.61 Y152.958 E.35147
G1 X99.61 Y153.493 E.01681
G1 X91.163 Y145.046 E.37524
G1 X90.629 Y145.046 E.01677
G1 X99.61 Y154.027 E.39896
G1 X99.61 Y154.561 E.01677
G1 X90.095 Y145.046 E.42268
G1 X89.561 Y145.046 E.01677
G1 X99.308 Y154.793 E.43299
G1 X98.773 Y154.793 E.01681
G1 X89.026 Y145.046 E.43299
G1 X88.492 Y145.046 E.01677
G1 X98.239 Y154.793 E.43299
G1 X97.705 Y154.793 E.01677
G1 X87.958 Y145.046 E.43299
G1 X87.424 Y145.046 E.01677
G1 X97.171 Y154.793 E.43299
G1 X96.636 Y154.793 E.01681
G1 X86.889 Y145.046 E.43299
G1 X86.355 Y145.046 E.01677
G1 X96.102 Y154.793 E.43299
G1 X95.568 Y154.793 E.01677
G1 X85.821 Y145.046 E.43299
G1 X85.287 Y145.046 E.01677
G1 X95.034 Y154.793 E.43299
G1 X94.499 Y154.793 E.01681
M73 Q2 S88
G1 X84.752 Y145.046 E.43299
G1 X84.218 Y145.046 E.01677
G1 X93.965 Y154.793 E.43299
G1 X93.431 Y154.793 E.01677
G1 X83.684 Y145.046 E.43299
G1 X83.15 Y145.046 E.01677
G1 X92.897 Y154.793 E.43299
G1 X92.362 Y154.793 E.01681
G1 X82.615 Y145.046 E.43299
G1 X82.081 Y145.046 E.01677
G1 X91.828 Y154.793 E.43299
G1 X91.294 Y154.793 E.01677
M73 P2 R87
G1 X81.547 Y145.046 E.43299
G1 X81.013 Y145.046 E.01677
G1 X90.76 Y154.793 E.43299
G1 X90.225 Y154.793 E.01681
G1 X80.478 Y145.046 E.43299
G1 X79.944 Y145.046 E.01677
G1 X89.691 Y154.793 E.43299
G1 X89.157 Y154.793 E.01677
G1 X79.41 Y145.046 E.43299
G1 X78.876 Y145.046 E.01677
G1 X88.623 Y154.793 E.43299
G1 X88.088 Y154.793 E.01681
M73 P3 R87
G1 X78.341 Y145.046 E.43299
G1 X77.807 Y145.046 E.01677
G1 X87.554 Y154.793 E.43299
G1 X87.02 Y154.793 E.01677
M73 Q3 S88
G1 X77.273 Y145.046 E.43299
G1 X76.739 Y145.046 E.01677
G1 X86.486 Y154.793 E.43299
G1 X85.951 Y154.793 E.01681
G1 X76.035 Y144.876 E.44052
M204 S1000
;WIPE_START
G1 F8640
G1 X78.485 Y147.326 E-.8
;WIPE_END
